; generated by Slic3r 0.9.2-dev on 2012-08-22 at 21:14:24

; layer_height = 0.35
; perimeters = 3
; solid_layers = 2
; fill_density = 1
; perimeter_speed = 25
; infill_speed = 25
; travel_speed = 130
; scale = 1
; nozzle_diameter = 0.5
; filament_diameter = 2.96
; extrusion_multiplier = 1
; single wall width = 0.35mm
; first layer single wall width = 1.00mm

M104 S191 ; set temperature
G28 ; home all axes
M109 S191 ; wait for temperature to be reached
G90 ; use absolute coordinates
G21 ; set units to millimeters
G92 E0
M82 ; use absolute distances for extrusion
G1 Z0.500 F7800.000
G1 X65.580 Y93.290
G1 F1800.000 E1.00000
G1 X93.710 Y65.190 F600.000 E3.57902
G1 X94.400 Y64.670 E3.63506
G1 X94.890 Y64.380 E3.67200
G1 X95.670 Y64.020 E3.72772
G1 X96.220 Y63.830 E3.76546
G1 X96.770 Y63.690 E3.80228
G1 X97.340 Y63.600 E3.83971
G1 X97.910 Y63.550 E3.87682
G1 X98.200 Y63.540 E3.89564
G1 X102.080 Y63.550 E4.14731
G1 X102.650 Y63.600 E4.18443
G1 X103.220 Y63.690 E4.22186
G1 X103.770 Y63.830 E4.25867
G1 X104.320 Y64.020 E4.29641
G1 X105.100 Y64.380 E4.35214
G1 X105.350 Y64.520 E4.37072
G1 X106.060 Y65.010 E4.42668
G1 X106.500 Y65.380 E4.46397
G1 X113.410 Y72.290 E5.09783
G1 X113.400 Y72.290 E5.09848
G1 X134.790 Y93.710 E7.06198
G1 X135.310 Y94.400 E7.11803
G1 X135.600 Y94.890 E7.15496
G1 X135.960 Y95.670 E7.21068
G1 X136.150 Y96.220 E7.24843
G1 X136.290 Y96.770 E7.28524
G1 X136.380 Y97.340 E7.32267
G1 X136.430 Y97.910 E7.35978
G1 X136.430 Y102.080 E7.63026
G1 X136.380 Y102.650 E7.66738
G1 X136.290 Y103.220 E7.70481
G1 X136.150 Y103.770 E7.74162
G1 X135.850 Y104.580 E7.79765
G1 X135.600 Y105.100 E7.83507
G1 X135.310 Y105.590 E7.87201
G1 X134.970 Y106.060 E7.90963
G1 X134.400 Y106.700 E7.96522
G1 X106.500 Y134.610 E10.52498
G1 X106.060 Y134.980 E10.56227
G1 X105.350 Y135.470 E10.61823
G1 X104.840 Y135.740 E10.65566
G1 X104.320 Y135.970 E10.69254
G1 X103.770 Y136.160 E10.73028
G1 X103.220 Y136.300 E10.76709
G1 X102.650 Y136.390 E10.80452
G1 X102.080 Y136.440 E10.84164
G1 X101.790 Y136.450 E10.86046
G1 X97.910 Y136.440 E11.11213
G1 X97.340 Y136.390 E11.14925
G1 X96.770 Y136.300 E11.18668
G1 X96.220 Y136.160 E11.22349
G1 X95.670 Y135.970 E11.26123
G1 X94.890 Y135.610 E11.31696
G1 X94.400 Y135.320 E11.35389
G1 X93.930 Y134.980 E11.39151
G1 X93.290 Y134.410 E11.44710
G1 X65.190 Y106.280 E14.02613
G1 X64.670 Y105.590 E14.08217
G1 X64.380 Y105.100 E14.11910
G1 X64.020 Y104.320 E14.17482
G1 X63.830 Y103.770 E14.21257
G1 X63.690 Y103.220 E14.24938
G1 X63.600 Y102.650 E14.28681
G1 X63.550 Y102.080 E14.32392
G1 X63.550 Y97.910 E14.59441
G1 X63.600 Y97.340 E14.63152
G1 X63.690 Y96.770 E14.66895
G1 X63.830 Y96.220 E14.70576
G1 X64.020 Y95.670 E14.74351
G1 X64.380 Y94.890 E14.79923
G1 X64.670 Y94.400 E14.83616
G1 X65.010 Y93.930 E14.87379
G1 X65.477 Y93.398 E14.91966
G1 F1800.000 E13.91966
G92 E0
G1 X67.291 Y96.063 F7800.000
G1 F1800.000 E1.00000
G1 X75.063 Y88.291 F600.000 E1.71293
G1 X76.454 Y87.715 E1.81061
G1 X78.639 Y87.715 E1.95234
G1 X87.715 Y78.639 E2.78486
G1 X87.715 Y76.454 E2.92659
G1 X88.291 Y75.063 E3.02427
G1 X96.063 Y67.291 E3.73720
G1 X97.454 Y66.714 E3.83488
G1 X102.546 Y66.714 E4.16514
G1 X103.937 Y67.291 E4.26282
G1 X111.709 Y75.063 E4.97575
G1 X112.285 Y76.454 E5.07343
G1 X112.285 Y78.639 E5.21516
G1 X121.361 Y87.715 E6.04768
G1 X123.546 Y87.715 E6.18941
G1 X124.937 Y88.291 E6.28709
G1 X132.709 Y96.063 E7.00002
G1 X133.285 Y97.454 E7.09770
G1 X133.285 Y102.546 E7.42797
G1 X132.709 Y103.937 E7.52565
G1 X124.937 Y111.709 E8.23858
G1 X123.546 Y112.286 E8.33626
G1 X121.361 Y112.286 E8.47798
G1 X112.285 Y121.361 E9.31050
G1 X112.285 Y123.546 E9.45223
G1 X111.709 Y124.937 E9.54991
G1 X103.937 Y132.709 E10.26283
G1 X102.546 Y133.286 E10.36051
G1 X97.454 Y133.286 E10.69078
G1 X96.063 Y132.709 E10.78846
G1 X88.291 Y124.937 E11.50139
G1 X87.715 Y123.546 E11.59907
G1 X87.715 Y121.361 E11.74079
G1 X78.639 Y112.286 E12.57331
G1 X76.454 Y112.286 E12.71504
G1 X75.063 Y111.709 E12.81272
G1 X67.291 Y103.937 E13.52565
G1 X66.715 Y102.546 E13.62333
G1 X66.715 Y97.454 E13.95360
G1 X67.233 Y96.202 E14.04155
G1 X68.093 Y96.599 F7800.000
G1 X75.599 Y89.093 F600.000 E14.73006
G1 X76.642 Y88.661 E14.80332
G1 X79.031 Y88.661 E14.95826
G1 X88.661 Y79.031 E15.84163
G1 X88.661 Y76.642 E15.99658
G1 X89.093 Y75.599 E16.06984
G1 X96.599 Y68.093 E16.75835
G1 X97.642 Y67.661 E16.83161
G1 X102.358 Y67.661 E17.13746
G1 X103.401 Y68.093 E17.21072
G1 X110.907 Y75.599 E17.89923
G1 X111.339 Y76.642 E17.97249
G1 X111.339 Y79.031 E18.12743
G1 X120.969 Y88.661 E19.01080
G1 X123.358 Y88.661 E19.16574
G1 X124.401 Y89.093 E19.23900
G1 X131.907 Y96.599 E19.92752
G1 X132.339 Y97.643 E20.00078
G1 X132.339 Y102.358 E20.30662
G1 X131.907 Y103.401 E20.37988
G1 X124.401 Y110.907 E21.06839
G1 X123.358 Y111.339 E21.14165
G1 X120.969 Y111.339 E21.29660
G1 X111.339 Y120.969 E22.17997
G1 X111.339 Y123.358 E22.33491
G1 X110.907 Y124.401 E22.40817
G1 X103.401 Y131.907 E23.09667
G1 X102.358 Y132.339 E23.16994
G1 X97.642 Y132.339 E23.47578
G1 X96.599 Y131.907 E23.54904
G1 X89.093 Y124.401 E24.23755
G1 X88.661 Y123.358 E24.31081
G1 X88.661 Y120.969 E24.46575
G1 X79.031 Y111.339 E25.34912
G1 X76.642 Y111.339 E25.50407
G1 X75.599 Y110.907 E25.57733
G1 X68.093 Y103.401 E26.26584
G1 X67.661 Y102.358 E26.33910
G1 X67.661 Y97.642 E26.64494
G1 X68.036 Y96.738 E26.70847
G1 X68.895 Y97.135 F7800.000
G1 X76.135 Y89.896 F600.000 E27.37256
G1 X76.831 Y89.607 E27.42140
G1 X79.423 Y89.607 E27.58956
G1 X89.607 Y79.423 E28.52379
G1 X89.607 Y76.830 E28.69195
G1 X89.895 Y76.135 E28.74079
G1 X97.135 Y68.895 E29.40488
G1 X97.831 Y68.607 E29.45372
G1 X102.169 Y68.607 E29.73514
G1 X102.865 Y68.895 E29.78398
G1 X110.105 Y76.135 E30.44807
G1 X110.393 Y76.830 E30.49691
G1 X110.393 Y79.423 E30.66507
G1 X120.577 Y89.607 E31.59930
G1 X123.169 Y89.607 E31.76746
G1 X123.865 Y89.896 E31.81630
G1 X131.105 Y97.135 E32.48039
G1 X131.393 Y97.831 E32.52923
G1 X131.393 Y102.169 E32.81066
G1 X131.105 Y102.865 E32.85950
G1 X123.865 Y110.105 E33.52359
G1 X123.169 Y110.393 E33.57243
G1 X120.577 Y110.393 E33.74059
G1 X110.392 Y120.577 E34.67481
G1 X110.393 Y123.170 E34.84297
G1 X110.104 Y123.865 E34.89181
G1 X102.865 Y131.105 E35.55589
G1 X102.169 Y131.393 E35.60473
G1 X97.831 Y131.393 E35.88616
G1 X97.135 Y131.105 E35.93500
G1 X89.896 Y123.865 E36.59909
G1 X89.607 Y123.170 E36.64793
G1 X89.607 Y120.577 E36.81608
G1 X79.423 Y110.393 E37.75031
G1 X76.831 Y110.393 E37.91847
G1 X76.135 Y110.105 E37.96731
G1 X68.895 Y102.865 E38.63140
G1 X68.607 Y102.169 E38.68024
G1 X68.607 Y97.831 E38.96166
G1 X68.838 Y97.274 E39.00077
G1 X69.698 Y97.671 F7800.000
G1 X76.671 Y90.698 F600.000 E39.64045
G1 X77.019 Y90.554 E39.66487
G1 X79.815 Y90.554 E39.84624
G1 X90.554 Y79.815 E40.83132
G1 X90.554 Y77.019 E41.01269
G1 X90.698 Y76.671 E41.03711
G1 X97.671 Y69.697 E41.67678
G1 X98.019 Y69.553 E41.70120
G1 X101.981 Y69.553 E41.95821
G1 X102.329 Y69.697 E41.98263
G1 X109.302 Y76.671 E42.62230
G1 X109.446 Y77.019 E42.64672
G1 X109.446 Y79.815 E42.82810
G1 X120.185 Y90.554 E43.81317
G1 X122.981 Y90.554 E43.99455
G1 X123.329 Y90.698 E44.01897
G1 X130.302 Y97.671 E44.65864
G1 X130.446 Y98.019 E44.68306
G1 X130.446 Y101.981 E44.94007
G1 X130.302 Y102.329 E44.96449
G1 X123.329 Y109.302 E45.60416
G1 X122.981 Y109.446 E45.62858
G1 X120.185 Y109.446 E45.80995
G1 X109.446 Y120.185 E46.79503
G1 X109.446 Y122.981 E46.97640
G1 X109.302 Y123.329 E47.00082
G1 X102.329 Y130.303 E47.64049
G1 X101.981 Y130.447 E47.66491
G1 X98.019 Y130.447 E47.92191
G1 X97.671 Y130.303 E47.94634
G1 X90.698 Y123.329 E48.58600
G1 X90.554 Y122.981 E48.61042
G1 X90.554 Y120.185 E48.79179
G1 X79.815 Y109.446 E49.77687
G1 X77.019 Y109.446 E49.95825
G1 X76.671 Y109.302 E49.98267
G1 X69.698 Y102.329 E50.62234
G1 X69.554 Y101.981 E50.64676
G1 X69.554 Y98.019 E50.90376
G1 X69.640 Y97.810 E50.91845
G1 F1800.000 E49.91845
G92 E0
G1 X73.067 Y98.976 F7800.000
G1 F1800.000 E1.00000
G1 X73.224 Y98.677 F360.000 E1.02193
G1 X73.427 Y98.406 E1.04387
G1 X73.671 Y98.172 E1.06581
G1 X73.949 Y97.980 E1.08775
G1 X74.255 Y97.835 E1.10969
G1 X74.913 Y97.644 E1.15414
G1 X75.254 Y97.714 E1.17670
G1 X75.254 Y97.714 E1.17671
G1 X75.585 Y97.781 E1.19860
G1 X75.853 Y97.883 E1.21723
G1 X75.853 Y97.883 E1.21723
G1 X75.901 Y97.901 E1.22055
G1 X76.194 Y98.070 E1.24248
G1 X76.233 Y98.103 E1.24579
G1 X76.233 Y98.103 E1.24579
G1 X76.456 Y98.284 E1.26442
G1 X76.680 Y98.538 E1.28636
G1 X76.861 Y98.823 E1.30829
G1 X76.993 Y99.135 E1.33024
G1 X77.074 Y99.463 E1.35218
G1 X77.102 Y99.800 E1.37411
G1 X77.074 Y100.137 E1.39604
G1 X76.993 Y100.466 E1.41799
G1 X76.861 Y100.777 E1.43993
G1 X76.680 Y101.063 E1.46186
G1 X76.456 Y101.316 E1.48380
G1 X76.194 Y101.530 E1.50574
G1 X75.901 Y101.699 E1.52768
G1 X75.632 Y101.801 E1.54630
G1 X75.632 Y101.801 E1.54630
G1 X75.585 Y101.819 E1.54962
G1 X75.253 Y101.886 E1.57155
G1 X75.202 Y101.888 E1.57487
G1 X75.202 Y101.888 E1.57487
G1 X74.915 Y101.900 E1.59349
G1 X74.579 Y101.859 E1.61546
G1 X74.579 Y101.859 E1.61547
G1 X74.191 Y101.812 E1.64085
G1 X74.191 Y101.787 E1.64249
G1 X73.671 Y101.428 E1.68345
G1 X73.427 Y101.194 E1.70539
G1 X73.224 Y100.923 E1.72732
G1 X73.067 Y100.624 E1.74926
G1 X72.976 Y100.352 E1.76789
G1 X72.976 Y100.352 E1.76789
G1 X72.959 Y100.303 E1.77120
G1 X72.951 Y100.253 E1.77452
G1 X72.951 Y100.253 E1.77452
G1 X72.905 Y99.969 E1.79314
G1 X72.905 Y99.631 E1.81508
G1 X72.959 Y99.297 E1.83702
G1 X73.019 Y99.119 E1.84924
G1 F1800.000 E0.84924
G92 E0
G1 X98.535 Y76.403 F7800.000
G1 F1800.000 E1.00000
G1 X98.330 Y76.133 F360.000 E1.02197
G1 X98.171 Y75.834 E1.04393
G1 X98.062 Y75.514 E1.06590
G1 X98.006 Y75.180 E1.08787
G1 X98.004 Y74.841 E1.10983
G1 X98.057 Y74.506 E1.13180
G1 X98.162 Y74.185 E1.15377
G1 X98.319 Y73.884 E1.17574
G1 X98.521 Y73.613 E1.19770
G1 X98.764 Y73.377 E1.21967
G1 X99.042 Y73.184 E1.24164
G1 X99.348 Y73.038 E1.26361
G1 X99.673 Y72.942 E1.28558
G1 X100.009 Y72.901 E1.30755
G1 X100.348 Y72.913 E1.32952
G1 X100.680 Y72.981 E1.35149
G1 X100.997 Y73.100 E1.37346
G1 X101.290 Y73.269 E1.39543
G1 X101.553 Y73.483 E1.41740
G1 X101.778 Y73.736 E1.43938
G1 X101.959 Y74.022 E1.46135
G1 X102.092 Y74.334 E1.48332
G1 X102.173 Y74.663 E1.50529
G1 X102.201 Y75.000 E1.52725
G1 X102.173 Y75.341 E1.54942
G1 X102.089 Y75.674 E1.57168
G1 X101.953 Y75.989 E1.59395
G1 X101.767 Y76.277 E1.61621
G1 X101.581 Y76.486 E1.63435
G1 X101.536 Y76.531 E1.63848
G1 X101.320 Y76.708 E1.65662
G1 X101.268 Y76.745 E1.66074
G1 X101.025 Y76.885 E1.67888
G1 X100.968 Y76.911 E1.68300
G1 X100.706 Y77.011 E1.70115
G1 X100.645 Y77.027 E1.70527
G1 X100.371 Y77.083 E1.72341
G1 X100.030 Y77.100 E1.74557
G1 X99.693 Y77.061 E1.76754
G1 X99.367 Y76.969 E1.78950
G1 X99.060 Y76.826 E1.81147
G1 X98.780 Y76.636 E1.83343
G1 X98.643 Y76.507 E1.84566
G1 F1800.000 E0.84566
G92 E0
G1 X123.340 Y98.454 F7800.000
G1 F1800.000 E1.00000
G1 X123.377 Y98.454 F360.000 E1.00237
G1 X123.634 Y98.208 E1.02549
G1 X123.634 Y98.208 E1.02549
G1 X123.671 Y98.172 E1.02881
G1 X123.949 Y97.980 E1.05075
G1 X123.950 Y97.980 E1.05077
G1 X124.090 Y97.883 E1.06185
G1 X124.913 Y97.644 E1.11741
G1 X125.254 Y97.714 E1.13996
G1 X125.254 Y97.714 E1.13997
G1 X125.585 Y97.781 E1.16188
G1 X125.901 Y97.901 E1.18382
G1 X126.194 Y98.071 E1.20576
G1 X126.456 Y98.284 E1.22770
G1 X126.680 Y98.538 E1.24963
G1 X126.861 Y98.823 E1.27157
G1 X126.993 Y99.135 E1.29352
G1 X127.074 Y99.463 E1.31546
G1 X127.102 Y99.800 E1.33739
G1 X127.074 Y100.137 E1.35933
G1 X126.993 Y100.466 E1.38126
G1 X126.861 Y100.777 E1.40321
G1 X126.680 Y101.063 E1.42514
G1 X126.456 Y101.316 E1.44708
G1 X126.194 Y101.530 E1.46902
G1 X125.955 Y101.668 E1.48689
G1 X125.955 Y101.678 E1.48759
G1 X125.901 Y101.699 E1.49133
G1 X125.400 Y101.988 E1.52890
G1 X125.225 Y101.888 E1.54197
G1 X124.915 Y101.900 E1.56208
G1 X124.580 Y101.859 E1.58402
G1 X124.090 Y101.718 E1.61706
G1 X123.950 Y101.621 E1.62812
G1 X123.950 Y101.621 E1.62813
G1 X123.671 Y101.428 E1.65012
G1 X123.427 Y101.194 E1.67206
G1 X123.121 Y100.787 E1.70509
G1 X123.083 Y100.672 E1.71290
G1 X123.019 Y100.672 E1.71701
G1 X122.959 Y100.302 E1.74134
G1 X122.959 Y100.302 E1.74135
G1 X122.905 Y99.969 E1.76322
G1 X122.905 Y99.631 E1.78516
G1 X122.959 Y99.297 E1.80709
G1 X123.067 Y98.976 E1.82904
G1 X123.224 Y98.677 E1.85098
G1 X123.224 Y98.677 E1.85099
G1 X123.271 Y98.587 E1.85753
G1 F1800.000 E0.85753
G92 E0
G1 X117.425 Y99.124 F7800.000
G1 F1800.000 E1.00000
G1 X117.425 Y100.877 F600.000 E1.11372
G1 X117.364 Y101.681 E1.16607
G1 X117.364 Y101.681 E1.16607
G1 X117.249 Y102.621 E1.22747
G1 X116.914 Y104.271 E1.33666
G1 X116.914 Y104.271 E1.33666
G1 X116.659 Y105.183 E1.39806
G1 X116.055 Y106.828 E1.51178
G1 X115.721 Y107.563 E1.56413
G1 X115.721 Y107.563 E1.56413
G1 X115.289 Y108.405 E1.62553
G1 X114.368 Y109.897 E1.73925
G1 X113.302 Y111.289 E1.85297
G1 X112.102 Y112.567 E1.96669
G1 X110.833 Y113.674 E2.07588
G1 X110.833 Y113.674 E2.07588
G1 X110.077 Y114.243 E2.13729
G1 X108.656 Y115.146 E2.24647
G1 X108.656 Y115.146 E2.24647
G1 X107.884 Y115.562 E2.30335
G1 X107.884 Y115.562 E2.30335
G1 X107.093 Y115.938 E2.36022
G1 X107.093 Y115.938 E2.36022
G1 X106.218 Y116.301 E2.42162
G1 X105.457 Y116.570 E2.47397
G1 X105.457 Y116.570 E2.47397
G1 X104.551 Y116.843 E2.53537
G1 X102.906 Y117.202 E2.64456
G1 X102.906 Y117.202 E2.64456
G1 X101.969 Y117.335 E2.70596
G1 X100.219 Y117.446 E2.81968
G1 X99.412 Y117.435 E2.87204
G1 X99.412 Y117.435 E2.87204
G1 X99.273 Y117.430 E2.88109
G1 X99.273 Y117.430 E2.88109
G1 X97.596 Y117.281 E2.99028
G1 X95.875 Y116.952 E3.10390
G1 X94.587 Y116.580 E3.19090
G1 X94.587 Y116.580 E3.19090
G1 X93.374 Y116.140 E3.27459
G1 X92.635 Y115.815 E3.32693
G1 X92.635 Y115.815 E3.32693
G1 X91.788 Y115.393 E3.38834
G1 X90.284 Y114.491 E3.50206
G1 X88.572 Y113.202 E3.64107
G1 X88.572 Y113.176 E3.64275
G1 X88.270 Y112.913 E3.66873
G1 X88.270 Y112.913 E3.66873
G1 X87.586 Y112.259 E3.73013
G1 X86.418 Y110.951 E3.84385
G1 X85.388 Y109.533 E3.95757
G1 X84.964 Y108.846 E4.00992
G1 X84.964 Y108.846 E4.00992
G1 X84.505 Y108.018 E4.07132
G1 X84.086 Y107.145 E4.13413
G1 X84.086 Y107.145 E4.13413
G1 X83.476 Y105.600 E4.24191
G1 X82.998 Y103.913 E4.35563
G1 X82.822 Y103.053 E4.41254
G1 X82.822 Y103.053 E4.41254
G1 X82.727 Y102.587 E4.44343
G1 X82.731 Y102.587 E4.44367
G1 X82.512 Y99.514 E4.64345
G1 X82.561 Y99.514 E4.64662
G1 X82.644 Y97.857 E4.75427
G1 X82.684 Y97.857 E4.75685
G1 X82.998 Y96.087 E4.87342
G1 X83.455 Y94.467 E4.98261
G1 X83.455 Y94.467 E4.98261
G1 X83.778 Y93.578 E5.04401
G1 X84.339 Y92.259 E5.13696
G1 X84.370 Y92.259 E5.13897
G1 X84.608 Y91.770 E5.17426
G1 X84.597 Y91.749 E5.17578
G1 X85.885 Y89.745 E5.33031
G1 X86.379 Y89.101 E5.38295
G1 X86.376 Y89.098 E5.38317
G1 X87.586 Y87.741 E5.50110
G1 X88.879 Y86.557 E5.61482
G1 X90.284 Y85.509 E5.72854
G1 X91.788 Y84.607 E5.84226
G1 X93.374 Y83.860 E5.95598
G1 X94.341 Y83.500 E6.02295
G1 X94.341 Y83.500 E6.02295
G1 X95.874 Y83.048 E6.12657
G1 X97.809 Y82.628 E6.25505
G1 X97.809 Y82.695 E6.25940
G1 X100.278 Y82.507 E6.42002
G1 X100.278 Y82.557 E6.42327
G1 X101.969 Y82.665 E6.53314
G1 X103.468 Y82.906 E6.63162
G1 X103.468 Y82.906 E6.63162
G1 X104.551 Y83.157 E6.70373
G1 X106.408 Y83.766 E6.83048
G1 X106.408 Y83.650 E6.83797
G1 X109.348 Y85.269 E7.05571
G1 X110.019 Y85.719 E7.10806
G1 X110.019 Y85.719 E7.10806
G1 X110.780 Y86.282 E7.16946
G1 X112.102 Y87.433 E7.28318
G1 X113.256 Y88.659 E7.39237
G1 X113.256 Y88.659 E7.39237
G1 X113.853 Y89.394 E7.45377
G1 X114.529 Y90.350 E7.52973
G1 X114.529 Y90.350 E7.52973
G1 X114.882 Y90.898 E7.57204
G1 X114.882 Y90.898 E7.57204
G1 X115.692 Y92.374 E7.68123
G1 X116.378 Y93.987 E7.79494
G1 X116.880 Y95.594 E7.90413
G1 X116.880 Y95.594 E7.90413
G1 X117.194 Y96.944 E7.99403
G1 X117.350 Y98.179 E8.07477
G1 X117.353 Y98.179 E8.07500
G1 X117.413 Y98.974 E8.12672
G1 X116.476 Y99.125 F7800.000
G1 X116.500 Y100.000 F540.000 E8.18350
G1 X116.417 Y101.656 E8.29105
G1 X116.168 Y103.295 E8.39860
G1 X115.755 Y104.901 E8.50615
G1 X115.184 Y106.458 E8.61370
G1 X114.459 Y107.949 E8.72125
G1 X113.588 Y109.360 E8.82879
G1 X112.580 Y110.677 E8.93634
G1 X111.445 Y111.885 E9.04389
G1 X110.195 Y112.974 E9.15144
G1 X108.841 Y113.932 E9.25899
