; generated by Slic3r 1.1.0 on 2014-03-30 at 10:56:18

; perimeters extrusion width = 0.50mm
; infill extrusion width = 0.50mm
; solid infill extrusion width = 0.50mm
; top infill extrusion width = 0.85mm
; support material extrusion width = 0.50mm

G21 ; set units to millimeters
M107
M104 S195 ; set temperature
; G28 ; home all axes
G1 Z5 F5000 ; lift nozzle
M109 S195 ; wait for temperature to be reached
G90 ; use absolute coordinates
G92 E0
M82 ; use absolute distances for extrusion
G1 F2400.000 E-4.50000
G92 E0
G1 Z0.350 F9000.000
G1 X73.531 Y68.940 F9000.000
G1 E4.50000 F2400.000
G1 X74.325 Y68.141 E4.53789 F900
G1 X75.157 Y67.382 E4.57578
G1 X76.151 Y66.568 E4.61900
G1 X77.114 Y65.864 E4.65914
G1 X78.190 Y65.164 E4.70234
G1 X79.225 Y64.569 E4.74250
G1 X80.432 Y63.962 E4.78797
G1 X81.464 Y63.512 E4.82586
G1 X82.667 Y63.063 E4.86905
G1 X83.806 Y62.706 E4.90922
G1 X84.896 Y62.425 E4.94711
G1 X86.155 Y62.172 E4.99033
G1 X87.336 Y62.000 E5.03047
G1 X88.458 Y61.896 E5.06837
G1 X89.808 Y61.844 E5.11383
G1 X90.934 Y61.862 E5.15172
G1 X92.280 Y61.958 E5.19714
G1 X93.399 Y62.099 E5.23508
G1 X94.510 Y62.296 E5.27304
G1 X95.822 Y62.604 E5.31840
G1 X96.904 Y62.921 E5.35633
G1 X97.968 Y63.290 E5.39423
G1 X99.218 Y63.803 E5.43970
G1 X100.235 Y64.287 E5.47759
G1 X101.365 Y64.899 E5.52083
G1 X102.380 Y65.524 E5.56094
G1 X103.308 Y66.163 E5.59884
G1 X104.203 Y66.847 E5.63673
G1 X105.180 Y67.680 E5.67995
G1 X106.044 Y68.503 E5.72009
G1 X106.925 Y69.437 E5.76331
G1 X107.694 Y70.349 E5.80345
G1 X108.243 Y71.064 E5.83376
G1 X108.763 Y71.800 E5.86407
G1 X109.133 Y72.365 E5.88681
G1 X109.601 Y73.135 E5.91713
G1 X110.037 Y73.923 E5.94745
G1 X110.343 Y74.526 E5.97018
G1 X110.724 Y75.342 E6.00049
G1 X111.072 Y76.173 E6.03081
G1 X111.386 Y77.018 E6.06112
G1 X111.666 Y77.874 E6.09143
G1 X111.855 Y78.525 E6.11424
G1 X112.075 Y79.396 E6.14449
G1 X112.260 Y80.278 E6.17480
G1 X112.401 Y81.105 E6.20303
G1 X112.518 Y81.995 E6.23322
G1 X112.588 Y82.731 E6.25809
G1 X112.640 Y83.632 E6.28848
G1 X112.657 Y84.500 E6.31768
G1 X112.657 Y111.500 E7.22616
G1 X112.260 Y113.765 E7.30352
G1 X111.116 Y115.759 E7.38088
G1 X109.363 Y117.245 E7.45824
G1 X107.208 Y118.047 E7.53559
G1 X106.000 Y118.157 E7.57640
G1 X74.000 Y118.157 E8.65311
G1 X71.735 Y117.760 E8.73047
G1 X69.741 Y116.616 E8.80783
G1 X68.255 Y114.863 E8.88519
G1 X67.453 Y112.708 E8.96254
G1 X67.343 Y111.500 E9.00335
G1 X67.343 Y84.465 E9.91300
G1 X67.385 Y83.116 E9.95841
G1 X67.482 Y81.994 E9.99630
G1 X67.599 Y81.101 E10.02662
G1 X67.752 Y80.213 E10.05693
G1 X67.940 Y79.332 E10.08724
G1 X68.163 Y78.459 E10.11756
G1 X68.421 Y77.596 E10.14787
G1 X68.711 Y76.746 E10.17808
G1 X69.037 Y75.903 E10.20850
G1 X69.396 Y75.076 E10.23882
G1 X69.787 Y74.265 E10.26913
G1 X70.209 Y73.469 E10.29944
G1 X70.664 Y72.691 E10.32976
G1 X71.149 Y71.932 E10.36008
G1 X71.663 Y71.192 E10.39039
G1 X72.207 Y70.474 E10.42070
G1 X72.778 Y69.777 E10.45102
G1 X73.480 Y68.995 E10.48639
G1 F2400.000 E5.98639
G92 E0
G1 X75.973 Y80.693 F9000.000
G1 E4.50000 F2400.000
G1 X97.515 Y102.235 E5.21163 F1080
G1 X93.591 Y104.832 F9000.000
G1 X98.795 Y110.037 E5.38355 F1080
G1 X97.863 Y110.037 E5.40531
G1 X93.945 Y106.118 E5.53475
G1 X93.927 Y107.031 E5.55608
G1 X96.932 Y110.037 E5.65535
G1 X96.000 Y110.037 E5.67711
G1 X93.743 Y107.779 E5.75169
G1 X93.459 Y108.427 E5.76821
G1 X95.068 Y110.037 E5.82139
G1 X94.137 Y110.037 E5.84315
G1 X93.084 Y108.984 E5.87791
G1 X92.631 Y109.463 E5.89331
G1 X93.205 Y110.037 E5.91227
G1 X87.615 Y110.037 F9000.000
G1 X81.557 Y103.978 E6.11240 F1080
G1 X81.055 Y104.408 E6.12783
G1 X86.683 Y110.037 E6.31376
G1 X85.752 Y110.037 E6.33552
G1 X80.461 Y104.745 E6.51031
G1 X79.762 Y104.978 E6.52752
G1 X84.820 Y110.037 E6.69461
G1 X83.889 Y110.037 E6.71637
G1 X78.913 Y105.062 E6.88072
G1 X77.757 Y104.837 E6.90823
G1 X82.957 Y110.037 E7.07999
G1 X82.025 Y110.037 E7.10175
G1 X76.425 Y104.436 E7.28676
G1 X75.465 Y103.477 F9000.000
G1 X76.308 Y104.319 E7.31459 F1080
G1 X75.465 Y104.408 E7.33438
G1 X81.094 Y110.037 E7.52032
G1 X80.162 Y110.037 E7.54208
G1 X75.465 Y105.339 E7.69725
G1 X75.465 Y106.271 E7.71900
G1 X79.230 Y110.037 E7.84340
G1 X78.299 Y110.037 E7.86516
G1 X75.464 Y107.202 E7.95879
G1 X75.464 Y108.134 E7.98055
G1 X77.367 Y110.037 E8.04341
G1 X76.435 Y110.037 E8.06517
G1 X75.464 Y109.065 E8.09726
G1 X75.464 Y109.997 E8.11902
G1 X75.504 Y110.037 E8.12034
G1 X86.234 Y107.724 F9000.000
G1 X81.973 Y103.462 E8.26112 F1080
G1 X82.296 Y102.854 E8.27722
G1 X86.041 Y106.599 E8.40094
G1 X86.114 Y105.740 E8.42107
G1 X82.506 Y102.132 E8.54026
G1 X82.550 Y101.245 E8.56101
G1 X86.326 Y105.020 E8.68572
G1 X86.641 Y104.404 E8.70190
G1 X82.221 Y99.984 E8.84790
G1 X80.518 Y98.281 F9000.000
G1 X75.468 Y93.231 E9.01472 F1080
G1 X75.468 Y92.299 E9.03648
G1 X87.040 Y103.871 E9.41874
G1 X87.515 Y103.415 E9.43413
G1 X75.468 Y91.368 E9.83210
G1 X75.469 Y90.437 E9.85386
G1 X88.073 Y103.041 E10.27023
G1 X88.716 Y102.752 E10.28669
G1 X75.469 Y89.505 E10.72430
G1 X75.469 Y88.574 E10.74605
G1 X89.471 Y102.576 E11.20859
G1 X90.384 Y102.557 E11.22993
G1 X75.469 Y87.642 E11.72264
G1 X75.469 Y86.711 E11.74439
G1 X91.666 Y102.908 E12.27945
G1 X99.727 Y110.037 F9000.000
G1 X75.470 Y85.780 E13.08077 F1080
G1 X75.470 Y84.848 E13.10252
G1 X100.658 Y110.037 E13.93461
G1 X101.590 Y110.037 E13.95637
G1 X75.480 Y83.927 E14.81890
G1 X75.541 Y83.056 E14.83930
G1 X102.522 Y110.037 E15.73060
G1 X103.453 Y110.037 E15.75236
G1 X75.652 Y82.236 E16.67075
G1 X75.797 Y81.449 E16.68944
G1 X104.385 Y110.037 E17.63382
G1 X104.536 Y109.256 E17.65239
G1 X100.268 Y104.988 E17.79339
G1 X101.263 Y105.051 E17.81667
G1 X104.536 Y108.324 E17.92480
G1 X104.536 Y107.392 E17.94657
G1 X102.046 Y104.902 E18.02882
G1 X102.703 Y104.628 E18.04546
G1 X104.536 Y106.460 E18.10600
G1 X104.535 Y105.529 E18.12777
G1 X103.260 Y104.254 E18.16989
G1 X103.965 Y104.027 E18.18718
G1 X104.535 Y104.597 E18.20601
G1 X104.535 Y103.665 E18.22778
G1 X104.415 Y103.545 E18.23173
G1 X104.534 Y99.005 F9000.000
G1 X97.553 Y92.024 E18.46235 F1080
G1 X97.032 Y92.435 E18.47784
G1 X103.347 Y98.750 E18.68647
G1 X104.533 Y98.073 E18.71837
G1 X97.957 Y91.497 E18.93562
G1 X98.224 Y90.833 E18.95235
G1 X104.533 Y97.141 E19.16076
G1 X104.533 Y96.210 E19.18253
G1 X98.315 Y89.991 E19.38795
G1 X97.652 Y88.397 F9000.000
G1 X104.533 Y95.278 E19.61524 F1080
G1 X104.532 Y94.346 E19.63701
G1 X96.265 Y86.078 E19.91012
G1 X96.043 Y86.788 E19.92748
G1 X97.402 Y88.147 E19.97237
G1 X95.831 Y87.507 F9000.000
G1 X95.765 Y87.442 E19.97452 F1080
G1 X96.409 Y85.291 F9000.000
G1 X104.532 Y93.414 E20.24286 F1080
G1 X104.532 Y92.482 E20.26462
G1 X96.461 Y84.411 E20.53126
G1 X96.364 Y83.382 E20.55539
G1 X104.532 Y91.550 E20.82522
G1 X104.532 Y90.618 E20.84699
G1 X95.991 Y82.078 E21.12911
G1 X92.428 Y78.514 F9000.000
G1 X84.836 Y70.922 E21.37990 F1080
G1 X84.173 Y71.191 E21.39661
G1 X91.116 Y78.135 E21.62597
G1 X90.093 Y78.043 E21.64996
G1 X83.533 Y71.483 E21.86667
G1 X82.927 Y71.808 E21.88274
G1 X89.206 Y78.088 E22.09018
G1 X88.423 Y78.237 E22.10880
G1 X82.343 Y72.156 E22.30965
G1 X81.774 Y72.519 E22.32542
G1 X87.715 Y78.460 E22.52169
G1 X87.067 Y78.744 E22.53821
G1 X86.993 Y78.669 E22.54067
G1 X84.511 Y76.188 F9000.000
G1 X81.239 Y72.915 E22.64879 F1080
G1 X80.713 Y73.321 E22.66430
G1 X83.663 Y76.271 E22.76174
G1 X83.003 Y76.543 E22.77841
G1 X80.220 Y73.760 E22.87035
G1 X79.754 Y74.226 E22.88574
G1 X82.480 Y76.951 E22.97577
G1 X82.063 Y77.466 E22.99124
G1 X79.288 Y74.692 E23.08290
G1 X78.853 Y75.188 E23.09832
G1 X81.783 Y78.118 E23.19512
G1 X81.686 Y78.953 E23.21475
G1 X78.434 Y75.700 E23.32219
G1 X78.047 Y76.246 E23.33780
G1 X83.972 Y82.170 E23.53351
G1 X84.252 Y81.518 E23.55007
G1 X84.232 Y81.498 E23.55073
G1 X83.747 Y82.877 F9000.000
G1 X77.676 Y76.806 E23.75126 F1080
G1 X77.329 Y77.390 E23.76714
G1 X83.594 Y83.655 E23.97410
G1 X83.537 Y84.531 E23.99459
G1 X77.009 Y78.003 E24.21024
G1 X76.703 Y78.628 E24.22651
G1 X83.622 Y85.547 E24.45507
G1 X83.975 Y86.832 E24.48619
G1 X76.436 Y79.292 E24.73524
G1 X76.195 Y79.983 E24.75233
G1 X97.447 Y101.235 E25.45437
G1 X97.594 Y100.451 E25.47302
G1 X87.672 Y90.529 E25.80077
G1 X88.952 Y90.877 E25.83174
G1 X97.871 Y99.796 E26.12638
G1 X98.248 Y99.241 E26.14205
G1 X89.965 Y90.958 E26.41568
G1 X90.843 Y90.904 E26.43623
G1 X98.709 Y98.770 E26.69608
G1 X99.260 Y98.390 E26.71173
G1 X91.621 Y90.751 E26.96408
G1 X92.326 Y90.525 E26.98138
G1 X99.909 Y98.107 E27.23187
G1 X100.684 Y97.951 E27.25035
G1 X95.549 Y92.815 E27.42001
G1 X96.378 Y92.713 E27.43953
G1 X101.667 Y98.001 E27.61423
G1 X104.531 Y89.686 F9000.000
G1 X85.520 Y70.675 E28.24227 F1080
G1 X86.245 Y70.469 E28.25989
G1 X104.531 Y88.754 E28.86395
G1 X104.531 Y87.822 E28.88572
G1 X86.995 Y70.287 E29.46500
G1 X87.777 Y70.137 E29.48360
G1 X104.531 Y86.891 E30.03704
G1 X104.530 Y85.959 E30.05881
G1 X88.612 Y70.040 E30.58466
G1 X89.485 Y69.982 E30.60510
G1 X104.530 Y85.027 E31.10211
G1 X104.530 Y84.095 E31.12388
G1 X90.413 Y69.978 E31.59022
G1 X91.401 Y70.035 E31.61335
G1 X104.462 Y83.095 E32.04480
G1 X104.315 Y82.016 E32.07025
G1 X92.482 Y70.183 E32.46113
G1 X93.674 Y70.444 E32.48963
G1 X104.058 Y80.828 E32.83269
G1 X103.638 Y79.477 E32.86575
G1 X95.034 Y70.873 E33.14998
G1 X96.700 Y71.606 F9000.000
G1 X102.889 Y77.796 E33.35443 F1080
G1 X100.769 Y74.744 F9000.000
G1 X99.799 Y73.774 E33.38648 F1080
G1 F2400.000 E28.88648
G92 E0
G1 X92.971 Y90.238 F9000.000
G1 E4.50000 F2400.000
G1 X93.002 Y90.268 E4.50100 F1080
G1 X75.468 Y94.162 F9000.000
G1 X78.915 Y97.610 E4.61489 F1080
G1 X78.096 Y97.722 E4.63421
G1 X75.467 Y95.094 E4.72103
G1 X75.467 Y96.025 E4.74279
G1 X77.395 Y97.953 E4.80647
G1 X76.789 Y98.278 E4.82254
G1 X75.467 Y96.957 E4.86620
G1 X75.467 Y97.888 E4.88796
G1 X76.286 Y98.708 E4.91503
G1 X75.836 Y99.189 E4.93043
G1 X75.466 Y98.819 E4.94263
G1 X85.734 Y88.729 F9000.000
G1 X85.376 Y88.334 E4.96056 F900
G1 X85.115 Y87.996 E4.97491
G1 X84.825 Y87.550 E4.99284
G1 X84.575 Y87.079 E5.01077
G1 X84.367 Y86.588 E5.02870
G1 X84.205 Y86.080 E5.04664
G1 X84.087 Y85.561 E5.06456
G1 X84.017 Y85.032 E5.08250
G1 X83.993 Y84.500 E5.10042
G1 X84.017 Y83.968 E5.11836
G1 X84.087 Y83.439 E5.13630
G1 X84.205 Y82.919 E5.15423
G1 X84.331 Y82.512 E5.16857
G1 X84.530 Y82.018 E5.18651
G1 X84.720 Y81.636 E5.20085
G1 X85.077 Y81.013 E5.22502
G1 X84.424 Y81.049 E5.24703
G1 X84.182 Y81.044 E5.25517
G1 X83.863 Y80.998 E5.26601
G1 X83.555 Y80.905 E5.27686
G1 X83.193 Y80.727 E5.29040
G1 X82.931 Y80.540 E5.30124
G1 X82.699 Y80.316 E5.31208
G1 X82.459 Y79.993 E5.32563
G1 X82.282 Y79.632 E5.33917
G1 X82.189 Y79.323 E5.35002
G1 X82.137 Y78.924 E5.36356
G1 X82.149 Y78.601 E5.37442
G1 X82.229 Y78.207 E5.38795
G1 X82.345 Y77.906 E5.39880
G1 X82.548 Y77.559 E5.41234
G1 X82.754 Y77.311 E5.42318
G1 X82.994 Y77.096 E5.43403
G1 X83.334 Y76.880 E5.44757
G1 X83.707 Y76.730 E5.46111
G1 X84.022 Y76.659 E5.47197
G1 X84.424 Y76.637 E5.48551
G1 X84.823 Y76.689 E5.49905
G1 X85.206 Y76.812 E5.51260
G1 X85.493 Y76.959 E5.52345
G1 X85.816 Y77.199 E5.53699
G1 X86.040 Y77.431 E5.54783
G1 X86.227 Y77.693 E5.55867
G1 X86.405 Y78.055 E5.57222
G1 X86.498 Y78.363 E5.58306
G1 X86.545 Y78.682 E5.59391
G1 X86.549 Y78.924 E5.60204
G1 X86.513 Y79.571 E5.62385
G1 X87.183 Y79.194 E5.64969
G1 X87.567 Y79.008 E5.66404
G1 X87.962 Y78.849 E5.67839
G1 X88.471 Y78.691 E5.69632
G1 X88.992 Y78.578 E5.71425
G1 X89.521 Y78.512 E5.73218
G1 X89.947 Y78.493 E5.74653
G1 X90.479 Y78.512 E5.76446
G1 X91.008 Y78.578 E5.78239
G1 X91.529 Y78.691 E5.80032
G1 X92.038 Y78.849 E5.81825
G1 X92.445 Y79.013 E5.83303
G1 X92.911 Y79.245 E5.85053
G1 X93.365 Y79.524 E5.86847
G1 X93.793 Y79.842 E5.88640
G1 X94.191 Y80.196 E5.90433
G1 X94.556 Y80.585 E5.92226
G1 X94.885 Y81.004 E5.94019
G1 X95.176 Y81.450 E5.95813
G1 X95.425 Y81.921 E5.97606
G1 X95.633 Y82.412 E5.99399
G1 X95.795 Y82.920 E6.01192
G1 X95.913 Y83.439 E6.02985
G1 X95.983 Y83.968 E6.04779
G1 X96.007 Y84.500 E6.06571
G1 X95.983 Y85.032 E6.08364
G1 X95.913 Y85.561 E6.10158
G1 X95.795 Y86.081 E6.11951
G1 X95.633 Y86.588 E6.13744
G1 X95.470 Y86.982 E6.15179
G1 X95.281 Y87.364 E6.16613
G1 X94.923 Y87.987 E6.19030
G1 X95.576 Y87.951 E6.21231
G1 X95.818 Y87.955 E6.22044
G1 X96.137 Y88.002 E6.23129
G1 X96.445 Y88.095 E6.24214
G1 X96.806 Y88.273 E6.25567
G1 X97.069 Y88.460 E6.26652
G1 X97.353 Y88.745 E6.28007
G1 X97.541 Y89.007 E6.29092
G1 X97.718 Y89.368 E6.30446
G1 X97.811 Y89.677 E6.31530
G1 X97.863 Y90.076 E6.32883
G1 X97.851 Y90.398 E6.33967
G1 X97.771 Y90.793 E6.35323
G1 X97.655 Y91.094 E6.36408
G1 X97.452 Y91.441 E6.37762
G1 X97.246 Y91.689 E6.38847
G1 X96.941 Y91.952 E6.40201
G1 X96.666 Y92.120 E6.41285
G1 X96.293 Y92.271 E6.42640
G1 X95.978 Y92.341 E6.43726
G1 X95.576 Y92.363 E6.45079
G1 X95.236 Y92.323 E6.46230
G1 X94.868 Y92.218 E6.47518
G1 X94.507 Y92.041 E6.48871
G1 X94.245 Y91.853 E6.49957
G1 X93.960 Y91.569 E6.51311
G1 X93.773 Y91.307 E6.52396
G1 X93.595 Y90.946 E6.53750
G1 X93.502 Y90.637 E6.54834
G1 X93.455 Y90.318 E6.55919
G1 X93.451 Y90.077 E6.56730
G1 X93.487 Y89.429 E6.58913
G1 X92.817 Y89.806 E6.61498
G1 X92.434 Y89.992 E6.62932
G1 X91.937 Y90.186 E6.64725
G1 X91.529 Y90.309 E6.66160
G1 X91.008 Y90.422 E6.67953
G1 X90.479 Y90.488 E6.69746
G1 X90.053 Y90.507 E6.71181
G1 X89.521 Y90.488 E6.72974
G1 X88.992 Y90.422 E6.74768
G1 X88.471 Y90.309 E6.76561
G1 X87.962 Y90.151 E6.78354
G1 X87.469 Y89.948 E6.80146
G1 X86.996 Y89.702 E6.81941
G1 X86.547 Y89.416 E6.83734
G1 X86.125 Y89.090 E6.85526
G1 X85.787 Y88.782 E6.87067
G1 X84.231 Y82.853 F9000.000
G1 X84.569 Y80.377 F9000.000
G1 X84.230 Y80.389 E6.88208 F540
G1 X83.951 Y80.343 E6.89160
G1 X83.634 Y80.222 E6.90300
G1 X83.396 Y80.070 E6.91252
G1 X83.189 Y79.878 E6.92203
G1 X83.020 Y79.651 E6.93154
G1 X82.876 Y79.344 E6.94295
G1 X82.810 Y79.069 E6.95247
G1 X82.794 Y78.787 E6.96198
G1 X82.832 Y78.498 E6.97177
G1 X82.940 Y78.185 E6.98290
G1 X83.082 Y77.941 E6.99241
G1 X83.267 Y77.727 E7.00192
G1 X83.495 Y77.546 E7.01171
G1 X83.789 Y77.395 E7.02285
G1 X84.062 Y77.319 E7.03236
G1 X84.343 Y77.293 E7.04187
G1 X84.633 Y77.321 E7.05166
G1 X84.949 Y77.417 E7.06279
G1 X85.198 Y77.550 E7.07231
G1 X85.419 Y77.727 E7.08182
G1 X85.636 Y77.988 E7.09323
G1 X85.770 Y78.237 E7.10274
G1 X85.867 Y78.561 E7.11415
G1 X85.893 Y78.843 E7.12366
G1 X85.858 Y79.172 E7.13480
G1 X85.770 Y79.449 E7.14458
G1 X85.636 Y79.698 E7.15410
G1 X85.419 Y79.959 E7.16550
G1 X85.198 Y80.136 E7.17502
G1 X84.949 Y80.270 E7.18453
G1 X84.643 Y80.364 E7.19533
G1 X84.434 Y80.688 F9000.000
G1 X85.595 Y81.464 F9000.000
G1 X85.886 Y81.080 E7.21153 F540
G1 X86.268 Y80.667 E7.23046
G1 X86.696 Y80.292 E7.24962
G1 X87.082 Y80.016 E7.26559
G1 X87.575 Y79.731 E7.28475
G1 X88.008 Y79.535 E7.30072
G1 X88.547 Y79.351 E7.31988
G1 X89.016 Y79.241 E7.33609
G1 X89.573 Y79.167 E7.35501
G1 X90.142 Y79.152 E7.37418
G1 X90.616 Y79.186 E7.39014
G1 X91.177 Y79.281 E7.40931
G1 X91.642 Y79.408 E7.42551
G1 X92.167 Y79.609 E7.44444
G1 X92.598 Y79.823 E7.46064
G1 X93.075 Y80.122 E7.47957
G1 X93.451 Y80.412 E7.49554
G1 X93.866 Y80.802 E7.51470
G1 X94.237 Y81.234 E7.53386
G1 X94.510 Y81.622 E7.54983
G1 X94.790 Y82.118 E7.56899
G1 X94.983 Y82.552 E7.58497
G1 X95.136 Y83.001 E7.60094
G1 X95.266 Y83.555 E7.62010
G1 X95.337 Y84.120 E7.63926
G1 X95.349 Y84.595 E7.65523
G1 X95.309 Y85.163 E7.67439
G1 X95.229 Y85.631 E7.69036
G1 X95.079 Y86.180 E7.70952
G1 X94.910 Y86.624 E7.72549
G1 X94.703 Y87.051 E7.74146
G1 X94.405 Y87.536 E7.76062
G1 X94.119 Y87.915 E7.77660
G1 X93.732 Y88.333 E7.79576
G1 X93.304 Y88.708 E7.81492
G1 X92.918 Y88.984 E7.83089
G1 X92.425 Y89.269 E7.85005
G1 X91.992 Y89.465 E7.86602
G1 X91.453 Y89.649 E7.88518
G1 X90.991 Y89.757 E7.90115
G1 X90.521 Y89.825 E7.91712
G1 X89.953 Y89.850 E7.93628
G1 X89.384 Y89.814 E7.95544
G1 X88.916 Y89.739 E7.97141
G1 X88.455 Y89.622 E7.98738
G1 X87.920 Y89.429 E8.00655
G1 X87.408 Y89.180 E8.02571
G1 X87.003 Y88.932 E8.04168
G1 X86.622 Y88.649 E8.05765
G1 X86.200 Y88.266 E8.07681
G1 X85.877 Y87.909 E8.09301
G1 X85.542 Y87.458 E8.11194
G1 X85.297 Y87.051 E8.12791
G1 X85.053 Y86.536 E8.14707
G1 X84.864 Y85.999 E8.16623
G1 X84.752 Y85.538 E8.18221
G1 X84.671 Y84.974 E8.20137
G1 X84.650 Y84.500 E8.21733
G1 X84.672 Y84.019 E8.23354
