; generated by Slic3r 0.9.8-dev on 2012-12-08 at 15:38:20

; layer_height = 0.4
; perimeters = 3
; top_solid_layers = 3
; bottom_solid_layers = 3
; fill_density = 0.4
; perimeter_speed = 30
; infill_speed = 60
; travel_speed = 130
; scale = 1
; nozzle_diameter = 0.5
; filament_diameter = 2.93
; extrusion_multiplier = 1
; perimeters extrusion width = 0.53mm
; infill extrusion width = 0.53mm
; first layer extrusion width = 1.00mm

M190 S5 ; wait for bed temperature to be reached
M104 S190 ; set temperature
G28 ; home all axes
M109 S190 ; wait for temperature to be reached
G90 ; use absolute coordinates
G21 ; set units to millimeters
G92 E0
M82 ; use absolute distances for extrusion
G1 F1800.000 E-1.00000
G92 E0
G1 Z0.500 F7800.000
G1 X12.210 Y12.260
G1 F1800.000 E1.00000
G1 X12.700 Y11.850 F540.000 E1.04229
G1 X13.370 Y11.400 E1.09572
G1 X13.950 Y11.080 E1.13957
G1 X14.760 Y10.710 E1.19853
G1 X15.700 Y10.410 E1.26384
G1 X16.420 Y10.240 E1.31282
G1 X17.280 Y10.140 E1.37013
G1 X18.000 Y10.100 E1.41787
G1 X114.020 Y10.110 E7.77428
G1 X114.720 Y10.140 E7.82066
G1 X115.110 Y10.180 E7.84661
G1 X115.910 Y10.310 E7.90026
G1 X116.170 Y10.370 E7.91793
G1 X117.310 Y10.740 E7.99727
G1 X117.820 Y10.970 E8.03431
G1 X118.830 Y11.530 E8.11076
G1 X119.430 Y11.960 E8.15962
G1 X120.180 Y12.600 E8.22489
G1 X120.780 Y13.250 E8.28345
G1 X121.180 Y13.760 E8.32636
G1 X121.460 Y14.160 E8.35868
G1 X121.890 Y14.920 E8.41648
G1 X122.140 Y15.420 E8.45349
G1 X122.250 Y15.680 E8.47218
G1 X122.430 Y16.210 E8.50923
G1 X122.620 Y16.820 E8.55153
G1 X122.680 Y17.080 E8.56919
G1 X122.810 Y17.880 E8.62285
G1 X122.850 Y18.270 E8.64880
G1 X122.880 Y18.970 E8.69518
G1 X122.880 Y111.020 E14.78878
G1 X122.850 Y111.720 E14.83516
G1 X122.730 Y112.670 E14.89855
G1 X122.520 Y113.490 E14.95458
G1 X122.320 Y114.120 E14.99834
G1 X122.120 Y114.610 E15.03337
G1 X121.700 Y115.420 E15.09377
G1 X121.400 Y115.930 E15.13294
G1 X121.230 Y116.170 E15.15241
G1 X121.050 Y116.410 E15.17227
G1 X120.600 Y116.930 E15.21780
G1 X120.090 Y117.460 E15.26649
G1 X119.910 Y117.630 E15.28288
G1 X119.410 Y118.040 E15.32568
G1 X118.810 Y118.470 E15.37455
G1 X118.050 Y118.900 E15.43235
G1 X117.510 Y119.170 E15.47232
G1 X116.670 Y119.470 E15.53137
G1 X116.290 Y119.580 E15.55756
G1 X115.570 Y119.750 E15.60653
G1 X114.710 Y119.850 E15.66384
G1 X113.990 Y119.890 E15.71158
G1 X18.000 Y119.890 E22.06600
G1 X17.280 Y119.850 E22.11374
G1 X16.420 Y119.750 E22.17105
G1 X15.700 Y119.580 E22.22003
G1 X14.760 Y119.280 E22.28535
G1 X13.950 Y118.910 E22.34430
G1 X13.170 Y118.460 E22.40391
G1 X12.560 Y118.030 E22.45331
G1 X11.810 Y117.390 E22.51858
G1 X11.210 Y116.740 E22.57714
G1 X10.670 Y116.030 E22.63619
G1 X10.270 Y115.390 E22.68615
G1 X9.820 Y114.500 E22.75217
G1 X9.520 Y113.670 E22.81060
G1 X9.410 Y113.290 E22.83679
G1 X9.240 Y112.570 E22.88576
G1 X9.140 Y111.710 E22.94307
G1 X9.100 Y110.990 E22.99081
G1 X9.110 Y18.950 E29.08375
G1 X9.150 Y18.210 E29.13280
G1 X9.190 Y17.840 E29.15744
G1 X9.220 Y17.570 E29.17542
G1 X9.320 Y17.030 E29.21178
G1 X9.670 Y15.870 E29.29199
G1 X9.870 Y15.380 E29.32702
G1 X10.290 Y14.570 E29.38743
G1 X10.590 Y14.060 E29.42659
G1 X10.760 Y13.820 E29.44606
G1 X10.940 Y13.580 E29.46592
G1 X11.390 Y13.060 E29.51145
G1 X12.114 Y12.354 E29.57842
G1 X12.210 Y12.260 E29.58728
G1 F1800.000 E28.58728
G92 E0
G1 X14.221 Y14.903 F7800.000
G1 F1800.000 E1.00000
G1 X14.782 Y14.449 F540.000 E1.04776
G1 X15.070 Y14.259 E1.07066
G1 X15.732 Y13.909 E1.12021
G1 X16.061 Y13.774 E1.14376
G1 X16.779 Y13.562 E1.19332
G1 X17.120 Y13.496 E1.21626
G1 X17.918 Y13.429 E1.26928
G1 X114.121 Y13.429 E7.63781
G1 X114.983 Y13.514 E7.69518
G1 X115.322 Y13.585 E7.71808
G1 X116.005 Y13.800 E7.76551
G1 X116.315 Y13.930 E7.78776
G1 X116.947 Y14.269 E7.83519
G1 X117.234 Y14.461 E7.85809
G1 X117.813 Y14.935 E7.90762
G1 X118.065 Y15.186 E7.93117
G1 X118.539 Y15.765 E7.98069
G1 X118.731 Y16.053 E8.00358
G1 X119.069 Y16.684 E8.05101
G1 X119.200 Y16.994 E8.07326
G1 X119.415 Y17.678 E8.12072
G1 X119.486 Y18.017 E8.14362
G1 X119.571 Y18.879 E8.20100
G1 X119.571 Y111.121 E14.30730
G1 X119.485 Y111.988 E14.36499
G1 X119.411 Y112.336 E14.38854
G1 X119.183 Y113.049 E14.43807
G1 X119.046 Y113.367 E14.46097
G1 X118.698 Y113.999 E14.50875
G1 X118.503 Y114.284 E14.53165
G1 X118.023 Y114.858 E14.58117
G1 X117.768 Y115.107 E14.60472
G1 X117.184 Y115.574 E14.65428
G1 X116.894 Y115.763 E14.67718
G1 X116.255 Y116.097 E14.72492
G1 X115.934 Y116.227 E14.74781
G1 X115.221 Y116.438 E14.79703
G1 X114.881 Y116.504 E14.81997
G1 X114.082 Y116.571 E14.87303
G1 X17.918 Y116.571 E21.23901
G1 X17.119 Y116.504 E21.29207
G1 X16.779 Y116.438 E21.31501
G1 X16.061 Y116.226 E21.36455
G1 X15.732 Y116.091 E21.38810
G1 X15.066 Y115.739 E21.43796
G1 X14.770 Y115.542 E21.46150
G1 X14.187 Y115.065 E21.51138
G1 X13.935 Y114.813 E21.53494
G1 X13.458 Y114.230 E21.58481
G1 X13.261 Y113.934 E21.60836
G1 X12.909 Y113.268 E21.65824
G1 X12.774 Y112.939 E21.68179
G1 X12.562 Y112.221 E21.73136
G1 X12.496 Y111.880 E21.75429
G1 X12.429 Y111.082 E21.80731
G1 X12.430 Y18.852 E27.91285
G1 X12.517 Y17.997 E27.96972
G1 X12.590 Y17.659 E27.99262
G1 X12.817 Y16.951 E28.04184
G1 X12.954 Y16.633 E28.06474
G1 X13.302 Y16.001 E28.11251
G1 X13.497 Y15.716 E28.13540
G1 X13.974 Y15.146 E28.18461
G1 X14.125 Y14.997 E28.19865
G1 X14.221 Y14.903 E28.20751
G1 X14.816 Y15.570 F7800.000
G1 X15.310 Y15.171 F540.000 E28.24954
G1 X15.526 Y15.028 E28.26672
G1 X16.110 Y14.719 E28.31046
G1 X16.357 Y14.618 E28.32813
G1 X16.991 Y14.430 E28.37188
G1 X17.246 Y14.381 E28.38908
G1 X17.939 Y14.322 E28.43508
G1 X114.096 Y14.322 E34.80060
G1 X114.842 Y14.397 E34.85020
G1 X115.096 Y14.450 E34.86737
G1 X115.698 Y14.639 E34.90917
G1 X115.930 Y14.737 E34.92585
G1 X116.487 Y15.035 E34.96764
G1 X116.702 Y15.179 E34.98481
G1 X117.213 Y15.598 E35.02854
G1 X117.402 Y15.786 E35.04620
G1 X117.820 Y16.297 E35.08992
G1 X117.965 Y16.513 E35.10709
G1 X118.263 Y17.069 E35.14887
G1 X118.361 Y17.302 E35.16556
G1 X118.550 Y17.904 E35.20737
G1 X118.603 Y18.158 E35.22455
G1 X118.678 Y18.904 E35.27416
G1 X118.678 Y111.096 E41.37719
G1 X118.603 Y111.846 E41.42704
G1 X118.547 Y112.106 E41.44470
G1 X118.346 Y112.736 E41.48843
G1 X118.243 Y112.974 E41.50561
G1 X117.937 Y113.530 E41.54766
G1 X117.790 Y113.745 E41.56483
G1 X117.367 Y114.251 E41.60855
G1 X117.176 Y114.437 E41.62621
G1 X116.660 Y114.850 E41.66996
G1 X116.443 Y114.992 E41.68714
G1 X115.880 Y115.286 E41.72916
G1 X115.639 Y115.383 E41.74632
G1 X115.009 Y115.570 E41.78982
G1 X114.754 Y115.619 E41.80702
G1 X114.061 Y115.678 E41.85306
G1 X17.939 Y115.678 E48.21627
G1 X17.246 Y115.619 E48.26230
G1 X16.991 Y115.570 E48.27951
G1 X16.357 Y115.382 E48.32324
G1 X16.110 Y115.281 E48.34090
G1 X15.523 Y114.971 E48.38487
G1 X15.301 Y114.823 E48.40253
G1 X14.786 Y114.402 E48.44652
G1 X14.598 Y114.214 E48.46419
G1 X14.177 Y113.699 E48.50817
G1 X14.029 Y113.477 E48.52583
G1 X13.719 Y112.890 E48.56982
G1 X13.618 Y112.643 E48.58749
G1 X13.430 Y112.009 E48.63124
G1 X13.381 Y111.754 E48.64844
G1 X13.322 Y111.061 E48.69445
G1 X13.322 Y18.878 E54.79688
G1 X13.399 Y18.144 E54.84575
G1 X13.454 Y17.890 E54.86292
G1 X13.654 Y17.264 E54.90642
G1 X13.757 Y17.026 E54.92360
G1 X14.063 Y16.470 E54.96563
G1 X14.209 Y16.256 E54.98281
G1 X14.721 Y15.664 E55.03457
G1 X14.816 Y15.570 E55.04343
G1 X15.411 Y16.237 F7800.000
G1 X15.838 Y15.892 F540.000 E55.07974
G1 X15.982 Y15.796 E55.09119
G1 X16.488 Y15.528 E55.12913
G1 X16.653 Y15.461 E55.14091
G1 X17.203 Y15.299 E55.17885
G1 X17.373 Y15.266 E55.19031
G1 X17.960 Y15.215 E55.22930
G1 X114.072 Y15.215 E61.59179
G1 X114.700 Y15.279 E61.63363
G1 X114.869 Y15.315 E61.64508
G1 X115.391 Y15.478 E61.68123
G1 X116.027 Y15.801 E61.72847
G1 X116.170 Y15.898 E61.73991
G1 X116.614 Y16.260 E61.77784
G1 X116.739 Y16.386 E61.78961
G1 X117.102 Y16.829 E61.82753
G1 X117.198 Y16.973 E61.83897
G1 X117.456 Y17.454 E61.87511
G1 X117.685 Y18.130 E61.92237
G1 X117.721 Y18.300 E61.93382
G1 X117.785 Y18.928 E61.97567
G1 X117.785 Y111.072 E68.07543
G1 X117.721 Y111.703 E68.11743
G1 X117.684 Y111.877 E68.12921
G1 X117.509 Y112.422 E68.16713
G1 X117.441 Y112.581 E68.17858
G1 X117.176 Y113.062 E68.21491
G1 X117.078 Y113.205 E68.22636
G1 X116.711 Y113.644 E68.26426
G1 X116.583 Y113.768 E68.27604
G1 X116.136 Y114.126 E68.31399
G1 X115.991 Y114.221 E68.32544
G1 X115.505 Y114.475 E68.36173
G1 X115.345 Y114.539 E68.37318
G1 X114.798 Y114.701 E68.41094
G1 X114.628 Y114.734 E68.42241
G1 X114.040 Y114.785 E68.46142
G1 X17.960 Y114.785 E74.82187
G1 X17.372 Y114.734 E74.86088
G1 X17.202 Y114.701 E74.87235
G1 X16.653 Y114.539 E74.91027
G1 X16.488 Y114.472 E74.92205
G1 X15.980 Y114.202 E74.96013
G1 X15.832 Y114.104 E74.97191
G1 X15.386 Y113.740 E75.01000
G1 X15.260 Y113.614 E75.02178
G1 X14.896 Y113.168 E75.05988
G1 X14.798 Y113.020 E75.07165
G1 X14.528 Y112.512 E75.10975
G1 X14.461 Y112.347 E75.12153
G1 X14.299 Y111.797 E75.15947
G1 X14.266 Y111.627 E75.17094
G1 X14.215 Y111.040 E75.20992
G1 X14.215 Y18.904 E81.30926
G1 X14.281 Y18.290 E81.35012
G1 X14.317 Y18.121 E81.36157
G1 X14.491 Y17.578 E81.39934
G1 X14.560 Y17.419 E81.41079
G1 X14.824 Y16.938 E81.44710
G1 X14.922 Y16.795 E81.45855
G1 X15.316 Y16.331 E81.49889
G1 X15.411 Y16.237 E81.50775
G1 X16.006 Y16.903 F7800.000
G1 X16.438 Y16.565 F540.000 E81.54404
G1 X16.949 Y16.305 E81.58203
G1 X17.499 Y16.151 E81.61987
G1 X17.980 Y16.107 E81.65184
G1 X114.047 Y16.107 E88.01132
G1 X114.559 Y16.162 E88.04539
G1 X115.083 Y16.317 E88.08160
G1 X115.567 Y16.568 E88.11765
G1 X116.014 Y16.923 E88.15547
G1 X116.384 Y17.361 E88.19344
G1 X116.650 Y17.839 E88.22964
G1 X116.821 Y18.357 E88.26571
G1 X116.893 Y18.953 E88.30549
G1 X116.893 Y111.047 E94.40198
G1 X116.838 Y111.560 E94.43614
G1 X116.672 Y112.109 E94.47412
G1 X116.415 Y112.594 E94.51043
G1 X116.055 Y113.037 E94.54823
G1 X115.612 Y113.402 E94.58623
G1 X115.130 Y113.663 E94.62251
G1 X114.586 Y113.833 E94.66024
G1 X114.020 Y113.893 E94.69794
G1 X17.980 Y113.893 E101.05561
G1 X17.414 Y113.833 E101.09332
G1 X16.867 Y113.662 E101.13129
G1 X16.363 Y113.385 E101.16935
G1 X15.986 Y113.077 E101.20156
G1 X15.615 Y112.637 E101.23963
G1 X15.338 Y112.133 E101.27771
G1 X15.167 Y111.586 E101.31570
G1 X15.107 Y111.020 E101.35338
G1 X15.108 Y18.930 E107.44961
G1 X15.162 Y18.436 E107.48247
G1 X15.328 Y17.891 E107.52022
G1 X15.585 Y17.407 E107.55651
G1 X15.914 Y17.000 E107.59111
G1 X16.006 Y16.903 E107.59996
G1 F1800.000 E106.59996
G92 E0
G1 X16.633 Y17.540 F7800.000
G1 F1800.000 E1.00000
G1 X16.931 Y17.310 F540.000 E1.02487
G1 X17.245 Y17.148 E1.04827
G1 X17.604 Y17.040 E1.07313
G1 X17.978 Y17.000 E1.09799
G1 X113.999 Y17.000 E7.45445
G1 X114.374 Y17.035 E7.47940
G1 X114.735 Y17.140 E7.50426
G1 X115.088 Y17.322 E7.53058
G1 X115.383 Y17.555 E7.55544
G1 X115.641 Y17.857 E7.58176
G1 X115.843 Y18.224 E7.60951
G1 X115.960 Y18.605 E7.63586
G1 X116.000 Y19.001 E7.66225
G1 X116.000 Y111.022 E13.75393
G1 X115.956 Y111.417 E13.78024
G1 X115.843 Y111.776 E13.80511
G1 X115.654 Y112.125 E13.83143
G1 X115.414 Y112.414 E13.85629
G1 X115.107 Y112.666 E13.88259
G1 X114.755 Y112.852 E13.90891
G1 X114.374 Y112.965 E13.93522
G1 X113.999 Y113.000 E13.96019
G1 X17.978 Y113.000 E20.31665
G1 X17.605 Y112.961 E20.34150
G1 X17.245 Y112.852 E20.36637
G1 X16.912 Y112.678 E20.39124
G1 X16.617 Y112.445 E20.41611
G1 X16.346 Y112.125 E20.44385
G1 X16.157 Y111.776 E20.47018
G1 X16.040 Y111.396 E20.49649
G1 X16.000 Y110.999 E20.52291
G1 X16.000 Y18.978 E26.61457
G1 X16.035 Y18.626 E26.63798
G1 X16.140 Y18.265 E26.66284
G1 X16.310 Y17.931 E26.68770
G1 X16.539 Y17.634 E26.71248
G1 X16.633 Y17.540 E26.72134
G1 X17.482 Y17.816 F7800.000
G1 X17.559 Y17.984
G1 X17.781 Y17.915 F540.000 E26.73672
G1 X18.004 Y17.893 E26.75155
G1 X113.996 Y17.893 E33.10612
G1 X114.207 Y17.912 E33.12013
G1 X114.418 Y17.975 E33.13471
G1 X114.602 Y18.071 E33.14847
G1 X114.774 Y18.208 E33.16303
G1 X114.915 Y18.377 E33.17760
G1 X115.021 Y18.570 E33.19217
G1 X115.085 Y18.781 E33.20677
G1 X115.107 Y19.004 E33.22157
G1 X115.107 Y110.996 E39.31136
G1 X115.065 Y111.302 E39.33183
G1 X114.942 Y111.582 E39.35203
G1 X114.747 Y111.817 E39.37224
G1 X114.496 Y111.990 E39.39244
G1 X114.255 Y112.077 E39.40941
G1 X113.996 Y112.107 E39.42667
G1 X18.004 Y112.107 E45.78124
G1 X17.793 Y112.088 E45.79528
G1 X17.582 Y112.025 E45.80982
G1 X17.397 Y111.929 E45.82361
G1 X17.226 Y111.792 E45.83816
G1 X17.085 Y111.623 E45.85272
G1 X16.979 Y111.429 E45.86731
G1 X16.915 Y111.219 E45.88187
G1 X16.893 Y110.996 E45.89671
G1 X16.893 Y19.004 E51.98648
G1 X16.928 Y18.721 E52.00534
G1 X17.039 Y18.450 E52.02473
G1 X17.217 Y18.217 E52.04414
G1 X17.440 Y18.045 E52.06279
G1 X17.559 Y17.984 E52.07165
G1 F1800.000 E51.07165
G92 E0
G1 X111.828 Y18.785 F7800.000
G1 F1800.000 E1.00000
G1 X114.215 Y18.785 F540.000 E1.15797
G1 X114.215 Y22.919 E1.43158
G1 X111.895 Y18.901 E1.73866
G1 X111.828 Y18.785 E1.74752
G1 F1800.000 E0.74752
G92 E0
G1 X17.785 Y18.785 F7800.000
G1 F1800.000 E1.00000
G1 X20.172 Y18.785 F540.000 E1.15797
G1 X17.785 Y22.919 E1.47391
G1 X17.785 Y18.919 E1.73866
G1 X17.785 Y18.785 E1.74752
G1 F1800.000 E0.74752
G92 E0
G1 X17.785 Y107.081 F7800.000
G1 F1800.000 E1.00000
G1 X20.172 Y111.215 F540.000 E1.31594
G1 X17.785 Y111.215 E1.47391
G1 X17.785 Y107.215 E1.73866
G1 X17.785 Y107.081 E1.74753
G1 F1800.000 E0.74753
G92 E0
G1 X114.215 Y25.081 F7800.000
G1 F1800.000 E1.00000
G1 X114.215 Y104.919 F540.000 E6.28512
G1 X111.920 Y100.943 E6.58899
G1 X106.081 Y100.943 E6.97552
G1 X103.161 Y106.000 E7.36206
G1 X106.172 Y111.215 E7.76066
G1 X25.828 Y111.215 E13.07930
G1 X28.839 Y106.000 E13.47790
G1 X25.919 Y100.943 E13.86443
G1 X20.081 Y100.943 E14.25096
G1 X17.785 Y104.919 E14.55483
G1 X17.785 Y25.081 E19.83996
G1 X20.081 Y29.057 E20.14383
G1 X25.919 Y29.057 E20.53036
G1 X28.839 Y24.000 E20.91689
G1 X25.828 Y18.785 E21.31550
G1 X106.172 Y18.785 E26.63413
G1 X103.161 Y24.000 E27.03273
G1 X106.081 Y29.057 E27.41927
G1 X111.919 Y29.057 E27.80580
G1 X114.148 Y25.197 E28.10080
G1 X114.215 Y25.081 E28.10967
G1 F1800.000 E27.10967
G92 E0
G1 X111.828 Y111.215 F7800.000
G1 F1800.000 E1.00000
G1 X114.215 Y107.081 F540.000 E1.31594
G1 X114.215 Y111.215 E1.58955
G1 X111.962 Y111.215 E1.73865
G1 X111.828 Y111.215 E1.74752
G1 F1800.000 E0.74752
G92 E0
G1 X110.889 Y109.271 F7800.000
G1 F1800.000 E1.00000
G1 X107.111 Y109.271 F540.000 E1.25006
G1 X105.223 Y106.000 E1.50011
G1 X107.111 Y102.729 E1.75017
G1 X110.889 Y102.729 E2.00023
G1 X112.777 Y106.000 E2.25028
G1 X110.956 Y109.155 E2.49148
G1 X110.889 Y109.271 E2.50034
G1 X110.734 Y110.150 F7800.000
G1 X111.404 Y110.164
G1 X106.596 Y110.164 F540.000 E2.81863
G1 X104.192 Y106.000 E3.13693
G1 X106.596 Y101.836 E3.45522
G1 X111.404 Y101.836 E3.77352
G1 X113.808 Y106.000 E4.09181
G1 X111.471 Y110.048 E4.40124
G1 X111.404 Y110.164 E4.41011
G1 F1800.000 E3.41011
G92 E0
G1 X110.889 Y27.271 F7800.000
G1 F1800.000 E1.00000
G1 X107.111 Y27.271 F540.000 E1.25006
G1 X105.223 Y24.000 E1.50011
G1 X107.111 Y20.729 E1.75017
G1 X110.889 Y20.729 E2.00022
G1 X112.777 Y24.000 E2.25028
G1 X110.956 Y27.155 E2.49147
G1 X110.889 Y27.271 E2.50034
G1 X110.734 Y28.150 F7800.000
G1 X111.404 Y28.164
G1 X106.596 Y28.164 F540.000 E2.81863
G1 X104.192 Y24.000 E3.13692
G1 X106.596 Y19.836 E3.45522
G1 X111.404 Y19.836 E3.77351
G1 X113.808 Y24.000 E4.09181
G1 X111.471 Y28.048 E4.40124
G1 X111.404 Y28.164 E4.41010
G1 F1800.000 E3.41010
G92 E0
G1 X26.777 Y24.000 F7800.000
G1 F1800.000 E1.00000
G1 X24.889 Y27.271 F540.000 E1.25006
G1 X21.111 Y27.271 E1.50011
G1 X19.223 Y24.000 E1.75017
G1 X21.111 Y20.729 E2.00022
G1 X24.889 Y20.729 E2.25028
G1 X26.710 Y23.884 E2.49147
G1 X26.777 Y24.000 E2.50034
G1 X27.461 Y24.574 F7800.000
G1 X27.273 Y24.927
G1 X25.404 Y28.164 F540.000 E2.74775
G1 X20.596 Y28.164 E3.06604
G1 X18.192 Y24.000 E3.38434
G1 X20.596 Y19.836 E3.70263
G1 X25.404 Y19.836 E4.02092
G1 X27.808 Y24.000 E4.33922
G1 X27.340 Y24.811 E4.40123
G1 X27.273 Y24.927 E4.41010
G1 F1800.000 E3.41010
G92 E0
G1 X24.889 Y102.729 F7800.000
G1 F1800.000 E1.00000
G1 X26.777 Y106.000 F540.000 E1.25006
G1 X24.889 Y109.271 E1.50011
G1 X21.111 Y109.271 E1.75017
G1 X19.223 Y106.000 E2.00022
