; generated by Slic3r 0.9.2-dev on 2012-08-30 at 04:17:55

; layer_height = 0.31
; perimeters = 4
; solid_layers = 2
; fill_density = 0.25
; perimeter_speed = 25
; infill_speed = 25
; travel_speed = 130
; scale = 1
; nozzle_diameter = 0.5
; filament_diameter = 2.93
; extrusion_multiplier = 1
; single wall width = 0.67mm
; first layer single wall width = 1.00mm

M104 S181 ; set temperature
G28 ; home all axes
M109 S181 ; wait for temperature to be reached
G90 ; use absolute coordinates
G21 ; set units to millimeters
G92 E0
M82 ; use absolute distances for extrusion
G1 Z0.500 F7800.000
G1 X15.798 Y14.580
G1 F1800.000 E1.00000
G1 X17.888 Y12.630 F600.000 E1.18922
G1 X20.958 Y10.230 E1.44719
G1 X24.778 Y7.810 E1.74654
G1 X28.428 Y6.010 E2.01595
G1 X31.258 Y4.890 E2.21743
G1 X35.068 Y3.750 E2.48070
G1 X39.468 Y2.920 E2.77711
G1 X40.638 Y2.780 E2.85511
G1 X40.678 Y2.780 E2.85776
G1 X44.868 Y2.340 E3.13666
G1 X45.118 Y2.340 E3.15321
G1 X49.308 Y2.780 E3.43211
G1 X49.348 Y2.780 E3.43475
G1 X53.618 Y3.450 E3.72088
G1 X53.648 Y3.460 E3.72297
G1 X57.598 Y4.510 E3.99354
G1 X61.568 Y6.010 E4.27448
G1 X65.178 Y7.790 E4.54093
G1 X67.848 Y9.410 E4.74767
G1 X71.198 Y11.880 E5.02320
G1 X74.338 Y14.730 E5.30392
G1 X77.048 Y17.720 E5.57106
G1 X78.868 Y20.110 E5.76992
G1 X80.328 Y22.340 E5.94637
G1 X82.308 Y25.960 E6.21951
G1 X83.978 Y29.920 E6.50402
G1 X85.218 Y34.010 E6.78694
G1 X85.728 Y36.280 E6.94096
G1 X85.818 Y36.950 E6.98571
G1 X85.838 Y37.630 E7.03074
G1 X83.318 Y59.250 E8.47165
G1 X83.188 Y59.870 E8.51359
G1 X82.888 Y60.760 E8.57576
G1 X81.668 Y63.310 E8.76289
G1 X79.408 Y67.090 E9.05444
G1 X77.748 Y69.400 E9.24275
G1 X76.168 Y71.310 E9.40684
G1 X73.028 Y74.520 E9.70410
G1 X71.068 Y76.220 E9.87585
G1 X67.468 Y78.820 E10.16983
G1 X63.908 Y80.870 E10.44177
G1 X61.628 Y81.980 E10.60964
G1 X58.598 Y83.150 E10.82466
G1 X54.828 Y84.260 E11.08482
G1 X50.488 Y85.080 E11.37721
G1 X44.988 Y85.650 E11.74325
G1 X44.388 Y85.630 E11.78299
G1 X40.718 Y85.220 E12.02745
G1 X40.668 Y85.220 E12.03076
G1 X36.488 Y84.560 E12.31090
G1 X33.738 Y83.890 E12.49827
G1 X30.008 Y82.640 E12.75869
G1 X26.188 Y80.930 E13.03575
G1 X21.928 Y78.440 E13.36240
G1 X18.888 Y76.190 E13.61277
G1 X16.768 Y74.350 E13.79860
G1 X15.878 Y73.490 E13.88053
G1 X14.028 Y71.550 E14.05798
G1 X12.358 Y69.550 E14.23047
G1 X10.598 Y67.130 E14.42856
G1 X8.418 Y63.480 E14.71000
G1 X7.098 Y60.760 E14.91014
G1 X6.798 Y59.870 E14.97232
G1 X6.728 Y59.560 E14.99335
G1 X4.168 Y37.960 E16.43325
G1 X4.148 Y37.630 E16.45514
G1 X4.168 Y36.950 E16.50018
G1 X4.258 Y36.280 E16.54493
G1 X5.068 Y32.870 E16.77695
G1 X6.008 Y29.920 E16.98191
G1 X7.538 Y26.250 E17.24512
G1 X8.968 Y23.500 E17.45031
G1 X11.088 Y20.160 E17.71219
G1 X14.258 Y16.180 E18.04902
G1 X15.692 Y14.686 E18.18610
G1 F1800.000 E17.18610
G92 E0
G1 X17.929 Y16.927 F7800.000
G1 F1800.000 E1.00000
G1 X20.886 Y14.263 F600.000 E1.26350
G1 X24.048 Y11.956 E1.52261
G1 X27.275 Y10.068 E1.77014
G1 X29.793 Y8.864 E1.95483
G1 X33.461 Y7.495 E2.21407
G1 X37.251 Y6.507 E2.47330
G1 X41.121 Y5.912 E2.73253
G1 X41.402 Y5.888 E2.75117
G1 X42.318 Y4.755 E2.84764
G1 X44.123 Y4.564 E2.96780
G1 X44.374 Y4.357 E2.98931
G1 X45.273 Y4.443 E3.04909
G1 X46.431 Y4.321 E3.12621
G1 X46.757 Y4.585 E3.15396
G1 X47.496 Y4.655 E3.20307
G1 X48.508 Y5.880 E3.30825
G1 X51.530 Y6.276 E3.51002
G1 X51.642 Y6.297 E3.51760
G1 X51.766 Y6.202 E3.52794
G1 X53.423 Y6.635 E3.64131
G1 X54.389 Y6.818 E3.70640
G1 X54.462 Y6.907 E3.71400
G1 X57.838 Y7.931 E3.94753
G1 X61.455 Y9.431 E4.20677
G1 X64.900 Y11.293 E4.46600
G1 X68.137 Y13.497 E4.72524
G1 X71.132 Y16.020 E4.98447
G1 X73.853 Y18.836 E5.24371
G1 X76.224 Y21.848 E5.49747
G1 X78.217 Y24.955 E5.74182
G1 X80.081 Y28.667 E6.01677
G1 X81.485 Y32.398 E6.28067
G1 X82.992 Y38.437 E6.69274
G1 X80.719 Y41.285 E6.93395
G1 X80.253 Y41.285 E6.96477
G1 X80.253 Y58.553 E8.10791
G1 X80.074 Y59.362 E8.16278
G1 X78.223 Y63.026 E8.43448
G1 X76.132 Y66.282 E8.69068
G1 X73.711 Y69.325 E8.94806
G1 X70.935 Y72.163 E9.21088
G1 X68.010 Y74.598 E9.46284
G1 X64.718 Y76.817 E9.72565
G1 X58.840 Y79.856 E10.16372
G1 X58.677 Y79.756 E10.17638
G1 X55.216 Y80.897 E10.41768
G1 X51.421 Y81.743 E10.67508
G1 X48.350 Y82.134 E10.87997
G1 X47.409 Y83.273 E10.97780
G1 X46.870 Y83.325 E11.01367
G1 X46.431 Y83.679 E11.05100
G1 X44.874 Y83.515 E11.15464
G1 X44.287 Y83.571 E11.19368
G1 X44.124 Y83.436 E11.20773
G1 X42.318 Y83.245 E11.32791
G1 X41.402 Y82.113 E11.42437
G1 X38.516 Y81.732 E11.61704
G1 X34.723 Y80.880 E11.87443
G1 X31.035 Y79.648 E12.13182
G1 X27.491 Y78.047 E12.38922
G1 X24.455 Y76.302 E12.62104
G1 X24.326 Y76.292 E12.62965
G1 X20.981 Y73.813 E12.90525
G1 X18.026 Y71.168 E13.16781
G1 X15.469 Y68.366 E13.41891
G1 X13.141 Y65.231 E13.67742
G1 X11.151 Y61.890 E13.93482
G1 X9.926 Y59.362 E14.12076
G1 X9.747 Y58.553 E14.17563
G1 X9.747 Y41.285 E15.31877
G1 X9.281 Y41.285 E15.34959
G1 X7.008 Y38.437 E15.59080
G1 X8.158 Y33.587 E15.92082
G1 X9.415 Y29.878 E16.18005
G1 X11.043 Y26.316 E16.43929
G1 X13.072 Y22.875 E16.70372
G1 X15.346 Y19.784 E16.95775
G1 X15.722 Y19.339 E16.99636
G1 X15.721 Y19.208 E17.00500
G1 X17.825 Y17.035 E17.20521
G1 X18.603 Y17.591 F7800.000
G1 X21.477 Y15.003 F600.000 E17.46123
G1 X24.561 Y12.752 E17.71397
G1 X27.706 Y10.910 E17.95525
G1 X30.162 Y9.736 E18.13547
G1 X33.740 Y8.399 E18.38830
G1 X37.435 Y7.435 E18.64113
G1 X41.210 Y6.854 E18.89395
G1 X41.884 Y6.796 E18.93873
G1 X42.807 Y5.655 E19.03594
G1 X44.506 Y5.475 E19.14902
G1 X44.674 Y5.337 E19.16346
G1 X45.278 Y5.394 E19.20358
G1 X46.141 Y5.303 E19.26104
G1 X46.384 Y5.500 E19.28172
G1 X47.016 Y5.560 E19.32374
G1 X48.031 Y6.789 E19.42928
G1 X51.361 Y7.207 E19.65147
G1 X51.884 Y7.306 E19.68668
G1 X51.976 Y7.235 E19.69441
G1 X53.215 Y7.559 E19.77914
G1 X53.877 Y7.684 E19.82380
G1 X53.927 Y7.745 E19.82901
G1 X57.514 Y8.820 E20.07684
G1 X61.042 Y10.283 E20.32967
G1 X64.402 Y12.098 E20.58249
G1 X67.559 Y14.246 E20.83532
G1 X70.481 Y16.707 E21.08815
G1 X73.136 Y19.452 E21.34098
G1 X75.448 Y22.389 E21.58843
G1 X77.400 Y25.431 E21.82771
G1 X79.217 Y29.054 E22.09598
G1 X80.581 Y32.678 E22.35231
G1 X81.968 Y38.203 E22.72942
G1 X80.264 Y40.339 E22.91033
G1 X79.307 Y40.339 E22.97365
G1 X79.307 Y58.449 E24.17257
G1 X79.173 Y59.056 E24.21373
G1 X77.399 Y62.562 E24.47380
G1 X75.367 Y65.725 E24.72267
G1 X73.007 Y68.693 E24.97369
G1 X70.299 Y71.462 E25.23005
G1 X67.447 Y73.837 E25.47575
G1 X64.237 Y76.002 E25.73210
G1 X58.893 Y78.775 E26.13066
G1 X58.776 Y78.702 E26.13978
G1 X56.183 Y79.625 E26.32197
G1 X52.512 Y80.576 E26.57300
G1 X48.763 Y81.149 E26.82403
G1 X47.969 Y81.216 E26.87677
G1 X47.969 Y81.218 E26.87687
G1 X47.698 Y81.437 E26.89996
G1 X46.929 Y82.368 E26.97991
G1 X46.496 Y82.410 E27.00870
G1 X46.141 Y82.697 E27.03895
G1 X44.879 Y82.564 E27.12294
G1 X44.588 Y82.592 E27.14231
G1 X44.506 Y82.525 E27.14929
G1 X42.807 Y82.345 E27.26239
G1 X41.884 Y81.204 E27.35960
G1 X38.684 Y80.801 E27.57312
G1 X34.984 Y79.970 E27.82415
G1 X31.387 Y78.769 E28.07518
G1 X27.931 Y77.209 E28.32621
G1 X24.760 Y75.376 E28.56864
G1 X24.665 Y75.369 E28.57498
G1 X21.580 Y73.081 E28.82921
G1 X18.697 Y70.500 E29.08538
G1 X16.201 Y67.766 E29.33043
G1 X13.932 Y64.712 E29.58230
G1 X11.992 Y61.454 E29.83333
G1 X10.827 Y59.056 E30.00976
G1 X10.693 Y58.449 E30.05092
G1 X10.693 Y40.339 E31.24984
G1 X9.736 Y40.339 E31.31316
G1 X8.032 Y38.203 E31.49407
G1 X9.067 Y33.851 E31.79019
G1 X10.292 Y30.233 E32.04302
G1 X11.879 Y26.760 E32.29585
G1 X13.134 Y24.539 E32.46473
G1 X15.286 Y21.389 E32.71727
G1 X16.671 Y19.681 E32.86282
G1 X16.670 Y19.588 E32.86901
G1 X18.499 Y17.699 E33.04302
G1 X19.278 Y18.255 F7800.000
G1 X22.067 Y15.742 F600.000 E33.29157
G1 X25.073 Y13.548 E33.53793
G1 X28.136 Y11.753 E33.77298
G1 X30.531 Y10.607 E33.94872
G1 X34.018 Y9.304 E34.19514
G1 X37.620 Y8.364 E34.44157
G1 X41.298 Y7.796 E34.68798
G1 X42.366 Y7.705 E34.75890
G1 X43.297 Y6.555 E34.85684
G1 X44.889 Y6.387 E34.96285
G1 X44.975 Y6.316 E34.97021
G1 X45.283 Y6.345 E34.99067
G1 X45.850 Y6.285 E35.02847
G1 X46.010 Y6.415 E35.04208
G1 X46.536 Y6.465 E35.07703
G1 X47.554 Y7.698 E35.18293
G1 X51.193 Y8.138 E35.42553
G1 X52.125 Y8.315 E35.48838
G1 X52.187 Y8.268 E35.49349
G1 X53.006 Y8.482 E35.54958
G1 X53.366 Y8.551 E35.57381
G1 X53.393 Y8.584 E35.57664
G1 X57.159 Y9.699 E35.83663
G1 X60.628 Y11.134 E36.08518
G1 X63.904 Y12.902 E36.33160
G1 X66.982 Y14.996 E36.57802
G1 X69.829 Y17.393 E36.82444
G1 X72.418 Y20.069 E37.07086
G1 X74.672 Y22.930 E37.31201
G1 X76.582 Y25.908 E37.54622
G1 X78.353 Y29.441 E37.80781
G1 X79.677 Y32.957 E38.05656
G1 X80.945 Y37.968 E38.39873
G1 X79.808 Y39.392 E38.51933
G1 X78.361 Y39.392 E38.61515
G1 X78.361 Y58.346 E39.86986
G1 X78.271 Y58.751 E39.89730
G1 X76.558 Y62.125 E40.14785
G1 X74.602 Y65.168 E40.38728
G1 X72.302 Y68.061 E40.63194
G1 X69.664 Y70.761 E40.88184
G1 X66.885 Y73.076 E41.12127
G1 X63.756 Y75.187 E41.37117
G1 X58.945 Y77.694 E41.73022
G1 X58.864 Y77.643 E41.73657
G1 X55.906 Y78.720 E41.94494
G1 X52.329 Y79.647 E42.18960
G1 X48.675 Y80.207 E42.43427
G1 X47.399 Y80.313 E42.51903
G1 X47.071 Y80.710 E42.55313
G1 X47.069 Y80.729 E42.55437
G1 X47.029 Y80.761 E42.55781
G1 X46.449 Y81.463 E42.61810
G1 X46.122 Y81.495 E42.63982
G1 X45.850 Y81.715 E42.66299
G1 X43.297 Y81.445 E42.83298
G1 X42.366 Y80.295 E42.93094
G1 X38.851 Y79.869 E43.16531
G1 X35.245 Y79.061 E43.40998
G1 X31.739 Y77.890 E43.65465
G1 X28.370 Y76.371 E43.89932
G1 X25.172 Y74.517 E44.14399
G1 X25.075 Y74.451 E44.15178
G1 X25.004 Y74.446 E44.15650
G1 X22.179 Y72.349 E44.38937
G1 X20.311 Y70.737 E44.55272
G1 X17.728 Y68.097 E44.79719
G1 X16.266 Y66.339 E44.94858
G1 X14.074 Y63.184 E45.20290
G1 X12.274 Y59.919 E45.44969
G1 X11.729 Y58.751 E45.53504
G1 X11.639 Y58.346 E45.56248
G1 X11.639 Y39.392 E46.81720
G1 X10.192 Y39.392 E46.91301
G1 X9.055 Y37.968 E47.03361
G1 X9.975 Y34.115 E47.29585
G1 X11.168 Y30.589 E47.54227
G1 X12.715 Y27.203 E47.78869
G1 X13.937 Y25.039 E47.95320
G1 X16.035 Y21.968 E48.19943
G1 X17.620 Y20.026 E48.36539
G1 X17.620 Y19.968 E48.36925
G1 X19.173 Y18.363 E48.51708
G1 X19.952 Y18.920 F7800.000
G1 X22.657 Y16.482 F600.000 E48.75816
G1 X25.585 Y14.344 E48.99814
G1 X28.567 Y12.596 E49.22695
G1 X30.900 Y11.479 E49.39822
G1 X34.296 Y10.208 E49.63824
G1 X37.804 Y9.292 E49.87825
G1 X41.387 Y8.738 E50.11826
G1 X43.349 Y8.597 E50.24845
G1 X43.293 Y8.064 E50.28391
G1 X43.786 Y7.455 E50.33581
G1 X45.272 Y7.298 E50.43473
G1 X45.275 Y7.295 E50.43502
G1 X45.287 Y7.296 E50.43583
G1 X45.560 Y7.268 E50.45397
G1 X45.636 Y7.330 E50.46050
G1 X46.056 Y7.370 E50.48837
G1 X47.088 Y8.619 E50.59567
G1 X49.829 Y8.884 E50.77799
G1 X52.367 Y9.324 E50.94849
G1 X52.397 Y9.301 E50.95099
G1 X52.798 Y9.406 E50.97845
G1 X52.854 Y9.417 E50.98224
G1 X52.859 Y9.422 E50.98268
G1 X55.719 Y10.213 E51.17916
G1 X59.114 Y11.485 E51.41917
G1 X62.362 Y13.097 E51.65918
G1 X65.428 Y15.032 E51.89919
G1 X68.280 Y17.270 E52.13921
G1 X70.889 Y19.788 E52.37921
G1 X73.227 Y22.560 E52.61923
G1 X75.266 Y25.550 E52.85887
G1 X76.960 Y28.674 E53.09407
G1 X77.961 Y30.960 E53.25929
G1 X79.120 Y34.395 E53.49930
G1 X79.921 Y37.734 E53.72658
G1 X79.353 Y38.446 E53.78689
G1 X77.414 Y38.446 E53.91520
G1 X77.414 Y58.242 E55.22570
G1 X77.370 Y58.445 E55.23942
G1 X75.741 Y61.648 E55.47729
G1 X73.837 Y64.611 E55.71045
G1 X71.597 Y67.429 E55.94875
G1 X69.028 Y70.060 E56.19219
G1 X66.322 Y72.315 E56.42535
G1 X63.274 Y74.372 E56.66879
G1 X58.998 Y76.612 E56.98834
G1 X58.953 Y76.584 E56.99190
G1 X55.630 Y77.815 E57.22646
G1 X52.145 Y78.719 E57.46477
G1 X48.587 Y79.264 E57.70307
G1 X46.935 Y79.389 E57.81276
G1 X45.969 Y80.559 E57.91320
G1 X45.749 Y80.580 E57.92784
G1 X45.560 Y80.733 E57.94393
G1 X43.786 Y80.545 E58.06202
G1 X43.293 Y79.936 E58.11392
G1 X43.349 Y79.403 E58.14938
G1 X40.205 Y79.120 E58.35835
G1 X36.667 Y78.453 E58.59665
G1 X34.353 Y77.810 E58.75566
G1 X30.980 Y76.556 E58.99387
G1 X27.749 Y74.965 E59.23227
G1 X25.396 Y73.527 E59.41483
G1 X25.342 Y73.523 E59.41841
G1 X22.779 Y71.616 E59.62992
G1 X20.959 Y70.048 E59.78892
G1 X18.442 Y67.476 E60.02713
G1 X17.020 Y65.766 E60.17438
G1 X14.874 Y62.678 E60.42330
G1 X13.128 Y59.512 E60.66266
G1 X12.630 Y58.445 E60.74063
G1 X12.586 Y58.242 E60.75435
G1 X12.586 Y38.446 E62.06485
G1 X10.647 Y38.446 E62.19316
G1 X10.079 Y37.734 E62.25346
G1 X10.884 Y34.380 E62.48181
G1 X12.045 Y30.945 E62.72182
G1 X13.551 Y27.647 E62.96183
G1 X14.740 Y25.540 E63.12198
G1 X16.783 Y22.547 E63.36189
G1 X18.570 Y20.387 E63.54743
G1 X18.569 Y20.347 E63.55006
G1 X19.848 Y19.027 E63.67170
G1 F1800.000 E62.67170
G92 E0
G1 X44.253 Y73.196 F7800.000
G1 F1800.000 E1.00000
G1 X44.495 Y73.114 F600.000 E1.01691
G1 X45.000 Y73.013 E1.05102
G1 X45.505 Y73.114 E1.08513
G1 X45.747 Y73.196 E1.10204
G1 X45.976 Y73.309 E1.11895
G1 X46.189 Y73.451 E1.13586
G1 X46.381 Y73.619 E1.15277
G1 X46.549 Y73.811 E1.16968
G1 X46.691 Y74.024 E1.18659
G1 X46.804 Y74.253 E1.20350
G1 X46.886 Y74.495 E1.22040
G1 X46.987 Y75.000 E1.25451
G1 X46.861 Y75.632 E1.29715
G1 X46.691 Y75.976 E1.32259
G1 X46.549 Y76.189 E1.33950
G1 X46.519 Y76.224 E1.34257
G1 X46.091 Y75.695 E1.38754
G1 X45.089 Y75.590 E1.45425
G1 X45.618 Y74.661 E1.52495
G1 X45.213 Y73.780 E1.58917
G1 X43.761 Y73.495 E1.68712
G1 X43.805 Y73.456 E1.69098
G1 X44.066 Y73.288 E1.71151
G1 X44.118 Y73.262 E1.71536
G1 F1800.000 E0.71536
G92 E0
G1 X45.000 Y14.987 F7800.000
G1 F1800.000 E1.00000
G1 X44.621 Y14.911 F600.000 E1.02556
G1 X44.770 Y14.436 E1.05855
G1 X45.156 Y14.956 E1.10146
G1 X45.147 Y14.957 E1.10209
G1 F1800.000 E0.10209
G92 E0
G1 X46.554 Y19.554 F7800.000
G1 F1800.000 E1.00000
G1 X59.595 Y19.580 F600.000 E1.86332
G1 X60.185 Y19.662 E1.90275
G1 X60.765 Y19.798 E1.94217
G1 X61.329 Y19.988 E1.98160
G1 X61.874 Y20.228 E2.02102
G1 X62.394 Y20.518 E2.06045
G1 X62.477 Y20.574 E2.06706
G1 X62.477 Y20.574 E2.06706
G1 X62.886 Y20.854 E2.09987
G1 X63.344 Y21.235 E2.13930
G1 X64.812 Y22.703 E2.27677
G1 X64.702 Y22.968 E2.29577
G1 X65.012 Y23.671 E2.34659
G1 X65.119 Y23.988 E2.36876
G1 X65.144 Y23.988 E2.37040
G1 X65.338 Y24.815 E2.42663
G1 X65.420 Y25.405 E2.46606
G1 X65.420 Y62.595 E4.92798
G1 X65.338 Y63.185 E4.96740
G1 X65.202 Y63.765 E5.00683
G1 X65.044 Y64.235 E5.03965
G1 X65.044 Y64.235 E5.03965
G1 X65.012 Y64.329 E5.04626
G1 X64.772 Y64.874 E5.08568
G1 X64.482 Y65.394 E5.12511
G1 X64.146 Y65.886 E5.16454
G1 X63.765 Y66.344 E5.20396
G1 X63.344 Y66.765 E5.24339
G1 X62.886 Y67.146 E5.28282
G1 X62.394 Y67.482 E5.32224
G1 X61.874 Y67.772 E5.36167
G1 X61.783 Y67.812 E5.36828
G1 X61.783 Y67.812 E5.36828
G1 X61.329 Y68.012 E5.40110
G1 X60.761 Y68.203 E5.44075
G1 X60.761 Y68.203 E5.44076
G1 X58.953 Y68.809 E5.56698
G1 X58.953 Y68.446 E5.59098
G1 X46.554 Y68.446 E6.41181
G1 X46.554 Y19.704 E9.63852
G1 X47.500 Y20.500 F7800.000
G1 X59.508 Y20.523 F540.000 E10.43341
G1 X60.011 Y20.593 E10.46704
G1 X60.505 Y20.709 E10.50067
G1 X60.987 Y20.871 E10.53431
G1 X61.452 Y21.076 E10.56794
G1 X61.896 Y21.323 E10.60157
G1 X62.315 Y21.610 E10.63520
G1 X62.706 Y21.935 E10.66884
G1 X63.025 Y22.255 E10.69876
G1 X63.025 Y22.255 E10.69876
G1 X63.065 Y22.294 E10.70247
G1 X63.354 Y22.642 E10.73239
G1 X63.354 Y22.642 E10.73239
G1 X63.390 Y22.685 E10.73611
G1 X63.677 Y23.104 E10.76974
G1 X63.924 Y23.548 E10.80337
G1 X64.129 Y24.013 E10.83701
G1 X64.291 Y24.495 E10.87064
G1 X64.394 Y24.935 E10.90056
G1 X64.394 Y24.935 E10.90056
G1 X64.407 Y24.989 E10.90427
G1 X64.477 Y25.492 E10.93791
G1 X64.477 Y62.508 E13.38826
G1 X64.407 Y63.011 E13.42189
G1 X64.291 Y63.505 E13.45552
G1 X64.129 Y63.987 E13.48916
G1 X63.924 Y64.452 E13.52279
G1 X63.677 Y64.896 E13.55642
G1 X63.390 Y65.315 E13.59006
G1 X63.065 Y65.706 E13.62369
G1 X62.706 Y66.065 E13.65733
G1 X62.315 Y66.390 E13.69096
G1 X61.896 Y66.677 E13.72459
G1 X61.452 Y66.924 E13.75823
G1 X60.987 Y67.129 E13.79186
G1 X60.502 Y67.292 E13.82572
G1 X60.502 Y67.292 E13.82572
G1 X59.900 Y67.494 E13.86778
G1 X59.900 Y67.459 E13.87007
G1 X59.012 Y67.500 E13.92892
G1 X47.500 Y67.500 E14.69097
G1 X47.500 Y20.650 E17.79238
G1 F1800.000 E16.79238
G92 E0
G1 X43.446 Y19.554 F7800.000
G1 F1800.000 E1.00000
G1 X43.446 Y68.446 F600.000 E4.23664
G1 X30.405 Y68.420 E5.09996
G1 X29.815 Y68.338 E5.13938
G1 X29.697 Y68.310 E5.14739
