; KISSlicer - FREE
; Linux
; version 1.0.9.7
; Built: Jun 12 2012, 22:57:28
;
; Saved: Wed Aug  7 12:13:43 2013
; 'robot-brain(0).gcode'
;
; *** Printer Settings ***
;
; printer_name = Default
; extension = gcode
; cost_per_hour = 0
; g_code_prefix = NULL
; g_code_postfix = NULL
; g_code_ext_change = NULL
; post_process = NULL
; num_extruders = 1
; firmware_type = 2
; M104_M109 = 1
; add_comments = 1
; z_speed_mm_per_s = 3.5
; z_settle_mm = 0.25
; bed_size_x_mm = 180
; bed_size_y_mm = 180
; bed_size_z_mm = 140
; bed_offset_x_mm = 0
; bed_offset_y_mm = 0
; bed_offset_z_mm = 0
; bed_roughness_mm = 0
; travel_speed_mm_per_s = 130
; first_layer_speed_mm_per_s = 25
; lo_speed_perim_mm_per_s = 4
; lo_speed_solid_mm_per_s = 15
; lo_speed_sparse_mm_per_s = 30
; hi_speed_perim_mm_per_s = 45
; hi_speed_solid_mm_per_s = 50
; hi_speed_sparse_mm_per_s = 55
; ext_mm_per_rev_1 = 1.25
; ext_material_1 = 0
; ext_axis_1 = 0
; ext_mm_per_rev_2 = 1.25
; ext_material_2 = 0
; ext_axis_2 = 0
; ext_mm_per_rev_3 = 1.25
; ext_material_3 = 0
; ext_axis_3 = 0
; model_ext = 0
; support_ext = 0
; support_body_ext = 0
; raft_ext = 0
; solid_loop_overlap_fraction = 0.5
;
; *** Material Settings for Extruder 1 ***
;
; material_name = PLA
; fan_off_ISOs_all = 1
; temperature_C = 206
; keep_warm_C = 159
; first_layer_C = 215
; bed_C = 81
; sec_per_C_per_C = 0.00964207
; RPM_min = 3
; RPM_max = 75
; destring_suck = 1.25
; destring_prime = 1.25
; destring_min_mm = 0
; destring_speed_mm_per_s = 15
; min_layer_time_s = 10
; wipe_mm = 10
; cost_per_cm3 = 0.128
; flowrate_tweak = 1
; fiber_dia_mm = 2.93
; color = 0
;
; *** Style Settings ***
;
; style_name = Default
; layer_thickness_mm = 0.25
; extrusion_width_mm = 0.5
; num_loops = 3
; skin_thickness_mm = 0.8
; infill_extrusion_width = 0.5
; infill_density_denominator = 1
; stacked_layers = 1
; use_destring = 1
; loops_insideout = 1
; round_infill = 1
;
; *** Actual Slicing Settings As Used ***
;
; layer_thickness_mm = 0.25
; extrusion_width = 0.5
; num_ISOs = 3
; wall_thickness = 0.8
; infill_style = 2
; support_style = 4
; support_angle = 0.9
; destring_min_mm = 0
; stacked_infill_layers = 1
; ISO_wipe_mm = 10
; raft_style = 3
; extra_raft_depth = 0
; oversample_res_mm = 0.125
; crowning_threshold_mm = 1
; loops_insideout = 1
; sheathed_support = 0
; solid_loop_overlap_fraction = 0.5
; inflate_raft_mm = 2
; inflate_support_mm = 2
; model_support_gap_mm = 0.5
; round_infill = 1
; Speed vs Quality = 0.69
;
; *** Header ***
;
; fan off
M107
; [mm] mode
G21
; absolute mode
G90
; *** Main G-code ***
;
; Reset extruder pos
G92 E0
; BEGIN_LAYER_RAFT z=0.25
;
; *** Warming Extruder 1 to 215 C ***
M109 S215
G92 E0
;
;
; 'Pillar', 40.8 [RPM], 3.5 [mm/s]
G1 F7800
G1 X-88.43 Y-46 Z0.5 E0
G1 F210
G1 X-88.43 Y-46 Z0.25 E0
G1 X-88.43 Y-46 Z0.125 E0.0303
G1 X-88.43 Y-46 Z0.25 E0.0607
;
; 'Pillar', 40.8 [RPM], 3.5 [mm/s]
G1 F7800
G1 X-86.31 Y-43.88 E0.0607
G1 F210
G1 X-86.31 Y-43.88 Z0.125 E0.091
G1 X-86.31 Y-43.88 Z0.25 E0.1213
;
; 'Pillar', 40.8 [RPM], 3.5 [mm/s]
G1 F7800
G1 X-84.18 Y-41.76 E0.1213
G1 F210
G1 X-84.18 Y-41.76 Z0.125 E0.1517
G1 X-84.18 Y-41.76 Z0.25 E0.182
;
; 'Pillar', 40.8 [RPM], 3.5 [mm/s]
G1 F7800
G1 X-82.06 Y-39.64 E0.182
G1 F210
G1 X-82.06 Y-39.64 Z0.125 E0.2123
G1 X-82.06 Y-39.64 Z0.25 E0.2427
;
; 'Pillar', 40.8 [RPM], 3.5 [mm/s]
G1 F7800
G1 X-79.94 Y-37.51 E0.2427
G1 F210
G1 X-79.94 Y-37.51 Z0.125 E0.273
G1 X-79.94 Y-37.51 Z0.25 E0.3033
;
; 'Pillar', 40.8 [RPM], 3.5 [mm/s]
G1 F7800
G1 X-77.82 Y-35.39 E0.3033
G1 F210
G1 X-77.82 Y-35.39 Z0.125 E0.3337
G1 X-77.82 Y-35.39 Z0.25 E0.364
;
; 'Pillar', 40.8 [RPM], 3.5 [mm/s]
G1 F7800
G1 X-75.7 Y-33.27 E0.364
G1 F210
G1 X-75.7 Y-33.27 Z0.125 E0.3943
G1 X-75.7 Y-33.27 Z0.25 E0.4247
;
; 'Pillar', 40.8 [RPM], 3.5 [mm/s]
G1 F7800
G1 X-73.58 Y-31.15 E0.4247
G1 F210
G1 X-73.58 Y-31.15 Z0.125 E0.455
G1 X-73.58 Y-31.15 Z0.25 E0.4853
;
; 'Pillar', 40.8 [RPM], 3.5 [mm/s]
G1 F7800
G1 X-71.46 Y-29.03 E0.4853
G1 F210
G1 X-71.46 Y-29.03 Z0.125 E0.5157
G1 X-71.46 Y-29.03 Z0.25 E0.546
;
; 'Pillar', 40.8 [RPM], 3.5 [mm/s]
G1 F7800
G1 X-69.33 Y-26.91 E0.546
G1 F210
G1 X-69.33 Y-26.91 Z0.125 E0.5764
G1 X-69.33 Y-26.91 Z0.25 E0.6067
;
; 'Pillar', 40.8 [RPM], 3.5 [mm/s]
G1 F7800
G1 X-67.21 Y-24.79 E0.6067
G1 F210
G1 X-67.21 Y-24.79 Z0.125 E0.637
G1 X-67.21 Y-24.79 Z0.25 E0.6674
;
; 'Pillar', 40.8 [RPM], 3.5 [mm/s]
G1 F7800
G1 X-65.09 Y-22.67 E0.6674
G1 F210
G1 X-65.09 Y-22.67 Z0.125 E0.6977
G1 X-65.09 Y-22.67 Z0.25 E0.728
;
; 'Pillar', 40.8 [RPM], 3.5 [mm/s]
G1 F7800
G1 X-62.97 Y-20.54 E0.728
G1 F210
G1 X-62.97 Y-20.54 Z0.125 E0.7584
G1 X-62.97 Y-20.54 Z0.25 E0.7887
;
; 'Pillar', 40.8 [RPM], 3.5 [mm/s]
G1 F7800
G1 X-60.85 Y-18.42 E0.7887
G1 F210
G1 X-60.85 Y-18.42 Z0.125 E0.819
G1 X-60.85 Y-18.42 Z0.25 E0.8494
;
; 'Pillar', 40.8 [RPM], 3.5 [mm/s]
G1 F7800
G1 X-58.73 Y-16.3 E0.8494
G1 F210
G1 X-58.73 Y-16.3 Z0.125 E0.8797
G1 X-58.73 Y-16.3 Z0.25 E0.91
;
; 'Pillar', 40.8 [RPM], 3.5 [mm/s]
G1 F7800
G1 X-56.61 Y-14.18 E0.91
G1 F210
G1 X-56.61 Y-14.18 Z0.125 E0.9404
G1 X-56.61 Y-14.18 Z0.25 E0.9707
;
; 'Pillar', 40.8 [RPM], 3.5 [mm/s]
G1 F7800
G1 X-54.49 Y-12.06 E0.9707
G1 F210
G1 X-54.49 Y-12.06 Z0.125 E1.001
G1 X-54.49 Y-12.06 Z0.25 E1.0314
;
; 'Pillar', 40.8 [RPM], 3.5 [mm/s]
G1 F7800
G1 X-52.36 Y-9.94 E1.0314
G1 F210
G1 X-52.36 Y-9.94 Z0.125 E1.0617
G1 X-52.36 Y-9.94 Z0.25 E1.092
;
; 'Pillar', 40.8 [RPM], 3.5 [mm/s]
G1 F7800
G1 X-50.24 Y-7.82 E1.092
G1 F210
G1 X-50.24 Y-7.82 Z0.125 E1.1224
G1 X-50.24 Y-7.82 Z0.25 E1.1527
;
; 'Pillar', 40.8 [RPM], 3.5 [mm/s]
G1 F7800
G1 X-48.12 Y-5.69 E1.1527
G1 F210
G1 X-48.12 Y-5.69 Z0.125 E1.183
G1 X-48.12 Y-5.69 Z0.25 E1.2134
;
; 'Pillar', 40.8 [RPM], 3.5 [mm/s]
G1 F7800
G1 X-46 Y-3.57 E1.2134
G1 F210
G1 X-46 Y-3.57 Z0.125 E1.2437
G1 X-46 Y-3.57 Z0.25 E1.274
;
; 'Pillar', 40.8 [RPM], 3.5 [mm/s]
G1 F7800
G1 X-41.76 Y-3.57 E1.274
G1 F210
G1 X-41.76 Y-3.57 Z0.125 E1.3044
G1 X-41.76 Y-3.57 Z0.25 E1.3347
;
; 'Pillar', 40.8 [RPM], 3.5 [mm/s]
G1 F7800
G1 X-43.88 Y-5.69 E1.3347
G1 F210
G1 X-43.88 Y-5.69 Z0.125 E1.365
G1 X-43.88 Y-5.69 Z0.25 E1.3954
;
; 'Pillar', 40.8 [RPM], 3.5 [mm/s]
G1 F7800
G1 X-46 Y-7.82 E1.3954
G1 F210
G1 X-46 Y-7.82 Z0.125 E1.4257
G1 X-46 Y-7.82 Z0.25 E1.456
;
; 'Pillar', 40.8 [RPM], 3.5 [mm/s]
G1 F7800
G1 X-48.12 Y-9.94 E1.456
G1 F210
G1 X-48.12 Y-9.94 Z0.125 E1.4864
G1 X-48.12 Y-9.94 Z0.25 E1.5167
;
; 'Pillar', 40.8 [RPM], 3.5 [mm/s]
G1 F7800
G1 X-50.24 Y-12.06 E1.5167
G1 F210
G1 X-50.24 Y-12.06 Z0.125 E1.547
G1 X-50.24 Y-12.06 Z0.25 E1.5774
;
; 'Pillar', 40.8 [RPM], 3.5 [mm/s]
G1 F7800
G1 X-52.36 Y-14.18 E1.5774
G1 F210
G1 X-52.36 Y-14.18 Z0.125 E1.6077
G1 X-52.36 Y-14.18 Z0.25 E1.638
;
; 'Pillar', 40.8 [RPM], 3.5 [mm/s]
G1 F7800
G1 X-54.49 Y-16.3 E1.638
G1 F210
G1 X-54.49 Y-16.3 Z0.125 E1.6684
G1 X-54.49 Y-16.3 Z0.25 E1.6987
;
; 'Pillar', 40.8 [RPM], 3.5 [mm/s]
G1 F7800
G1 X-56.61 Y-18.42 E1.6987
G1 F210
G1 X-56.61 Y-18.42 Z0.125 E1.7291
G1 X-56.61 Y-18.42 Z0.25 E1.7594
;
; 'Pillar', 40.8 [RPM], 3.5 [mm/s]
G1 F7800
G1 X-58.73 Y-20.54 E1.7594
G1 F210
G1 X-58.73 Y-20.54 Z0.125 E1.7897
G1 X-58.73 Y-20.54 Z0.25 E1.8201
;
; 'Pillar', 40.8 [RPM], 3.5 [mm/s]
G1 F7800
G1 X-60.85 Y-22.67 E1.8201
G1 F210
G1 X-60.85 Y-22.67 Z0.125 E1.8504
G1 X-60.85 Y-22.67 Z0.25 E1.8807
;
; 'Pillar', 40.8 [RPM], 3.5 [mm/s]
G1 F7800
G1 X-62.97 Y-24.79 E1.8807
G1 F210
G1 X-62.97 Y-24.79 Z0.125 E1.9111
G1 X-62.97 Y-24.79 Z0.25 E1.9414
;
; 'Pillar', 40.8 [RPM], 3.5 [mm/s]
G1 F7800
G1 X-65.09 Y-26.91 E1.9414
G1 F210
G1 X-65.09 Y-26.91 Z0.125 E1.9717
G1 X-65.09 Y-26.91 Z0.25 E2.0021
;
; 'Pillar', 40.8 [RPM], 3.5 [mm/s]
G1 F7800
G1 X-67.21 Y-29.03 E2.0021
G1 F210
G1 X-67.21 Y-29.03 Z0.125 E2.0324
G1 X-67.21 Y-29.03 Z0.25 E2.0627
;
; 'Pillar', 40.8 [RPM], 3.5 [mm/s]
G1 F7800
G1 X-69.33 Y-31.15 E2.0627
G1 F210
G1 X-69.33 Y-31.15 Z0.125 E2.0931
G1 X-69.33 Y-31.15 Z0.25 E2.1234
;
; 'Pillar', 40.8 [RPM], 3.5 [mm/s]
G1 F7800
G1 X-71.46 Y-33.27 E2.1234
G1 F210
G1 X-71.46 Y-33.27 Z0.125 E2.1537
G1 X-71.46 Y-33.27 Z0.25 E2.1841
;
; 'Pillar', 40.8 [RPM], 3.5 [mm/s]
G1 F7800
G1 X-73.58 Y-35.39 E2.1841
G1 F210
G1 X-73.58 Y-35.39 Z0.125 E2.2144
G1 X-73.58 Y-35.39 Z0.25 E2.2447
;
; 'Pillar', 40.8 [RPM], 3.5 [mm/s]
G1 F7800
G1 X-75.7 Y-37.51 E2.2447
G1 F210
G1 X-75.7 Y-37.51 Z0.125 E2.2751
G1 X-75.7 Y-37.51 Z0.25 E2.3054
;
; 'Pillar', 40.8 [RPM], 3.5 [mm/s]
G1 F7800
G1 X-77.82 Y-39.64 E2.3054
G1 F210
G1 X-77.82 Y-39.64 Z0.125 E2.3357
G1 X-77.82 Y-39.64 Z0.25 E2.3661
;
; 'Pillar', 40.8 [RPM], 3.5 [mm/s]
G1 F7800
G1 X-79.94 Y-41.76 E2.3661
G1 F210
G1 X-79.94 Y-41.76 Z0.125 E2.3964
G1 X-79.94 Y-41.76 Z0.25 E2.4267
;
; 'Pillar', 40.8 [RPM], 3.5 [mm/s]
G1 F7800
G1 X-82.06 Y-43.88 E2.4267
G1 F210
G1 X-82.06 Y-43.88 Z0.125 E2.4571
G1 X-82.06 Y-43.88 Z0.25 E2.4874
;
; 'Pillar', 40.8 [RPM], 3.5 [mm/s]
G1 F7800
G1 X-84.18 Y-46 E2.4874
G1 F210
G1 X-84.18 Y-46 Z0.125 E2.5177
G1 X-84.18 Y-46 Z0.25 E2.5481
;
; 'Pillar', 40.8 [RPM], 3.5 [mm/s]
G1 F7800
G1 X-86.31 Y-48.12 E2.5481
G1 F210
G1 X-86.31 Y-48.12 Z0.125 E2.5784
G1 X-86.31 Y-48.12 Z0.25 E2.6087
;
; 'Pillar', 40.8 [RPM], 3.5 [mm/s]
G1 F7800
G1 X-84.18 Y-50.24 E2.6087
G1 F210
G1 X-84.18 Y-50.24 Z0.125 E2.6391
G1 X-84.18 Y-50.24 Z0.25 E2.6694
;
; 'Pillar', 40.8 [RPM], 3.5 [mm/s]
G1 F7800
G1 X-82.06 Y-52.36 E2.6694
G1 F210
G1 X-82.06 Y-52.36 Z0.125 E2.6997
G1 X-82.06 Y-52.36 Z0.25 E2.7301
;
; 'Pillar', 40.8 [RPM], 3.5 [mm/s]
G1 F7800
G1 X-79.94 Y-54.49 E2.7301
G1 F210
G1 X-79.94 Y-54.49 Z0.125 E2.7604
G1 X-79.94 Y-54.49 Z0.25 E2.7908
;
; 'Pillar', 40.8 [RPM], 3.5 [mm/s]
G1 F7800
G1 X-77.82 Y-56.61 E2.7908
G1 F210
G1 X-77.82 Y-56.61 Z0.125 E2.8211
G1 X-77.82 Y-56.61 Z0.25 E2.8514
;
; 'Pillar', 40.8 [RPM], 3.5 [mm/s]
G1 F7800
G1 X-75.7 Y-58.73 E2.8514
G1 F210
G1 X-75.7 Y-58.73 Z0.125 E2.8818
G1 X-75.7 Y-58.73 Z0.25 E2.9121
;
; 'Pillar', 40.8 [RPM], 3.5 [mm/s]
G1 F7800
G1 X-73.58 Y-60.85 E2.9121
G1 F210
G1 X-73.58 Y-60.85 Z0.125 E2.9424
G1 X-73.58 Y-60.85 Z0.25 E2.9728
;
; 'Pillar', 40.8 [RPM], 3.5 [mm/s]
G1 F7800
G1 X-71.46 Y-62.97 E2.9728
G1 F210
G1 X-71.46 Y-62.97 Z0.125 E3.0031
G1 X-71.46 Y-62.97 Z0.25 E3.0334
;
; 'Pillar', 40.8 [RPM], 3.5 [mm/s]
G1 F7800
G1 X-69.33 Y-65.09 E3.0334
G1 F210
G1 X-69.33 Y-65.09 Z0.125 E3.0638
G1 X-69.33 Y-65.09 Z0.25 E3.0941
;
; 'Pillar', 40.8 [RPM], 3.5 [mm/s]
G1 F7800
G1 X-67.21 Y-67.21 E3.0941
G1 F210
G1 X-67.21 Y-67.21 Z0.125 E3.1244
G1 X-67.21 Y-67.21 Z0.25 E3.1548
;
; 'Pillar', 40.8 [RPM], 3.5 [mm/s]
G1 F7800
G1 X-65.09 Y-69.33 E3.1548
G1 F210
G1 X-65.09 Y-69.33 Z0.125 E3.1851
G1 X-65.09 Y-69.33 Z0.25 E3.2154
;
; 'Pillar', 40.8 [RPM], 3.5 [mm/s]
G1 F7800
G1 X-62.97 Y-71.46 E3.2154
G1 F210
G1 X-62.97 Y-71.46 Z0.125 E3.2458
G1 X-62.97 Y-71.46 Z0.25 E3.2761
;
; 'Pillar', 40.8 [RPM], 3.5 [mm/s]
G1 F7800
G1 X-60.85 Y-73.58 E3.2761
G1 F210
G1 X-60.85 Y-73.58 Z0.125 E3.3064
G1 X-60.85 Y-73.58 Z0.25 E3.3368
;
; 'Pillar', 40.8 [RPM], 3.5 [mm/s]
G1 F7800
G1 X-58.73 Y-75.7 E3.3368
G1 F210
G1 X-58.73 Y-75.7 Z0.125 E3.3671
G1 X-58.73 Y-75.7 Z0.25 E3.3974
;
; 'Pillar', 40.8 [RPM], 3.5 [mm/s]
G1 F7800
G1 X-56.61 Y-77.82 E3.3974
G1 F210
G1 X-56.61 Y-77.82 Z0.125 E3.4278
G1 X-56.61 Y-77.82 Z0.25 E3.4581
;
; 'Pillar', 40.8 [RPM], 3.5 [mm/s]
G1 F7800
G1 X-54.49 Y-79.94 E3.4581
G1 F210
G1 X-54.49 Y-79.94 Z0.125 E3.4884
G1 X-54.49 Y-79.94 Z0.25 E3.5188
;
; 'Pillar', 40.8 [RPM], 3.5 [mm/s]
G1 F7800
G1 X-52.36 Y-82.06 E3.5188
G1 F210
G1 X-52.36 Y-82.06 Z0.125 E3.5491
G1 X-52.36 Y-82.06 Z0.25 E3.5794
;
; 'Pillar', 40.8 [RPM], 3.5 [mm/s]
G1 F7800
G1 X-54.49 Y-84.18 E3.5794
G1 F210
G1 X-54.49 Y-84.18 Z0.125 E3.6098
G1 X-54.49 Y-84.18 Z0.25 E3.6401
;
; 'Pillar', 40.8 [RPM], 3.5 [mm/s]
G1 F7800
G1 X-52.36 Y-86.31 E3.6401
G1 F210
G1 X-52.36 Y-86.31 Z0.125 E3.6704
G1 X-52.36 Y-86.31 Z0.25 E3.7008
;
; 'Pillar', 40.8 [RPM], 3.5 [mm/s]
G1 F7800
G1 X-50.24 Y-88.43 E3.7008
G1 F210
G1 X-50.24 Y-88.43 Z0.125 E3.7311
G1 X-50.24 Y-88.43 Z0.25 E3.7614
;
; 'Pillar', 40.8 [RPM], 3.5 [mm/s]
G1 F7800
G1 X-48.12 Y-86.31 E3.7614
G1 F210
G1 X-48.12 Y-86.31 Z0.125 E3.7918
G1 X-48.12 Y-86.31 Z0.25 E3.8221
;
; 'Pillar', 40.8 [RPM], 3.5 [mm/s]
G1 F7800
G1 X-46 Y-84.18 E3.8221
G1 F210
G1 X-46 Y-84.18 Z0.125 E3.8524
G1 X-46 Y-84.18 Z0.25 E3.8828
;
; 'Pillar', 40.8 [RPM], 3.5 [mm/s]
G1 F7800
G1 X-43.88 Y-82.06 E3.8828
G1 F210
G1 X-43.88 Y-82.06 Z0.125 E3.9131
G1 X-43.88 Y-82.06 Z0.25 E3.9435
;
; 'Pillar', 40.8 [RPM], 3.5 [mm/s]
G1 F7800
G1 X-41.76 Y-79.94 E3.9435
G1 F210
G1 X-41.76 Y-79.94 Z0.125 E3.9738
G1 X-41.76 Y-79.94 Z0.25 E4.0041
;
; 'Pillar', 40.8 [RPM], 3.5 [mm/s]
G1 F7800
G1 X-39.64 Y-77.82 E4.0041
G1 F210
G1 X-39.64 Y-77.82 Z0.125 E4.0345
G1 X-39.64 Y-77.82 Z0.25 E4.0648
;
; 'Pillar', 40.8 [RPM], 3.5 [mm/s]
G1 F7800
G1 X-37.51 Y-75.7 E4.0648
G1 F210
G1 X-37.51 Y-75.7 Z0.125 E4.0951
G1 X-37.51 Y-75.7 Z0.25 E4.1255
;
; 'Pillar', 40.8 [RPM], 3.5 [mm/s]
G1 F7800
G1 X-35.39 Y-73.58 E4.1255
G1 F210
G1 X-35.39 Y-73.58 Z0.125 E4.1558
G1 X-35.39 Y-73.58 Z0.25 E4.1861
;
; 'Pillar', 40.8 [RPM], 3.5 [mm/s]
G1 F7800
G1 X-33.27 Y-71.46 E4.1861
G1 F210
G1 X-33.27 Y-71.46 Z0.125 E4.2165
G1 X-33.27 Y-71.46 Z0.25 E4.2468
;
; 'Pillar', 40.8 [RPM], 3.5 [mm/s]
G1 F7800
G1 X-31.15 Y-69.33 E4.2468
G1 F210
G1 X-31.15 Y-69.33 Z0.125 E4.2771
G1 X-31.15 Y-69.33 Z0.25 E4.3075
;
; 'Pillar', 40.8 [RPM], 3.5 [mm/s]
G1 F7800
G1 X-29.03 Y-67.21 E4.3075
G1 F210
G1 X-29.03 Y-67.21 Z0.125 E4.3378
G1 X-29.03 Y-67.21 Z0.25 E4.3681
;
; 'Pillar', 40.8 [RPM], 3.5 [mm/s]
G1 F7800
G1 X-26.91 Y-65.09 E4.3681
G1 F210
G1 X-26.91 Y-65.09 Z0.125 E4.3985
G1 X-26.91 Y-65.09 Z0.25 E4.4288
;
; 'Pillar', 40.8 [RPM], 3.5 [mm/s]
G1 F7800
G1 X-24.79 Y-62.97 E4.4288
G1 F210
G1 X-24.79 Y-62.97 Z0.125 E4.4591
G1 X-24.79 Y-62.97 Z0.25 E4.4895
;
; 'Pillar', 40.8 [RPM], 3.5 [mm/s]
G1 F7800
G1 X-22.67 Y-60.85 E4.4895
G1 F210
G1 X-22.67 Y-60.85 Z0.125 E4.5198
G1 X-22.67 Y-60.85 Z0.25 E4.5501
;
; 'Pillar', 40.8 [RPM], 3.5 [mm/s]
G1 F7800
G1 X-20.54 Y-58.73 E4.5501
G1 F210
G1 X-20.54 Y-58.73 Z0.125 E4.5805
G1 X-20.54 Y-58.73 Z0.25 E4.6108
;
; 'Pillar', 40.8 [RPM], 3.5 [mm/s]
G1 F7800
G1 X-18.42 Y-56.61 E4.6108
G1 F210
G1 X-18.42 Y-56.61 Z0.125 E4.6411
G1 X-18.42 Y-56.61 Z0.25 E4.6715
;
; 'Pillar', 40.8 [RPM], 3.5 [mm/s]
G1 F7800
G1 X-16.3 Y-54.49 E4.6715
G1 F210
G1 X-16.3 Y-54.49 Z0.125 E4.7018
G1 X-16.3 Y-54.49 Z0.25 E4.7321
;
; 'Pillar', 40.8 [RPM], 3.5 [mm/s]
G1 F7800
G1 X-14.18 Y-52.36 E4.7321
G1 F210
G1 X-14.18 Y-52.36 Z0.125 E4.7625
G1 X-14.18 Y-52.36 Z0.25 E4.7928
;
; 'Pillar', 40.8 [RPM], 3.5 [mm/s]
G1 F7800
G1 X-12.06 Y-50.24 E4.7928
G1 F210
G1 X-12.06 Y-50.24 Z0.125 E4.8231
G1 X-12.06 Y-50.24 Z0.25 E4.8535
;
; 'Pillar', 40.8 [RPM], 3.5 [mm/s]
G1 F7800
G1 X-9.94 Y-48.12 E4.8535
G1 F210
G1 X-9.94 Y-48.12 Z0.125 E4.8838
G1 X-9.94 Y-48.12 Z0.25 E4.9141
;
; 'Pillar', 40.8 [RPM], 3.5 [mm/s]
G1 F7800
G1 X-7.82 Y-46 E4.9141
G1 F210
G1 X-7.82 Y-46 Z0.125 E4.9445
G1 X-7.82 Y-46 Z0.25 E4.9748
;
; 'Pillar', 40.8 [RPM], 3.5 [mm/s]
G1 F7800
G1 X-5.69 Y-43.88 E4.9748
G1 F210
G1 X-5.69 Y-43.88 Z0.125 E5.0051
G1 X-5.69 Y-43.88 Z0.25 E5.0355
;
; 'Pillar', 40.8 [RPM], 3.5 [mm/s]
G1 F7800
G1 X-3.57 Y-41.76 E5.0355
G1 F210
G1 X-3.57 Y-41.76 Z0.125 E5.0658
G1 X-3.57 Y-41.76 Z0.25 E5.0962
;
; 'Pillar', 40.8 [RPM], 3.5 [mm/s]
G1 F7800
G1 X-5.69 Y-39.64 E5.0962
G1 F210
G1 X-5.69 Y-39.64 Z0.125 E5.1265
G1 X-5.69 Y-39.64 Z0.25 E5.1568
;
; 'Pillar', 40.8 [RPM], 3.5 [mm/s]
G1 F7800
G1 X-7.82 Y-41.76 E5.1568
G1 F210
G1 X-7.82 Y-41.76 Z0.125 E5.1872
G1 X-7.82 Y-41.76 Z0.25 E5.2175
;
; 'Pillar', 40.8 [RPM], 3.5 [mm/s]
G1 F7800
G1 X-9.94 Y-43.88 E5.2175
G1 F210
G1 X-9.94 Y-43.88 Z0.125 E5.2478
G1 X-9.94 Y-43.88 Z0.25 E5.2782
;
; 'Pillar', 40.8 [RPM], 3.5 [mm/s]
G1 F7800
G1 X-12.06 Y-46 E5.2782
G1 F210
G1 X-12.06 Y-46 Z0.125 E5.3085
G1 X-12.06 Y-46 Z0.25 E5.3388
;
; 'Pillar', 40.8 [RPM], 3.5 [mm/s]
G1 F7800
G1 X-14.18 Y-48.12 E5.3388
G1 F210
G1 X-14.18 Y-48.12 Z0.125 E5.3692
G1 X-14.18 Y-48.12 Z0.25 E5.3995
;
; 'Pillar', 40.8 [RPM], 3.5 [mm/s]
G1 F7800
G1 X-16.3 Y-50.24 E5.3995
G1 F210
G1 X-16.3 Y-50.24 Z0.125 E5.4298
G1 X-16.3 Y-50.24 Z0.25 E5.4602
;
; 'Pillar', 40.8 [RPM], 3.5 [mm/s]
G1 F7800
G1 X-18.42 Y-52.36 E5.4602
G1 F210
G1 X-18.42 Y-52.36 Z0.125 E5.4905
G1 X-18.42 Y-52.36 Z0.25 E5.5208
;
; 'Pillar', 40.8 [RPM], 3.5 [mm/s]
G1 F7800
G1 X-14.18 Y-56.61 E5.5208
G1 F210
G1 X-14.18 Y-56.61 Z0.125 E5.5512
G1 X-14.18 Y-56.61 Z0.25 E5.5815
;
; 'Pillar', 40.8 [RPM], 3.5 [mm/s]
G1 F7800
G1 X-16.3 Y-58.73 E5.5815
G1 F210
G1 X-16.3 Y-58.73 Z0.125 E5.6118
G1 X-16.3 Y-58.73 Z0.25 E5.6422
;
; 'Pillar', 40.8 [RPM], 3.5 [mm/s]
G1 F7800
G1 X-18.42 Y-60.85 E5.6422
G1 F210
G1 X-18.42 Y-60.85 Z0.125 E5.6725
G1 X-18.42 Y-60.85 Z0.25 E5.7028
;
; 'Pillar', 40.8 [RPM], 3.5 [mm/s]
G1 F7800
G1 X-20.54 Y-62.97 E5.7028
G1 F210
G1 X-20.54 Y-62.97 Z0.125 E5.7332
G1 X-20.54 Y-62.97 Z0.25 E5.7635
;
; 'Pillar', 40.8 [RPM], 3.5 [mm/s]
G1 F7800
G1 X-22.67 Y-65.09 E5.7635
G1 F210
G1 X-22.67 Y-65.09 Z0.125 E5.7938
G1 X-22.67 Y-65.09 Z0.25 E5.8242
;
; 'Pillar', 40.8 [RPM], 3.5 [mm/s]
G1 F7800
G1 X-24.79 Y-67.21 E5.8242
G1 F210
G1 X-24.79 Y-67.21 Z0.125 E5.8545
G1 X-24.79 Y-67.21 Z0.25 E5.8848
;
; 'Pillar', 40.8 [RPM], 3.5 [mm/s]
G1 F7800
G1 X-26.91 Y-69.33 E5.8848
G1 F210
G1 X-26.91 Y-69.33 Z0.125 E5.9152
G1 X-26.91 Y-69.33 Z0.25 E5.9455
;
; 'Pillar', 40.8 [RPM], 3.5 [mm/s]
G1 F7800
G1 X-29.03 Y-71.46 E5.9455
G1 F210
G1 X-29.03 Y-71.46 Z0.125 E5.9758
G1 X-29.03 Y-71.46 Z0.25 E6.0062
;
; 'Pillar', 40.8 [RPM], 3.5 [mm/s]
G1 F7800
G1 X-31.15 Y-73.58 E6.0062
G1 F210
G1 X-31.15 Y-73.58 Z0.125 E6.0365
G1 X-31.15 Y-73.58 Z0.25 E6.0668
;
; 'Pillar', 40.8 [RPM], 3.5 [mm/s]
G1 F7800
G1 X-33.27 Y-75.7 E6.0668
G1 F210
G1 X-33.27 Y-75.7 Z0.125 E6.0972
G1 X-33.27 Y-75.7 Z0.25 E6.1275
;
; 'Pillar', 40.8 [RPM], 3.5 [mm/s]
G1 F7800
G1 X-35.39 Y-77.82 E6.1275
G1 F210
G1 X-35.39 Y-77.82 Z0.125 E6.1579
G1 X-35.39 Y-77.82 Z0.25 E6.1882
;
; 'Pillar', 40.8 [RPM], 3.5 [mm/s]
G1 F7800
G1 X-37.51 Y-79.94 E6.1882
G1 F210
G1 X-37.51 Y-79.94 Z0.125 E6.2185
G1 X-37.51 Y-79.94 Z0.25 E6.2489
;
; 'Pillar', 40.8 [RPM], 3.5 [mm/s]
G1 F7800
G1 X-39.64 Y-82.06 E6.2489
G1 F210
G1 X-39.64 Y-82.06 Z0.125 E6.2792
G1 X-39.64 Y-82.06 Z0.25 E6.3095
;
; 'Pillar', 40.8 [RPM], 3.5 [mm/s]
G1 F7800
G1 X-41.76 Y-84.18 E6.3095
G1 F210
G1 X-41.76 Y-84.18 Z0.125 E6.3399
G1 X-41.76 Y-84.18 Z0.25 E6.3702
;
; 'Pillar', 40.8 [RPM], 3.5 [mm/s]
G1 F7800
G1 X-39.64 Y-86.31 E6.3702
G1 F210
G1 X-39.64 Y-86.31 Z0.125 E6.4005
G1 X-39.64 Y-86.31 Z0.25 E6.4309
;
; 'Pillar', 40.8 [RPM], 3.5 [mm/s]
G1 F7800
G1 X-41.76 Y-88.43 E6.4309
G1 F210
G1 X-41.76 Y-88.43 Z0.125 E6.4612
G1 X-41.76 Y-88.43 Z0.25 E6.4915
;
; 'Pillar', 40.8 [RPM], 3.5 [mm/s]
G1 F7800
G1 X-43.88 Y-86.31 E6.4915
G1 F210
G1 X-43.88 Y-86.31 Z0.125 E6.5219
G1 X-43.88 Y-86.31 Z0.25 E6.5522
;
; 'Pillar', 40.8 [RPM], 3.5 [mm/s]
G1 F7800
G1 X-46 Y-88.43 E6.5522
G1 F210
G1 X-46 Y-88.43 Z0.125 E6.5825
G1 X-46 Y-88.43 Z0.25 E6.6129
;
; 'Pillar', 40.8 [RPM], 3.5 [mm/s]
G1 F7800
G1 X-50.24 Y-84.18 E6.6129
G1 F210
G1 X-50.24 Y-84.18 Z0.125 E6.6432
G1 X-50.24 Y-84.18 Z0.25 E6.6735
;
; 'Pillar', 40.8 [RPM], 3.5 [mm/s]
G1 F7800
G1 X-48.12 Y-82.06 E6.6735
G1 F210
G1 X-48.12 Y-82.06 Z0.125 E6.7039
G1 X-48.12 Y-82.06 Z0.25 E6.7342
;
; 'Pillar', 40.8 [RPM], 3.5 [mm/s]
G1 F7800
G1 X-46 Y-79.94 E6.7342
G1 F210
G1 X-46 Y-79.94 Z0.125 E6.7645
G1 X-46 Y-79.94 Z0.25 E6.7949
;
; 'Pillar', 40.8 [RPM], 3.5 [mm/s]
G1 F7800
G1 X-43.88 Y-77.82 E6.7949
G1 F210
G1 X-43.88 Y-77.82 Z0.125 E6.8252
G1 X-43.88 Y-77.82 Z0.25 E6.8555
;
; 'Pillar', 40.8 [RPM], 3.5 [mm/s]
G1 F7800
G1 X-41.76 Y-75.7 E6.8555
G1 F210
G1 X-41.76 Y-75.7 Z0.125 E6.8859
G1 X-41.76 Y-75.7 Z0.25 E6.9162
;
; 'Pillar', 40.8 [RPM], 3.5 [mm/s]
G1 F7800
G1 X-39.64 Y-73.58 E6.9162
G1 F210
G1 X-39.64 Y-73.58 Z0.125 E6.9465
G1 X-39.64 Y-73.58 Z0.25 E6.9769
;
; 'Pillar', 40.8 [RPM], 3.5 [mm/s]
G1 F7800
G1 X-43.88 Y-73.58 E6.9769
G1 F210
G1 X-43.88 Y-73.58 Z0.125 E7.0072
G1 X-43.88 Y-73.58 Z0.25 E7.0375
;
; 'Pillar', 40.8 [RPM], 3.5 [mm/s]
G1 F7800
G1 X-46 Y-75.7 E7.0375
G1 F210
G1 X-46 Y-75.7 Z0.125 E7.0679
G1 X-46 Y-75.7 Z0.25 E7.0982
;
; 'Pillar', 40.8 [RPM], 3.5 [mm/s]
G1 F7800
G1 X-48.12 Y-73.58 E7.0982
G1 F210
G1 X-48.12 Y-73.58 Z0.125 E7.1285
G1 X-48.12 Y-73.58 Z0.25 E7.1589
;
; 'Pillar', 40.8 [RPM], 3.5 [mm/s]
G1 F7800
G1 X-50.24 Y-75.7 E7.1589
G1 F210
G1 X-50.24 Y-75.7 Z0.125 E7.1892
G1 X-50.24 Y-75.7 Z0.25 E7.2195
;
; 'Pillar', 40.8 [RPM], 3.5 [mm/s]
G1 F7800
G1 X-48.12 Y-77.82 E7.2195
G1 F210
G1 X-48.12 Y-77.82 Z0.125 E7.2499
G1 X-48.12 Y-77.82 Z0.25 E7.2802
;
; 'Pillar', 40.8 [RPM], 3.5 [mm/s]
G1 F7800
G1 X-50.24 Y-79.94 E7.2802
G1 F210
G1 X-50.24 Y-79.94 Z0.125 E7.3106
G1 X-50.24 Y-79.94 Z0.25 E7.3409
;
; 'Pillar', 40.8 [RPM], 3.5 [mm/s]
G1 F7800
G1 X-52.36 Y-77.82 E7.3409
G1 F210
G1 X-52.36 Y-77.82 Z0.125 E7.3712
G1 X-52.36 Y-77.82 Z0.25 E7.4016
;
; 'Pillar', 40.8 [RPM], 3.5 [mm/s]
G1 F7800
G1 X-54.49 Y-75.7 E7.4016
G1 F210
G1 X-54.49 Y-75.7 Z0.125 E7.4319
G1 X-54.49 Y-75.7 Z0.25 E7.4622
;
; 'Pillar', 40.8 [RPM], 3.5 [mm/s]
G1 F7800
G1 X-56.61 Y-73.58 E7.4622
G1 F210
G1 X-56.61 Y-73.58 Z0.125 E7.4926
G1 X-56.61 Y-73.58 Z0.25 E7.5229
;
; 'Pillar', 40.8 [RPM], 3.5 [mm/s]
G1 F7800
G1 X-58.73 Y-71.46 E7.5229
G1 F210
G1 X-58.73 Y-71.46 Z0.125 E7.5532
G1 X-58.73 Y-71.46 Z0.25 E7.5836
;
; 'Pillar', 40.8 [RPM], 3.5 [mm/s]
G1 F7800
G1 X-60.85 Y-69.33 E7.5836
G1 F210
G1 X-60.85 Y-69.33 Z0.125 E7.6139
G1 X-60.85 Y-69.33 Z0.25 E7.6442
;
; 'Pillar', 40.8 [RPM], 3.5 [mm/s]
G1 F7800
G1 X-62.97 Y-67.21 E7.6442
G1 F210
G1 X-62.97 Y-67.21 Z0.125 E7.6746
G1 X-62.97 Y-67.21 Z0.25 E7.7049
;
; 'Pillar', 40.8 [RPM], 3.5 [mm/s]
G1 F7800
G1 X-65.09 Y-65.09 E7.7049
G1 F210
G1 X-65.09 Y-65.09 Z0.125 E7.7352
G1 X-65.09 Y-65.09 Z0.25 E7.7656
;
; 'Pillar', 40.8 [RPM], 3.5 [mm/s]
G1 F7800
G1 X-67.21 Y-62.97 E7.7656
G1 F210
G1 X-67.21 Y-62.97 Z0.125 E7.7959
G1 X-67.21 Y-62.97 Z0.25 E7.8262
;
; 'Pillar', 40.8 [RPM], 3.5 [mm/s]
G1 F7800
G1 X-69.33 Y-60.85 E7.8262
G1 F210
G1 X-69.33 Y-60.85 Z0.125 E7.8566
G1 X-69.33 Y-60.85 Z0.25 E7.8869
;
; 'Pillar', 40.8 [RPM], 3.5 [mm/s]
G1 F7800
G1 X-71.46 Y-58.73 E7.8869
G1 F210
G1 X-71.46 Y-58.73 Z0.125 E7.9172
G1 X-71.46 Y-58.73 Z0.25 E7.9476
;
; 'Pillar', 40.8 [RPM], 3.5 [mm/s]
G1 F7800
G1 X-73.58 Y-56.61 E7.9476
G1 F210
G1 X-73.58 Y-56.61 Z0.125 E7.9779
G1 X-73.58 Y-56.61 Z0.25 E8.0082
;
; 'Pillar', 40.8 [RPM], 3.5 [mm/s]
G1 F7800
G1 X-75.7 Y-54.49 E8.0082
G1 F210
G1 X-75.7 Y-54.49 Z0.125 E8.0386
G1 X-75.7 Y-54.49 Z0.25 E8.0689
;
; 'Pillar', 40.8 [RPM], 3.5 [mm/s]
G1 F7800
G1 X-77.82 Y-52.36 E8.0689
G1 F210
G1 X-77.82 Y-52.36 Z0.125 E8.0992
G1 X-77.82 Y-52.36 Z0.25 E8.1296
;
; 'Pillar', 40.8 [RPM], 3.5 [mm/s]
G1 F7800
G1 X-79.94 Y-50.24 E8.1296
G1 F210
G1 X-79.94 Y-50.24 Z0.125 E8.1599
G1 X-79.94 Y-50.24 Z0.25 E8.1902
;
; 'Pillar', 40.8 [RPM], 3.5 [mm/s]
G1 F7800
G1 X-82.06 Y-48.12 E8.1902
G1 F210
G1 X-82.06 Y-48.12 Z0.125 E8.2206
G1 X-82.06 Y-48.12 Z0.25 E8.2509
;
; 'Pillar', 40.8 [RPM], 3.5 [mm/s]
G1 F7800
G1 X-79.94 Y-46 E8.2509
G1 F210
G1 X-79.94 Y-46 Z0.125 E8.2812
G1 X-79.94 Y-46 Z0.25 E8.3116
;
; 'Pillar', 40.8 [RPM], 3.5 [mm/s]
G1 F7800
G1 X-77.82 Y-43.88 E8.3116
G1 F210
G1 X-77.82 Y-43.88 Z0.125 E8.3419
G1 X-77.82 Y-43.88 Z0.25 E8.3723
;
; 'Pillar', 40.8 [RPM], 3.5 [mm/s]
G1 F7800
G1 X-75.7 Y-41.76 E8.3723
G1 F210
G1 X-75.7 Y-41.76 Z0.125 E8.4026
G1 X-75.7 Y-41.76 Z0.25 E8.4329
;
; 'Pillar', 40.8 [RPM], 3.5 [mm/s]
G1 F7800
G1 X-73.58 Y-39.64 E8.4329
G1 F210
G1 X-73.58 Y-39.64 Z0.125 E8.4633
G1 X-73.58 Y-39.64 Z0.25 E8.4936
;
; 'Pillar', 40.8 [RPM], 3.5 [mm/s]
G1 F7800
G1 X-73.58 Y-43.88 E8.4936
G1 F210
G1 X-73.58 Y-43.88 Z0.125 E8.5239
G1 X-73.58 Y-43.88 Z0.25 E8.5543
;
; 'Pillar', 40.8 [RPM], 3.5 [mm/s]
G1 F7800
G1 X-75.7 Y-46 E8.5543
G1 F210
G1 X-75.7 Y-46 Z0.125 E8.5846
G1 X-75.7 Y-46 Z0.25 E8.6149
;
; 'Pillar', 40.8 [RPM], 3.5 [mm/s]
G1 F7800
G1 X-73.58 Y-48.12 E8.6149
G1 F210
G1 X-73.58 Y-48.12 Z0.125 E8.6453
G1 X-73.58 Y-48.12 Z0.25 E8.6756
;
; 'Pillar', 40.8 [RPM], 3.5 [mm/s]
G1 F7800
G1 X-75.7 Y-50.24 E8.6756
G1 F210
G1 X-75.7 Y-50.24 Z0.125 E8.7059
G1 X-75.7 Y-50.24 Z0.25 E8.7363
;
; 'Pillar', 40.8 [RPM], 3.5 [mm/s]
G1 F7800
G1 X-73.58 Y-52.36 E8.7363
G1 F210
G1 X-73.58 Y-52.36 Z0.125 E8.7666
G1 X-73.58 Y-52.36 Z0.25 E8.7969
;
; 'Pillar', 40.8 [RPM], 3.5 [mm/s]
G1 F7800
G1 X-77.82 Y-48.12 E8.7969
G1 F210
G1 X-77.82 Y-48.12 Z0.125 E8.8273
G1 X-77.82 Y-48.12 Z0.25 E8.8576
;
; 'Pillar', 40.8 [RPM], 3.5 [mm/s]
G1 F7800
G1 X-84.18 Y-54.49 E8.8576
G1 F210
G1 X-84.18 Y-54.49 Z0.125 E8.8879
G1 X-84.18 Y-54.49 Z0.25 E8.9183
;
; 'Pillar', 40.8 [RPM], 3.5 [mm/s]
G1 F7800
G1 X-86.31 Y-56.61 E8.9183
G1 F210
G1 X-86.31 Y-56.61 Z0.125 E8.9486
G1 X-86.31 Y-56.61 Z0.25 E8.9789
;
; 'Pillar', 40.8 [RPM], 3.5 [mm/s]
G1 F7800
G1 X-84.18 Y-58.73 E8.9789
G1 F210
G1 X-84.18 Y-58.73 Z0.125 E9.0093
G1 X-84.18 Y-58.73 Z0.25 E9.0396
;
; 'Pillar', 40.8 [RPM], 3.5 [mm/s]
G1 F7800
G1 X-82.06 Y-60.85 E9.0396
G1 F210
G1 X-82.06 Y-60.85 Z0.125 E9.0699
G1 X-82.06 Y-60.85 Z0.25 E9.1003
;
; 'Pillar', 40.8 [RPM], 3.5 [mm/s]
G1 F7800
G1 X-79.94 Y-62.97 E9.1003
G1 F210
G1 X-79.94 Y-62.97 Z0.125 E9.1306
G1 X-79.94 Y-62.97 Z0.25 E9.1609
;
; 'Pillar', 40.8 [RPM], 3.5 [mm/s]
G1 F7800
G1 X-82.06 Y-65.09 E9.1609
G1 F210
G1 X-82.06 Y-65.09 Z0.125 E9.1913
G1 X-82.06 Y-65.09 Z0.25 E9.2216
;
; 'Pillar', 40.8 [RPM], 3.5 [mm/s]
G1 F7800
G1 X-79.94 Y-67.21 E9.2216
G1 F210
G1 X-79.94 Y-67.21 Z0.125 E9.2519
G1 X-79.94 Y-67.21 Z0.25 E9.2823
;
; 'Pillar', 40.8 [RPM], 3.5 [mm/s]
G1 F7800
G1 X-77.82 Y-69.33 E9.2823
G1 F210
G1 X-77.82 Y-69.33 Z0.125 E9.3126
G1 X-77.82 Y-69.33 Z0.25 E9.3429
;
; 'Pillar', 40.8 [RPM], 3.5 [mm/s]
G1 F7800
G1 X-75.7 Y-71.46 E9.3429
G1 F210
G1 X-75.7 Y-71.46 Z0.125 E9.3733
G1 X-75.7 Y-71.46 Z0.25 E9.4036
;
; 'Pillar', 40.8 [RPM], 3.5 [mm/s]
G1 F7800
G1 X-73.58 Y-73.58 E9.4036
G1 F210
G1 X-73.58 Y-73.58 Z0.125 E9.4339
G1 X-73.58 Y-73.58 Z0.25 E9.4643
;
; 'Pillar', 40.8 [RPM], 3.5 [mm/s]
G1 F7800
G1 X-71.46 Y-75.7 E9.4643
G1 F210
G1 X-71.46 Y-75.7 Z0.125 E9.4946
G1 X-71.46 Y-75.7 Z0.25 E9.525
;
; 'Pillar', 40.8 [RPM], 3.5 [mm/s]
G1 F7800
G1 X-69.33 Y-77.82 E9.525
G1 F210
G1 X-69.33 Y-77.82 Z0.125 E9.5553
G1 X-69.33 Y-77.82 Z0.25 E9.5856
;
; 'Pillar', 40.8 [RPM], 3.5 [mm/s]
G1 F7800
G1 X-67.21 Y-79.94 E9.5856
G1 F210
G1 X-67.21 Y-79.94 Z0.125 E9.616
G1 X-67.21 Y-79.94 Z0.25 E9.6463
;
; 'Pillar', 40.8 [RPM], 3.5 [mm/s]
G1 F7800
G1 X-65.09 Y-82.06 E9.6463
G1 F210
G1 X-65.09 Y-82.06 Z0.125 E9.6766
G1 X-65.09 Y-82.06 Z0.25 E9.707
;
; 'Pillar', 40.8 [RPM], 3.5 [mm/s]
G1 F7800
G1 X-62.97 Y-84.18 E9.707
G1 F210
G1 X-62.97 Y-84.18 Z0.125 E9.7373
G1 X-62.97 Y-84.18 Z0.25 E9.7676
;
; 'Pillar', 40.8 [RPM], 3.5 [mm/s]
G1 F7800
G1 X-60.85 Y-82.06 E9.7676
G1 F210
G1 X-60.85 Y-82.06 Z0.125 E9.798
G1 X-60.85 Y-82.06 Z0.25 E9.8283
;
; 'Pillar', 40.8 [RPM], 3.5 [mm/s]
G1 F7800
G1 X-58.73 Y-79.94 E9.8283
G1 F210
G1 X-58.73 Y-79.94 Z0.125 E9.8586
G1 X-58.73 Y-79.94 Z0.25 E9.889
;
; 'Pillar', 40.8 [RPM], 3.5 [mm/s]
G1 F7800
G1 X-56.61 Y-82.06 E9.889
G1 F210
G1 X-56.61 Y-82.06 Z0.125 E9.9193
G1 X-56.61 Y-82.06 Z0.25 E9.9496
;
; 'Pillar', 40.8 [RPM], 3.5 [mm/s]
G1 F7800
G1 X-58.73 Y-84.18 E9.9496
G1 F210
G1 X-58.73 Y-84.18 Z0.125 E9.98
G1 X-58.73 Y-84.18 Z0.25 E10.0103
;
; 'Pillar', 40.8 [RPM], 3.5 [mm/s]
G1 F7800
G1 X-56.61 Y-86.31 E10.0103
G1 F210
G1 X-56.61 Y-86.31 Z0.125 E10.0406
G1 X-56.61 Y-86.31 Z0.25 E10.071
;
; 'Pillar', 40.8 [RPM], 3.5 [mm/s]
G1 F7800
G1 X-62.97 Y-79.94 E10.071
G1 F210
G1 X-62.97 Y-79.94 Z0.125 E10.1013
G1 X-62.97 Y-79.94 Z0.25 E10.1316
;
; 'Pillar', 40.8 [RPM], 3.5 [mm/s]
G1 F7800
G1 X-65.09 Y-77.82 E10.1316
G1 F210
G1 X-65.09 Y-77.82 Z0.125 E10.162
G1 X-65.09 Y-77.82 Z0.25 E10.1923
;
; 'Pillar', 40.8 [RPM], 3.5 [mm/s]
G1 F7800
G1 X-67.21 Y-75.7 E10.1923
G1 F210
G1 X-67.21 Y-75.7 Z0.125 E10.2226
G1 X-67.21 Y-75.7 Z0.25 E10.253
;
; 'Pillar', 40.8 [RPM], 3.5 [mm/s]
G1 F7800
G1 X-69.33 Y-73.58 E10.253
G1 F210
G1 X-69.33 Y-73.58 Z0.125 E10.2833
G1 X-69.33 Y-73.58 Z0.25 E10.3136
;
; 'Pillar', 40.8 [RPM], 3.5 [mm/s]
G1 F7800
G1 X-71.46 Y-71.46 E10.3136
G1 F210
G1 X-71.46 Y-71.46 Z0.125 E10.344
G1 X-71.46 Y-71.46 Z0.25 E10.3743
;
; 'Pillar', 40.8 [RPM], 3.5 [mm/s]
G1 F7800
G1 X-73.58 Y-69.33 E10.3743
G1 F210
G1 X-73.58 Y-69.33 Z0.125 E10.4046
G1 X-73.58 Y-69.33 Z0.25 E10.435
;
; 'Pillar', 40.8 [RPM], 3.5 [mm/s]
G1 F7800
G1 X-75.7 Y-67.21 E10.435
G1 F210
G1 X-75.7 Y-67.21 Z0.125 E10.4653
G1 X-75.7 Y-67.21 Z0.25 E10.4956
;
; 'Pillar', 40.8 [RPM], 3.5 [mm/s]
G1 F7800
G1 X-77.82 Y-65.09 E10.4956
G1 F210
G1 X-77.82 Y-65.09 Z0.125 E10.526
G1 X-77.82 Y-65.09 Z0.25 E10.5563
;
; 'Pillar', 40.8 [RPM], 3.5 [mm/s]
G1 F7800
G1 X-75.7 Y-62.97 E10.5563
G1 F210
G1 X-75.7 Y-62.97 Z0.125 E10.5867
G1 X-75.7 Y-62.97 Z0.25 E10.617
;
; 'Pillar', 40.8 [RPM], 3.5 [mm/s]
G1 F7800
G1 X-73.58 Y-65.09 E10.617
G1 F210
G1 X-73.58 Y-65.09 Z0.125 E10.6473
G1 X-73.58 Y-65.09 Z0.25 E10.6777
;
; 'Pillar', 40.8 [RPM], 3.5 [mm/s]
G1 F7800
G1 X-71.46 Y-67.21 E10.6777
G1 F210
G1 X-71.46 Y-67.21 Z0.125 E10.708
G1 X-71.46 Y-67.21 Z0.25 E10.7383
;
; 'Pillar', 40.8 [RPM], 3.5 [mm/s]
G1 F7800
G1 X-69.33 Y-69.33 E10.7383
G1 F210
G1 X-69.33 Y-69.33 Z0.125 E10.7687
G1 X-69.33 Y-69.33 Z0.25 E10.799
;
; 'Pillar', 40.8 [RPM], 3.5 [mm/s]
G1 F7800
G1 X-67.21 Y-71.46 E10.799
G1 F210
G1 X-67.21 Y-71.46 Z0.125 E10.8293
G1 X-67.21 Y-71.46 Z0.25 E10.8597
;
; 'Pillar', 40.8 [RPM], 3.5 [mm/s]
G1 F7800
G1 X-65.09 Y-73.58 E10.8597
G1 F210
G1 X-65.09 Y-73.58 Z0.125 E10.89
G1 X-65.09 Y-73.58 Z0.25 E10.9203
;
; 'Pillar', 40.8 [RPM], 3.5 [mm/s]
G1 F7800
G1 X-62.97 Y-75.7 E10.9203
G1 F210
G1 X-62.97 Y-75.7 Z0.125 E10.9507
G1 X-62.97 Y-75.7 Z0.25 E10.981
;
; 'Pillar', 40.8 [RPM], 3.5 [mm/s]
G1 F7800
G1 X-60.85 Y-77.82 E10.981
G1 F210
G1 X-60.85 Y-77.82 Z0.125 E11.0113
G1 X-60.85 Y-77.82 Z0.25 E11.0417
;
; 'Pillar', 40.8 [RPM], 3.5 [mm/s]
G1 F7800
G1 X-52.36 Y-73.58 E11.0417
G1 F210
G1 X-52.36 Y-73.58 Z0.125 E11.072
G1 X-52.36 Y-73.58 Z0.25 E11.1023
;
; 'Pillar', 40.8 [RPM], 3.5 [mm/s]
G1 F7800
G1 X-58.73 Y-62.97 E11.1023
G1 F210
G1 X-58.73 Y-62.97 Z0.125 E11.1327
G1 X-58.73 Y-62.97 Z0.25 E11.163
;
; 'Pillar', 40.8 [RPM], 3.5 [mm/s]
G1 F7800
G1 X-60.85 Y-65.09 E11.163
G1 F210
G1 X-60.85 Y-65.09 Z0.125 E11.1933
G1 X-60.85 Y-65.09 Z0.25 E11.2237
;
; 'Pillar', 40.8 [RPM], 3.5 [mm/s]
G1 F7800
G1 X-58.73 Y-67.21 E11.2237
G1 F210
G1 X-58.73 Y-67.21 Z0.125 E11.254
G1 X-58.73 Y-67.21 Z0.25 E11.2843
;
; 'Pillar', 40.8 [RPM], 3.5 [mm/s]
G1 F7800
G1 X-62.97 Y-62.97 E11.2843
G1 F210
G1 X-62.97 Y-62.97 Z0.125 E11.3147
G1 X-62.97 Y-62.97 Z0.25 E11.345
;
; 'Pillar', 40.8 [RPM], 3.5 [mm/s]
G1 F7800
G1 X-65.09 Y-60.85 E11.345
G1 F210
G1 X-65.09 Y-60.85 Z0.125 E11.3753
G1 X-65.09 Y-60.85 Z0.25 E11.4057
;
; 'Pillar', 40.8 [RPM], 3.5 [mm/s]
G1 F7800
G1 X-67.21 Y-58.73 E11.4057
G1 F210
G1 X-67.21 Y-58.73 Z0.125 E11.436
G1 X-67.21 Y-58.73 Z0.25 E11.4663
;
; 'Pillar', 40.8 [RPM], 3.5 [mm/s]
G1 F7800
G1 X-62.97 Y-58.73 E11.4663
G1 F210
G1 X-62.97 Y-58.73 Z0.125 E11.4967
G1 X-62.97 Y-58.73 Z0.25 E11.527
;
; 'Pillar', 40.8 [RPM], 3.5 [mm/s]
G1 F7800
G1 X-60.85 Y-60.85 E11.527
G1 F210
G1 X-60.85 Y-60.85 Z0.125 E11.5573
G1 X-60.85 Y-60.85 Z0.25 E11.5877
;
; 'Pillar', 40.8 [RPM], 3.5 [mm/s]
G1 F7800
G1 X-77.82 Y-60.85 E11.5877
G1 F210
G1 X-77.82 Y-60.85 Z0.125 E11.618
G1 X-77.82 Y-60.85 Z0.25 E11.6483
;
; 'Pillar', 40.8 [RPM], 3.5 [mm/s]
G1 F7800
G1 X-79.94 Y-58.73 E11.6483
G1 F210
G1 X-79.94 Y-58.73 Z0.125 E11.6787
G1 X-79.94 Y-58.73 Z0.25 E11.709
;
; 'Pillar', 40.8 [RPM], 3.5 [mm/s]
G1 F7800
G1 X-82.06 Y-56.61 E11.709
G1 F210
G1 X-82.06 Y-56.61 Z0.125 E11.7394
G1 X-82.06 Y-56.61 Z0.25 E11.7697
;
; 'Pillar', 40.8 [RPM], 3.5 [mm/s]
G1 F7800
G1 X-86.31 Y-52.36 E11.7697
G1 F210
G1 X-86.31 Y-52.36 Z0.125 E11.8
G1 X-86.31 Y-52.36 Z0.25 E11.8304
;
; 'Pillar', 40.8 [RPM], 3.5 [mm/s]
G1 F7800
G1 X-88.43 Y-50.24 E11.8304
G1 F210
G1 X-88.43 Y-50.24 Z0.125 E11.8607
G1 X-88.43 Y-50.24 Z0.25 E11.891
;
; 'Pillar', 40.8 [RPM], 3.5 [mm/s]
G1 F7800
G1 X-88.43 Y-41.76 E11.891
G1 F210
G1 X-88.43 Y-41.76 Z0.125 E11.9214
G1 X-88.43 Y-41.76 Z0.25 E11.9517
;
; 'Pillar', 40.8 [RPM], 3.5 [mm/s]
G1 F7800
G1 X-86.31 Y-39.64 E11.9517
G1 F210
G1 X-86.31 Y-39.64 Z0.125 E11.982
G1 X-86.31 Y-39.64 Z0.25 E12.0124
;
; 'Pillar', 40.8 [RPM], 3.5 [mm/s]
G1 F7800
G1 X-84.18 Y-37.51 E12.0124
G1 F210
G1 X-84.18 Y-37.51 Z0.125 E12.0427
G1 X-84.18 Y-37.51 Z0.25 E12.073
;
; 'Pillar', 40.8 [RPM], 3.5 [mm/s]
G1 F7800
G1 X-82.06 Y-35.39 E12.073
G1 F210
G1 X-82.06 Y-35.39 Z0.125 E12.1034
G1 X-82.06 Y-35.39 Z0.25 E12.1337
;
; 'Pillar', 40.8 [RPM], 3.5 [mm/s]
G1 F7800
G1 X-79.94 Y-33.27 E12.1337
G1 F210
G1 X-79.94 Y-33.27 Z0.125 E12.164
G1 X-79.94 Y-33.27 Z0.25 E12.1944
;
; 'Pillar', 40.8 [RPM], 3.5 [mm/s]
G1 F7800
G1 X-77.82 Y-31.15 E12.1944
G1 F210
G1 X-77.82 Y-31.15 Z0.125 E12.2247
G1 X-77.82 Y-31.15 Z0.25 E12.255
;
; 'Pillar', 40.8 [RPM], 3.5 [mm/s]
G1 F7800
G1 X-75.7 Y-29.03 E12.255
G1 F210
G1 X-75.7 Y-29.03 Z0.125 E12.2854
G1 X-75.7 Y-29.03 Z0.25 E12.3157
;
; 'Pillar', 40.8 [RPM], 3.5 [mm/s]
G1 F7800
G1 X-73.58 Y-26.91 E12.3157
G1 F210
G1 X-73.58 Y-26.91 Z0.125 E12.346
G1 X-73.58 Y-26.91 Z0.25 E12.3764
;
; 'Pillar', 40.8 [RPM], 3.5 [mm/s]
G1 F7800
G1 X-71.46 Y-24.79 E12.3764
G1 F210
G1 X-71.46 Y-24.79 Z0.125 E12.4067
G1 X-71.46 Y-24.79 Z0.25 E12.437
;
; 'Pillar', 40.8 [RPM], 3.5 [mm/s]
G1 F7800
G1 X-69.33 Y-22.67 E12.437
G1 F210
G1 X-69.33 Y-22.67 Z0.125 E12.4674
G1 X-69.33 Y-22.67 Z0.25 E12.4977
;
; 'Pillar', 40.8 [RPM], 3.5 [mm/s]
G1 F7800
G1 X-67.21 Y-20.54 E12.4977
G1 F210
G1 X-67.21 Y-20.54 Z0.125 E12.528
G1 X-67.21 Y-20.54 Z0.25 E12.5584
;
; 'Pillar', 40.8 [RPM], 3.5 [mm/s]
G1 F7800
G1 X-65.09 Y-18.42 E12.5584
G1 F210
G1 X-65.09 Y-18.42 Z0.125 E12.5887
G1 X-65.09 Y-18.42 Z0.25 E12.619
;
; 'Pillar', 40.8 [RPM], 3.5 [mm/s]
G1 F7800
G1 X-62.97 Y-16.3 E12.619
G1 F210
G1 X-62.97 Y-16.3 Z0.125 E12.6494
G1 X-62.97 Y-16.3 Z0.25 E12.6797
;
; 'Pillar', 40.8 [RPM], 3.5 [mm/s]
G1 F7800
G1 X-60.85 Y-14.18 E12.6797
G1 F210
G1 X-60.85 Y-14.18 Z0.125 E12.71
G1 X-60.85 Y-14.18 Z0.25 E12.7404
;
; 'Pillar', 40.8 [RPM], 3.5 [mm/s]
G1 F7800
G1 X-58.73 Y-12.06 E12.7404
G1 F210
G1 X-58.73 Y-12.06 Z0.125 E12.7707
G1 X-58.73 Y-12.06 Z0.25 E12.8011
;
; 'Pillar', 40.8 [RPM], 3.5 [mm/s]
G1 F7800
G1 X-56.61 Y-9.94 E12.8011
G1 F210
G1 X-56.61 Y-9.94 Z0.125 E12.8314
G1 X-56.61 Y-9.94 Z0.25 E12.8617
;
; 'Pillar', 40.8 [RPM], 3.5 [mm/s]
G1 F7800
G1 X-54.49 Y-7.82 E12.8617
G1 F210
G1 X-54.49 Y-7.82 Z0.125 E12.8921
G1 X-54.49 Y-7.82 Z0.25 E12.9224
;
; 'Pillar', 40.8 [RPM], 3.5 [mm/s]
G1 F7800
G1 X-52.36 Y-5.69 E12.9224
G1 F210
G1 X-52.36 Y-5.69 Z0.125 E12.9527
G1 X-52.36 Y-5.69 Z0.25 E12.9831
;
; 'Pillar', 40.8 [RPM], 3.5 [mm/s]
G1 F7800
G1 X-50.24 Y-3.57 E12.9831
G1 F210
G1 X-50.24 Y-3.57 Z0.125 E13.0134
G1 X-50.24 Y-3.57 Z0.25 E13.0437
;
; 'Pillar', 40.8 [RPM], 3.5 [mm/s]
G1 F7800
G1 X-41.76 Y-7.82 E13.0437
G1 F210
G1 X-41.76 Y-7.82 Z0.125 E13.0741
G1 X-41.76 Y-7.82 Z0.25 E13.1044
;
; 'Pillar', 40.8 [RPM], 3.5 [mm/s]
G1 F7800
G1 X-39.64 Y-5.69 E13.1044
G1 F210
G1 X-39.64 Y-5.69 Z0.125 E13.1347
G1 X-39.64 Y-5.69 Z0.25 E13.1651
;
; 'Pillar', 40.8 [RPM], 3.5 [mm/s]
G1 F7800
G1 X-35.39 Y-5.69 E13.1651
G1 F210
G1 X-35.39 Y-5.69 Z0.125 E13.1954
G1 X-35.39 Y-5.69 Z0.25 E13.2257
;
; 'Pillar', 40.8 [RPM], 3.5 [mm/s]
G1 F7800
G1 X-37.51 Y-7.82 E13.2257
G1 F210
G1 X-37.51 Y-7.82 Z0.125 E13.2561
G1 X-37.51 Y-7.82 Z0.25 E13.2864
;
; 'Pillar', 40.8 [RPM], 3.5 [mm/s]
G1 F7800
G1 X-39.64 Y-9.94 E13.2864
G1 F210
G1 X-39.64 Y-9.94 Z0.125 E13.3167
G1 X-39.64 Y-9.94 Z0.25 E13.3471
;
; 'Pillar', 40.8 [RPM], 3.5 [mm/s]
G1 F7800
G1 X-41.76 Y-12.06 E13.3471
G1 F210
G1 X-41.76 Y-12.06 Z0.125 E13.3774
G1 X-41.76 Y-12.06 Z0.25 E13.4077
;
; 'Pillar', 40.8 [RPM], 3.5 [mm/s]
G1 F7800
G1 X-43.88 Y-14.18 E13.4077
G1 F210
G1 X-43.88 Y-14.18 Z0.125 E13.4381
G1 X-43.88 Y-14.18 Z0.25 E13.4684
;
; 'Pillar', 40.8 [RPM], 3.5 [mm/s]
G1 F7800
G1 X-46 Y-16.3 E13.4684
G1 F210
G1 X-46 Y-16.3 Z0.125 E13.4987
G1 X-46 Y-16.3 Z0.25 E13.5291
;
; 'Pillar', 40.8 [RPM], 3.5 [mm/s]
G1 F7800
G1 X-48.12 Y-18.42 E13.5291
G1 F210
G1 X-48.12 Y-18.42 Z0.125 E13.5594
G1 X-48.12 Y-18.42 Z0.25 E13.5897
;
; 'Pillar', 40.8 [RPM], 3.5 [mm/s]
G1 F7800
G1 X-50.24 Y-16.3 E13.5897
G1 F210
G1 X-50.24 Y-16.3 Z0.125 E13.6201
G1 X-50.24 Y-16.3 Z0.25 E13.6504
;
; 'Pillar', 40.8 [RPM], 3.5 [mm/s]
G1 F7800
G1 X-52.36 Y-18.42 E13.6504
G1 F210
G1 X-52.36 Y-18.42 Z0.125 E13.6807
G1 X-52.36 Y-18.42 Z0.25 E13.7111
;
; 'Pillar', 40.8 [RPM], 3.5 [mm/s]
G1 F7800
G1 X-58.73 Y-24.79 E13.7111
G1 F210
G1 X-58.73 Y-24.79 Z0.125 E13.7414
G1 X-58.73 Y-24.79 Z0.25 E13.7717
;
; 'Pillar', 40.8 [RPM], 3.5 [mm/s]
G1 F7800
G1 X-60.85 Y-26.91 E13.7717
G1 F210
G1 X-60.85 Y-26.91 Z0.125 E13.8021
G1 X-60.85 Y-26.91 Z0.25 E13.8324
;
; 'Pillar', 40.8 [RPM], 3.5 [mm/s]
G1 F7800
G1 X-62.97 Y-29.03 E13.8324
G1 F210
G1 X-62.97 Y-29.03 Z0.125 E13.8627
G1 X-62.97 Y-29.03 Z0.25 E13.8931
;
; 'Pillar', 40.8 [RPM], 3.5 [mm/s]
G1 F7800
G1 X-65.09 Y-31.15 E13.8931
G1 F210
G1 X-65.09 Y-31.15 Z0.125 E13.9234
G1 X-65.09 Y-31.15 Z0.25 E13.9538
;
; 'Pillar', 40.8 [RPM], 3.5 [mm/s]
G1 F7800
G1 X-67.21 Y-33.27 E13.9538
G1 F210
G1 X-67.21 Y-33.27 Z0.125 E13.9841
G1 X-67.21 Y-33.27 Z0.25 E14.0144
;
; 'Pillar', 40.8 [RPM], 3.5 [mm/s]
G1 F7800
G1 X-62.97 Y-33.27 E14.0144
G1 F210
G1 X-62.97 Y-33.27 Z0.125 E14.0448
G1 X-62.97 Y-33.27 Z0.25 E14.0751
;
; 'Pillar', 40.8 [RPM], 3.5 [mm/s]
G1 F7800
G1 X-60.85 Y-31.15 E14.0751
G1 F210
G1 X-60.85 Y-31.15 Z0.125 E14.1054
G1 X-60.85 Y-31.15 Z0.25 E14.1358
;
; 'Pillar', 40.8 [RPM], 3.5 [mm/s]
G1 F7800
G1 X-58.73 Y-29.03 E14.1358
G1 F210
G1 X-58.73 Y-29.03 Z0.125 E14.1661
G1 X-58.73 Y-29.03 Z0.25 E14.1964
;
; 'Pillar', 40.8 [RPM], 3.5 [mm/s]
G1 F7800
G1 X-67.21 Y-16.3 E14.1964
G1 F210
G1 X-67.21 Y-16.3 Z0.125 E14.2268
G1 X-67.21 Y-16.3 Z0.25 E14.2571
;
; 'Pillar', 40.8 [RPM], 3.5 [mm/s]
G1 F7800
G1 X-65.09 Y-14.18 E14.2571
G1 F210
G1 X-65.09 Y-14.18 Z0.125 E14.2874
G1 X-65.09 Y-14.18 Z0.25 E14.3178
;
; 'Pillar', 40.8 [RPM], 3.5 [mm/s]
G1 F7800
G1 X-62.97 Y-12.06 E14.3178
G1 F210
G1 X-62.97 Y-12.06 Z0.125 E14.3481
G1 X-62.97 Y-12.06 Z0.25 E14.3784
;
; 'Pillar', 40.8 [RPM], 3.5 [mm/s]
G1 F7800
G1 X-60.85 Y-9.94 E14.3784
G1 F210
G1 X-60.85 Y-9.94 Z0.125 E14.4088
G1 X-60.85 Y-9.94 Z0.25 E14.4391
;
; 'Pillar', 40.8 [RPM], 3.5 [mm/s]
G1 F7800
G1 X-58.73 Y-7.82 E14.4391
G1 F210
G1 X-58.73 Y-7.82 Z0.125 E14.4694
G1 X-58.73 Y-7.82 Z0.25 E14.4998
;
; 'Pillar', 40.8 [RPM], 3.5 [mm/s]
G1 F7800
G1 X-56.61 Y-5.69 E14.4998
G1 F210
G1 X-56.61 Y-5.69 Z0.125 E14.5301
G1 X-56.61 Y-5.69 Z0.25 E14.5604
;
; 'Pillar', 40.8 [RPM], 3.5 [mm/s]
G1 F7800
G1 X-62.97 Y-7.82 E14.5604
G1 F210
G1 X-62.97 Y-7.82 Z0.125 E14.5908
G1 X-62.97 Y-7.82 Z0.25 E14.6211
;
; 'Pillar', 40.8 [RPM], 3.5 [mm/s]
G1 F7800
G1 X-65.09 Y-9.94 E14.6211
G1 F210
G1 X-65.09 Y-9.94 Z0.125 E14.6514
G1 X-65.09 Y-9.94 Z0.25 E14.6818
;
; 'Pillar', 40.8 [RPM], 3.5 [mm/s]
G1 F7800
G1 X-67.21 Y-12.06 E14.6818
G1 F210
G1 X-67.21 Y-12.06 Z0.125 E14.7121
G1 X-67.21 Y-12.06 Z0.25 E14.7424
;
; 'Pillar', 40.8 [RPM], 3.5 [mm/s]
G1 F7800
G1 X-69.33 Y-14.18 E14.7424
G1 F210
G1 X-69.33 Y-14.18 Z0.125 E14.7728
G1 X-69.33 Y-14.18 Z0.25 E14.8031
;
; 'Pillar', 40.8 [RPM], 3.5 [mm/s]
G1 F7800
G1 X-71.46 Y-16.3 E14.8031
G1 F210
G1 X-71.46 Y-16.3 Z0.125 E14.8334
G1 X-71.46 Y-16.3 Z0.25 E14.8638
;
; 'Pillar', 40.8 [RPM], 3.5 [mm/s]
G1 F7800
G1 X-69.33 Y-18.42 E14.8638
G1 F210
G1 X-69.33 Y-18.42 Z0.125 E14.8941
G1 X-69.33 Y-18.42 Z0.25 E14.9244
;
; 'Pillar', 40.8 [RPM], 3.5 [mm/s]
G1 F7800
G1 X-71.46 Y-20.54 E14.9244
G1 F210
G1 X-71.46 Y-20.54 Z0.125 E14.9548
G1 X-71.46 Y-20.54 Z0.25 E14.9851
;
; 'Pillar', 40.8 [RPM], 3.5 [mm/s]
G1 F7800
G1 X-73.58 Y-22.67 E14.9851
G1 F210
G1 X-73.58 Y-22.67 Z0.125 E15.0155
G1 X-73.58 Y-22.67 Z0.25 E15.0458
;
; 'Pillar', 40.8 [RPM], 3.5 [mm/s]
G1 F7800
G1 X-75.7 Y-20.54 E15.0458
G1 F210
G1 X-75.7 Y-20.54 Z0.125 E15.0761
G1 X-75.7 Y-20.54 Z0.25 E15.1065
;
; 'Pillar', 40.8 [RPM], 3.5 [mm/s]
G1 F7800
G1 X-77.82 Y-22.67 E15.1065
G1 F210
G1 X-77.82 Y-22.67 Z0.125 E15.1368
G1 X-77.82 Y-22.67 Z0.25 E15.1671
;
; 'Pillar', 40.8 [RPM], 3.5 [mm/s]
G1 F7800
G1 X-79.94 Y-24.79 E15.1671
G1 F210
G1 X-79.94 Y-24.79 Z0.125 E15.1975
G1 X-79.94 Y-24.79 Z0.25 E15.2278
;
; 'Pillar', 40.8 [RPM], 3.5 [mm/s]
G1 F7800
G1 X-82.06 Y-26.91 E15.2278
G1 F210
G1 X-82.06 Y-26.91 Z0.125 E15.2581
G1 X-82.06 Y-26.91 Z0.25 E15.2885
;
; 'Pillar', 40.8 [RPM], 3.5 [mm/s]
G1 F7800
G1 X-79.94 Y-29.03 E15.2885
G1 F210
G1 X-79.94 Y-29.03 Z0.125 E15.3188
G1 X-79.94 Y-29.03 Z0.25 E15.3491
;
; 'Pillar', 40.8 [RPM], 3.5 [mm/s]
G1 F7800
G1 X-82.06 Y-31.15 E15.3491
G1 F210
G1 X-82.06 Y-31.15 Z0.125 E15.3795
G1 X-82.06 Y-31.15 Z0.25 E15.4098
;
; 'Pillar', 40.8 [RPM], 3.5 [mm/s]
G1 F7800
G1 X-84.18 Y-33.27 E15.4098
G1 F210
G1 X-84.18 Y-33.27 Z0.125 E15.4401
G1 X-84.18 Y-33.27 Z0.25 E15.4705
;
; 'Pillar', 40.8 [RPM], 3.5 [mm/s]
G1 F7800
G1 X-86.31 Y-35.39 E15.4705
G1 F210
G1 X-86.31 Y-35.39 Z0.125 E15.5008
G1 X-86.31 Y-35.39 Z0.25 E15.5311
;
; 'Pillar', 40.8 [RPM], 3.5 [mm/s]
G1 F7800
G1 X-84.18 Y-29.03 E15.5311
G1 F210
G1 X-84.18 Y-29.03 Z0.125 E15.5615
G1 X-84.18 Y-29.03 Z0.25 E15.5918
;
; 'Pillar', 40.8 [RPM], 3.5 [mm/s]
G1 F7800
G1 X-77.82 Y-26.91 E15.5918
G1 F210
G1 X-77.82 Y-26.91 Z0.125 E15.6221
G1 X-77.82 Y-26.91 Z0.25 E15.6525
;
; 'Pillar', 40.8 [RPM], 3.5 [mm/s]
G1 F7800
G1 X-75.7 Y-24.79 E15.6525
G1 F210
G1 X-75.7 Y-24.79 Z0.125 E15.6828
G1 X-75.7 Y-24.79 Z0.25 E15.7131
;
; 'Pillar', 40.8 [RPM], 3.5 [mm/s]
G1 F7800
G1 X-73.58 Y-18.42 E15.7131
G1 F210
G1 X-73.58 Y-18.42 Z0.125 E15.7435
G1 X-73.58 Y-18.42 Z0.25 E15.7738
;
; 'Pillar', 40.8 [RPM], 3.5 [mm/s]
G1 F7800
G1 X-48.12 Y-14.18 E15.7738
G1 F210
G1 X-48.12 Y-14.18 Z0.125 E15.8041
G1 X-48.12 Y-14.18 Z0.25 E15.8345
;
; 'Pillar', 40.8 [RPM], 3.5 [mm/s]
G1 F7800
G1 X-46 Y-12.06 E15.8345
G1 F210
G1 X-46 Y-12.06 Z0.125 E15.8648
G1 X-46 Y-12.06 Z0.25 E15.8951
;
; 'Pillar', 40.8 [RPM], 3.5 [mm/s]
G1 F7800
G1 X-43.88 Y-9.94 E15.8951
G1 F210
G1 X-43.88 Y-9.94 Z0.125 E15.9255
G1 X-43.88 Y-9.94 Z0.25 E15.9558
;
; 'Pillar', 40.8 [RPM], 3.5 [mm/s]
G1 F7800
G1 X-37.51 Y-12.06 E15.9558
G1 F210
G1 X-37.51 Y-12.06 Z0.125 E15.9861
G1 X-37.51 Y-12.06 Z0.25 E16.0165
;
; 'Pillar', 40.8 [RPM], 3.5 [mm/s]
G1 F7800
G1 X-35.39 Y-9.94 E16.0165
G1 F210
G1 X-35.39 Y-9.94 Z0.125 E16.0468
G1 X-35.39 Y-9.94 Z0.25 E16.0771
;
; 'Pillar', 40.8 [RPM], 3.5 [mm/s]
G1 F7800
G1 X-33.27 Y-7.82 E16.0771
G1 F210
G1 X-33.27 Y-7.82 Z0.125 E16.1075
G1 X-33.27 Y-7.82 Z0.25 E16.1378
;
; 'Pillar', 40.8 [RPM], 3.5 [mm/s]
G1 F7800
G1 X-29.03 Y-7.82 E16.1378
G1 F210
G1 X-29.03 Y-7.82 Z0.125 E16.1682
G1 X-29.03 Y-7.82 Z0.25 E16.1985
;
; 'Pillar', 40.8 [RPM], 3.5 [mm/s]
G1 F7800
G1 X-31.15 Y-9.94 E16.1985
G1 F210
G1 X-31.15 Y-9.94 Z0.125 E16.2288
G1 X-31.15 Y-9.94 Z0.25 E16.2592
;
; 'Pillar', 40.8 [RPM], 3.5 [mm/s]
G1 F7800
G1 X-33.27 Y-12.06 E16.2592
G1 F210
G1 X-33.27 Y-12.06 Z0.125 E16.2895
G1 X-33.27 Y-12.06 Z0.25 E16.3198
;
; 'Pillar', 40.8 [RPM], 3.5 [mm/s]
G1 F7800
G1 X-35.39 Y-14.18 E16.3198
G1 F210
G1 X-35.39 Y-14.18 Z0.125 E16.3502
G1 X-35.39 Y-14.18 Z0.25 E16.3805
;
; 'Pillar', 40.8 [RPM], 3.5 [mm/s]
G1 F7800
G1 X-37.51 Y-16.3 E16.3805
G1 F210
G1 X-37.51 Y-16.3 Z0.125 E16.4108
G1 X-37.51 Y-16.3 Z0.25 E16.4412
;
; 'Pillar', 40.8 [RPM], 3.5 [mm/s]
G1 F7800
G1 X-39.64 Y-18.42 E16.4412
G1 F210
G1 X-39.64 Y-18.42 Z0.125 E16.4715
G1 X-39.64 Y-18.42 Z0.25 E16.5018
;
; 'Pillar', 40.8 [RPM], 3.5 [mm/s]
G1 F7800
G1 X-41.76 Y-16.3 E16.5018
G1 F210
G1 X-41.76 Y-16.3 Z0.125 E16.5322
G1 X-41.76 Y-16.3 Z0.25 E16.5625
;
; 'Pillar', 40.8 [RPM], 3.5 [mm/s]
G1 F7800
G1 X-43.88 Y-18.42 E16.5625
G1 F210
G1 X-43.88 Y-18.42 Z0.125 E16.5928
G1 X-43.88 Y-18.42 Z0.25 E16.6232
;
; 'Pillar', 40.8 [RPM], 3.5 [mm/s]
G1 F7800
G1 X-39.64 Y-14.18 E16.6232
G1 F210
G1 X-39.64 Y-14.18 Z0.125 E16.6535
G1 X-39.64 Y-14.18 Z0.25 E16.6838
;
; 'Pillar', 40.8 [RPM], 3.5 [mm/s]
G1 F7800
G1 X-33.27 Y-16.3 E16.6838
G1 F210
G1 X-33.27 Y-16.3 Z0.125 E16.7142
G1 X-33.27 Y-16.3 Z0.25 E16.7445
;
; 'Pillar', 40.8 [RPM], 3.5 [mm/s]
G1 F7800
G1 X-31.15 Y-14.18 E16.7445
G1 F210
G1 X-31.15 Y-14.18 Z0.125 E16.7748
G1 X-31.15 Y-14.18 Z0.25 E16.8052
;
; 'Pillar', 40.8 [RPM], 3.5 [mm/s]
G1 F7800
G1 X-29.03 Y-12.06 E16.8052
G1 F210
G1 X-29.03 Y-12.06 Z0.125 E16.8355
G1 X-29.03 Y-12.06 Z0.25 E16.8658
;
; 'Pillar', 40.8 [RPM], 3.5 [mm/s]
G1 F7800
G1 X-26.91 Y-9.94 E16.8658
G1 F210
G1 X-26.91 Y-9.94 Z0.125 E16.8962
G1 X-26.91 Y-9.94 Z0.25 E16.9265
;
; 'Pillar', 40.8 [RPM], 3.5 [mm/s]
G1 F7800
G1 X-24.79 Y-12.06 E16.9265
G1 F210
G1 X-24.79 Y-12.06 Z0.125 E16.9568
G1 X-24.79 Y-12.06 Z0.25 E16.9872
;
; 'Pillar', 40.8 [RPM], 3.5 [mm/s]
G1 F7800
G1 X-26.91 Y-14.18 E16.9872
G1 F210
G1 X-26.91 Y-14.18 Z0.125 E17.0175
G1 X-26.91 Y-14.18 Z0.25 E17.0478
;
; 'Pillar', 40.8 [RPM], 3.5 [mm/s]
G1 F7800
G1 X-29.03 Y-16.3 E17.0478
G1 F210
G1 X-29.03 Y-16.3 Z0.125 E17.0782
G1 X-29.03 Y-16.3 Z0.25 E17.1085
;
; 'Pillar', 40.8 [RPM], 3.5 [mm/s]
G1 F7800
G1 X-31.15 Y-18.42 E17.1085
G1 F210
G1 X-31.15 Y-18.42 Z0.125 E17.1388
G1 X-31.15 Y-18.42 Z0.25 E17.1692
;
; 'Pillar', 40.8 [RPM], 3.5 [mm/s]
G1 F7800
G1 X-33.27 Y-20.54 E17.1692
G1 F210
G1 X-33.27 Y-20.54 Z0.125 E17.1995
G1 X-33.27 Y-20.54 Z0.25 E17.2299
;
; 'Pillar', 40.8 [RPM], 3.5 [mm/s]
G1 F7800
G1 X-35.39 Y-18.42 E17.2299
G1 F210
G1 X-35.39 Y-18.42 Z0.125 E17.2602
G1 X-35.39 Y-18.42 Z0.25 E17.2905
;
; 'Pillar', 40.8 [RPM], 3.5 [mm/s]
G1 F7800
G1 X-31.15 Y-22.67 E17.2905
G1 F210
G1 X-31.15 Y-22.67 Z0.125 E17.3209
G1 X-31.15 Y-22.67 Z0.25 E17.3512
;
; 'Pillar', 40.8 [RPM], 3.5 [mm/s]
G1 F7800
G1 X-33.27 Y-24.79 E17.3512
G1 F210
G1 X-33.27 Y-24.79 Z0.125 E17.3815
G1 X-33.27 Y-24.79 Z0.25 E17.4119
;
; 'Pillar', 40.8 [RPM], 3.5 [mm/s]
G1 F7800
G1 X-31.15 Y-26.91 E17.4119
G1 F210
G1 X-31.15 Y-26.91 Z0.125 E17.4422
G1 X-31.15 Y-26.91 Z0.25 E17.4725
;
; 'Pillar', 40.8 [RPM], 3.5 [mm/s]
G1 F7800
G1 X-33.27 Y-29.03 E17.4725
G1 F210
G1 X-33.27 Y-29.03 Z0.125 E17.5029
G1 X-33.27 Y-29.03 Z0.25 E17.5332
;
; 'Pillar', 40.8 [RPM], 3.5 [mm/s]
G1 F7800
G1 X-31.15 Y-31.15 E17.5332
G1 F210
G1 X-31.15 Y-31.15 Z0.125 E17.5635
G1 X-31.15 Y-31.15 Z0.25 E17.5939
;
; 'Pillar', 40.8 [RPM], 3.5 [mm/s]
G1 F7800
G1 X-29.03 Y-33.27 E17.5939
G1 F210
G1 X-29.03 Y-33.27 Z0.125 E17.6242
G1 X-29.03 Y-33.27 Z0.25 E17.6545
;
; 'Pillar', 40.8 [RPM], 3.5 [mm/s]
G1 F7800
G1 X-26.91 Y-31.15 E17.6545
G1 F210
G1 X-26.91 Y-31.15 Z0.125 E17.6849
G1 X-26.91 Y-31.15 Z0.25 E17.7152
;
; 'Pillar', 40.8 [RPM], 3.5 [mm/s]
G1 F7800
G1 X-24.79 Y-29.03 E17.7152
G1 F210
G1 X-24.79 Y-29.03 Z0.125 E17.7455
G1 X-24.79 Y-29.03 Z0.25 E17.7759
;
; 'Pillar', 40.8 [RPM], 3.5 [mm/s]
G1 F7800
G1 X-22.67 Y-26.91 E17.7759
G1 F210
G1 X-22.67 Y-26.91 Z0.125 E17.8062
G1 X-22.67 Y-26.91 Z0.25 E17.8365
;
; 'Pillar', 40.8 [RPM], 3.5 [mm/s]
G1 F7800
G1 X-20.54 Y-24.79 E17.8365
G1 F210
G1 X-20.54 Y-24.79 Z0.125 E17.8669
G1 X-20.54 Y-24.79 Z0.25 E17.8972
;
; 'Pillar', 40.8 [RPM], 3.5 [mm/s]
G1 F7800
G1 X-18.42 Y-22.67 E17.8972
G1 F210
G1 X-18.42 Y-22.67 Z0.125 E17.9275
G1 X-18.42 Y-22.67 Z0.25 E17.9579
;
; 'Pillar', 40.8 [RPM], 3.5 [mm/s]
G1 F7800
G1 X-16.3 Y-20.54 E17.9579
G1 F210
G1 X-16.3 Y-20.54 Z0.125 E17.9882
G1 X-16.3 Y-20.54 Z0.25 E18.0185
;
; 'Pillar', 40.8 [RPM], 3.5 [mm/s]
G1 F7800
G1 X-18.42 Y-18.42 E18.0185
G1 F210
G1 X-18.42 Y-18.42 Z0.125 E18.0489
G1 X-18.42 Y-18.42 Z0.25 E18.0792
;
; 'Pillar', 40.8 [RPM], 3.5 [mm/s]
G1 F7800
G1 X-20.54 Y-20.54 E18.0792
G1 F210
G1 X-20.54 Y-20.54 Z0.125 E18.1095
G1 X-20.54 Y-20.54 Z0.25 E18.1399
;
; 'Pillar', 40.8 [RPM], 3.5 [mm/s]
G1 F7800
G1 X-22.67 Y-22.67 E18.1399
G1 F210
G1 X-22.67 Y-22.67 Z0.125 E18.1702
G1 X-22.67 Y-22.67 Z0.25 E18.2005
;
; 'Pillar', 40.8 [RPM], 3.5 [mm/s]
G1 F7800
G1 X-24.79 Y-24.79 E18.2005
G1 F210
G1 X-24.79 Y-24.79 Z0.125 E18.2309
G1 X-24.79 Y-24.79 Z0.25 E18.2612
;
; 'Pillar', 40.8 [RPM], 3.5 [mm/s]
G1 F7800
G1 X-26.91 Y-26.91 E18.2612
G1 F210
G1 X-26.91 Y-26.91 Z0.125 E18.2915
G1 X-26.91 Y-26.91 Z0.25 E18.3219
;
; 'Pillar', 40.8 [RPM], 3.5 [mm/s]
G1 F7800
G1 X-29.03 Y-29.03 E18.3219
G1 F210
G1 X-29.03 Y-29.03 Z0.125 E18.3522
G1 X-29.03 Y-29.03 Z0.25 E18.3826
;
; 'Pillar', 40.8 [RPM], 3.5 [mm/s]
G1 F7800
G1 X-24.79 Y-33.27 E18.3826
G1 F210
G1 X-24.79 Y-33.27 Z0.125 E18.4129
G1 X-24.79 Y-33.27 Z0.25 E18.4432
;
; 'Pillar', 40.8 [RPM], 3.5 [mm/s]
G1 F7800
G1 X-22.67 Y-31.15 E18.4432
G1 F210
G1 X-22.67 Y-31.15 Z0.125 E18.4736
G1 X-22.67 Y-31.15 Z0.25 E18.5039
;
; 'Pillar', 40.8 [RPM], 3.5 [mm/s]
G1 F7800
G1 X-20.54 Y-29.03 E18.5039
G1 F210
G1 X-20.54 Y-29.03 Z0.125 E18.5342
G1 X-20.54 Y-29.03 Z0.25 E18.5646
;
; 'Pillar', 40.8 [RPM], 3.5 [mm/s]
G1 F7800
G1 X-18.42 Y-26.91 E18.5646
G1 F210
G1 X-18.42 Y-26.91 Z0.125 E18.5949
G1 X-18.42 Y-26.91 Z0.25 E18.6252
;
; 'Pillar', 40.8 [RPM], 3.5 [mm/s]
G1 F7800
G1 X-16.3 Y-24.79 E18.6252
G1 F210
G1 X-16.3 Y-24.79 Z0.125 E18.6556
G1 X-16.3 Y-24.79 Z0.25 E18.6859
;
; 'Pillar', 40.8 [RPM], 3.5 [mm/s]
G1 F7800
G1 X-14.18 Y-22.67 E18.6859
G1 F210
G1 X-14.18 Y-22.67 Z0.125 E18.7162
G1 X-14.18 Y-22.67 Z0.25 E18.7466
;
; 'Pillar', 40.8 [RPM], 3.5 [mm/s]
G1 F7800
G1 X-12.06 Y-24.79 E18.7466
G1 F210
G1 X-12.06 Y-24.79 Z0.125 E18.7769
G1 X-12.06 Y-24.79 Z0.25 E18.8072
;
; 'Pillar', 40.8 [RPM], 3.5 [mm/s]
G1 F7800
G1 X-14.18 Y-26.91 E18.8072
G1 F210
G1 X-14.18 Y-26.91 Z0.125 E18.8376
G1 X-14.18 Y-26.91 Z0.25 E18.8679
;
; 'Pillar', 40.8 [RPM], 3.5 [mm/s]
G1 F7800
G1 X-16.3 Y-29.03 E18.8679
G1 F210
G1 X-16.3 Y-29.03 Z0.125 E18.8982
G1 X-16.3 Y-29.03 Z0.25 E18.9286
;
; 'Pillar', 40.8 [RPM], 3.5 [mm/s]
G1 F7800
G1 X-18.42 Y-31.15 E18.9286
G1 F210
G1 X-18.42 Y-31.15 Z0.125 E18.9589
G1 X-18.42 Y-31.15 Z0.25 E18.9892
;
; 'Pillar', 40.8 [RPM], 3.5 [mm/s]
G1 F7800
G1 X-20.54 Y-33.27 E18.9892
G1 F210
G1 X-20.54 Y-33.27 Z0.125 E19.0196
G1 X-20.54 Y-33.27 Z0.25 E19.0499
;
; 'Pillar', 40.8 [RPM], 3.5 [mm/s]
G1 F7800
G1 X-18.42 Y-35.39 E19.0499
G1 F210
G1 X-18.42 Y-35.39 Z0.125 E19.0802
G1 X-18.42 Y-35.39 Z0.25 E19.1106
;
; 'Pillar', 40.8 [RPM], 3.5 [mm/s]
G1 F7800
G1 X-16.3 Y-37.51 E19.1106
G1 F210
G1 X-16.3 Y-37.51 Z0.125 E19.1409
G1 X-16.3 Y-37.51 Z0.25 E19.1712
;
; 'Pillar', 40.8 [RPM], 3.5 [mm/s]
G1 F7800
G1 X-14.18 Y-39.64 E19.1712
G1 F210
G1 X-14.18 Y-39.64 Z0.125 E19.2016
G1 X-14.18 Y-39.64 Z0.25 E19.2319
;
; 'Pillar', 40.8 [RPM], 3.5 [mm/s]
G1 F7800
G1 X-12.06 Y-41.76 E19.2319
G1 F210
G1 X-12.06 Y-41.76 Z0.125 E19.2622
G1 X-12.06 Y-41.76 Z0.25 E19.2926
;
; 'Pillar', 40.8 [RPM], 3.5 [mm/s]
G1 F7800
G1 X-14.18 Y-43.88 E19.2926
G1 F210
G1 X-14.18 Y-43.88 Z0.125 E19.3229
G1 X-14.18 Y-43.88 Z0.25 E19.3532
;
; 'Pillar', 40.8 [RPM], 3.5 [mm/s]
G1 F7800
G1 X-16.3 Y-46 E19.3532
G1 F210
G1 X-16.3 Y-46 Z0.125 E19.3836
G1 X-16.3 Y-46 Z0.25 E19.4139
;
; 'Pillar', 40.8 [RPM], 3.5 [mm/s]
G1 F7800
G1 X-18.42 Y-48.12 E19.4139
G1 F210
G1 X-18.42 Y-48.12 Z0.125 E19.4443
G1 X-18.42 Y-48.12 Z0.25 E19.4746
;
; 'Pillar', 40.8 [RPM], 3.5 [mm/s]
G1 F7800
G1 X-18.42 Y-43.88 E19.4746
G1 F210
G1 X-18.42 Y-43.88 Z0.125 E19.5049
G1 X-18.42 Y-43.88 Z0.25 E19.5353
;
; 'Pillar', 40.8 [RPM], 3.5 [mm/s]
G1 F7800
G1 X-16.3 Y-41.76 E19.5353
G1 F210
G1 X-16.3 Y-41.76 Z0.125 E19.5656
G1 X-16.3 Y-41.76 Z0.25 E19.5959
;
; 'Pillar', 40.8 [RPM], 3.5 [mm/s]
G1 F7800
G1 X-18.42 Y-39.64 E19.5959
G1 F210
G1 X-18.42 Y-39.64 Z0.125 E19.6263
G1 X-18.42 Y-39.64 Z0.25 E19.6566
;
; 'Pillar', 40.8 [RPM], 3.5 [mm/s]
G1 F7800
G1 X-14.18 Y-35.39 E19.6566
G1 F210
G1 X-14.18 Y-35.39 Z0.125 E19.6869
G1 X-14.18 Y-35.39 Z0.25 E19.7173
;
; 'Pillar', 40.8 [RPM], 3.5 [mm/s]
G1 F7800
G1 X-12.06 Y-33.27 E19.7173
G1 F210
G1 X-12.06 Y-33.27 Z0.125 E19.7476
G1 X-12.06 Y-33.27 Z0.25 E19.7779
;
; 'Pillar', 40.8 [RPM], 3.5 [mm/s]
G1 F7800
G1 X-9.94 Y-31.15 E19.7779
G1 F210
G1 X-9.94 Y-31.15 Z0.125 E19.8083
G1 X-9.94 Y-31.15 Z0.25 E19.8386
;
; 'Pillar', 40.8 [RPM], 3.5 [mm/s]
G1 F7800
G1 X-7.82 Y-29.03 E19.8386
G1 F210
G1 X-7.82 Y-29.03 Z0.125 E19.8689
G1 X-7.82 Y-29.03 Z0.25 E19.8993
;
; 'Pillar', 40.8 [RPM], 3.5 [mm/s]
G1 F7800
G1 X-9.94 Y-26.91 E19.8993
G1 F210
G1 X-9.94 Y-26.91 Z0.125 E19.9296
G1 X-9.94 Y-26.91 Z0.25 E19.9599
;
; 'Pillar', 40.8 [RPM], 3.5 [mm/s]
G1 F7800
G1 X-12.06 Y-29.03 E19.9599
G1 F210
G1 X-12.06 Y-29.03 Z0.125 E19.9903
G1 X-12.06 Y-29.03 Z0.25 E20.0206
;
; 'Pillar', 40.8 [RPM], 3.5 [mm/s]
G1 F7800
G1 X-14.18 Y-31.15 E20.0206
G1 F210
G1 X-14.18 Y-31.15 Z0.125 E20.0509
G1 X-14.18 Y-31.15 Z0.25 E20.0813
;
; 'Pillar', 40.8 [RPM], 3.5 [mm/s]
G1 F7800
G1 X-16.3 Y-33.27 E20.0813
G1 F210
G1 X-16.3 Y-33.27 Z0.125 E20.1116
G1 X-16.3 Y-33.27 Z0.25 E20.1419
;
; 'Pillar', 40.8 [RPM], 3.5 [mm/s]
G1 F7800
G1 X-12.06 Y-37.51 E20.1419
G1 F210
G1 X-12.06 Y-37.51 Z0.125 E20.1723
G1 X-12.06 Y-37.51 Z0.25 E20.2026
;
; 'Pillar', 40.8 [RPM], 3.5 [mm/s]
G1 F7800
G1 X-9.94 Y-39.64 E20.2026
G1 F210
G1 X-9.94 Y-39.64 Z0.125 E20.2329
G1 X-9.94 Y-39.64 Z0.25 E20.2633
;
; 'Pillar', 40.8 [RPM], 3.5 [mm/s]
G1 F7800
G1 X-7.82 Y-37.51 E20.2633
G1 F210
G1 X-7.82 Y-37.51 Z0.125 E20.2936
G1 X-7.82 Y-37.51 Z0.25 E20.3239
;
; 'Pillar', 40.8 [RPM], 3.5 [mm/s]
G1 F7800
G1 X-5.69 Y-35.39 E20.3239
G1 F210
G1 X-5.69 Y-35.39 Z0.125 E20.3543
G1 X-5.69 Y-35.39 Z0.25 E20.3846
;
; 'Pillar', 40.8 [RPM], 3.5 [mm/s]
G1 F7800
G1 X-7.82 Y-33.27 E20.3846
G1 F210
G1 X-7.82 Y-33.27 Z0.125 E20.4149
G1 X-7.82 Y-33.27 Z0.25 E20.4453
;
; 'Pillar', 40.8 [RPM], 3.5 [mm/s]
G1 F7800
G1 X-9.94 Y-35.39 E20.4453
G1 F210
G1 X-9.94 Y-35.39 Z0.125 E20.4756
G1 X-9.94 Y-35.39 Z0.25 E20.5059
;
; 'Pillar', 40.8 [RPM], 3.5 [mm/s]
G1 F7800
G1 X-3.57 Y-46 E20.5059
G1 F210
G1 X-3.57 Y-46 Z0.125 E20.5363
G1 X-3.57 Y-46 Z0.25 E20.5666
;
; 'Pillar', 40.8 [RPM], 3.5 [mm/s]
G1 F7800
G1 X-5.69 Y-48.12 E20.5666
G1 F210
G1 X-5.69 Y-48.12 Z0.125 E20.597
G1 X-5.69 Y-48.12 Z0.25 E20.6273
;
; 'Pillar', 40.8 [RPM], 3.5 [mm/s]
G1 F7800
G1 X-3.57 Y-50.24 E20.6273
G1 F210
G1 X-3.57 Y-50.24 Z0.125 E20.6576
G1 X-3.57 Y-50.24 Z0.25 E20.688
;
; 'Pillar', 40.8 [RPM], 3.5 [mm/s]
G1 F7800
G1 X-5.69 Y-52.36 E20.688
G1 F210
G1 X-5.69 Y-52.36 Z0.125 E20.7183
G1 X-5.69 Y-52.36 Z0.25 E20.7486
;
; 'Pillar', 40.8 [RPM], 3.5 [mm/s]
G1 F7800
G1 X-7.82 Y-54.49 E20.7486
G1 F210
G1 X-7.82 Y-54.49 Z0.125 E20.779
G1 X-7.82 Y-54.49 Z0.25 E20.8093
;
; 'Pillar', 40.8 [RPM], 3.5 [mm/s]
G1 F7800
G1 X-9.94 Y-52.36 E20.8093
G1 F210
G1 X-9.94 Y-52.36 Z0.125 E20.8396
G1 X-9.94 Y-52.36 Z0.25 E20.87
;
; 'Pillar', 40.8 [RPM], 3.5 [mm/s]
G1 F7800
G1 X-12.06 Y-54.49 E20.87
G1 F210
G1 X-12.06 Y-54.49 Z0.125 E20.9003
G1 X-12.06 Y-54.49 Z0.25 E20.9306
;
; 'Pillar', 40.8 [RPM], 3.5 [mm/s]
G1 F7800
G1 X-9.94 Y-56.61 E20.9306
G1 F210
G1 X-9.94 Y-56.61 Z0.125 E20.961
G1 X-9.94 Y-56.61 Z0.25 E20.9913
;
; 'Pillar', 40.8 [RPM], 3.5 [mm/s]
G1 F7800
G1 X-12.06 Y-58.73 E20.9913
G1 F210
G1 X-12.06 Y-58.73 Z0.125 E21.0216
G1 X-12.06 Y-58.73 Z0.25 E21.052
;
; 'Pillar', 40.8 [RPM], 3.5 [mm/s]
G1 F7800
G1 X-14.18 Y-60.85 E21.052
G1 F210
G1 X-14.18 Y-60.85 Z0.125 E21.0823
G1 X-14.18 Y-60.85 Z0.25 E21.1126
;
; 'Pillar', 40.8 [RPM], 3.5 [mm/s]
G1 F7800
G1 X-16.3 Y-62.97 E21.1126
G1 F210
G1 X-16.3 Y-62.97 Z0.125 E21.143
G1 X-16.3 Y-62.97 Z0.25 E21.1733
;
; 'Pillar', 40.8 [RPM], 3.5 [mm/s]
G1 F7800
G1 X-18.42 Y-65.09 E21.1733
G1 F210
G1 X-18.42 Y-65.09 Z0.125 E21.2036
G1 X-18.42 Y-65.09 Z0.25 E21.234
;
; 'Pillar', 40.8 [RPM], 3.5 [mm/s]
G1 F7800
G1 X-16.3 Y-67.21 E21.234
G1 F210
G1 X-16.3 Y-67.21 Z0.125 E21.2643
G1 X-16.3 Y-67.21 Z0.25 E21.2946
;
; 'Pillar', 40.8 [RPM], 3.5 [mm/s]
G1 F7800
G1 X-18.42 Y-69.33 E21.2946
G1 F210
G1 X-18.42 Y-69.33 Z0.125 E21.325
G1 X-18.42 Y-69.33 Z0.25 E21.3553
;
; 'Pillar', 40.8 [RPM], 3.5 [mm/s]
G1 F7800
G1 X-20.54 Y-67.21 E21.3553
G1 F210
G1 X-20.54 Y-67.21 Z0.125 E21.3856
G1 X-20.54 Y-67.21 Z0.25 E21.416
;
; 'Pillar', 40.8 [RPM], 3.5 [mm/s]
G1 F7800
G1 X-22.67 Y-69.33 E21.416
G1 F210
G1 X-22.67 Y-69.33 Z0.125 E21.4463
G1 X-22.67 Y-69.33 Z0.25 E21.4766
;
; 'Pillar', 40.8 [RPM], 3.5 [mm/s]
G1 F7800
G1 X-24.79 Y-71.46 E21.4766
G1 F210
G1 X-24.79 Y-71.46 Z0.125 E21.507
G1 X-24.79 Y-71.46 Z0.25 E21.5373
;
; 'Pillar', 40.8 [RPM], 3.5 [mm/s]
G1 F7800
G1 X-26.91 Y-73.58 E21.5373
G1 F210
G1 X-26.91 Y-73.58 Z0.125 E21.5676
G1 X-26.91 Y-73.58 Z0.25 E21.598
;
; 'Pillar', 40.8 [RPM], 3.5 [mm/s]
G1 F7800
G1 X-29.03 Y-75.7 E21.598
G1 F210
G1 X-29.03 Y-75.7 Z0.125 E21.6283
G1 X-29.03 Y-75.7 Z0.25 E21.6586
;
; 'Pillar', 40.8 [RPM], 3.5 [mm/s]
G1 F7800
G1 X-26.91 Y-77.82 E21.6586
G1 F210
G1 X-26.91 Y-77.82 Z0.125 E21.689
G1 X-26.91 Y-77.82 Z0.25 E21.7193
;
; 'Pillar', 40.8 [RPM], 3.5 [mm/s]
G1 F7800
G1 X-24.79 Y-79.94 E21.7193
G1 F210
G1 X-24.79 Y-79.94 Z0.125 E21.7497
G1 X-24.79 Y-79.94 Z0.25 E21.78
;
; 'Pillar', 40.8 [RPM], 3.5 [mm/s]
G1 F7800
G1 X-26.91 Y-82.06 E21.78
G1 F210
G1 X-26.91 Y-82.06 Z0.125 E21.8103
G1 X-26.91 Y-82.06 Z0.25 E21.8407
;
; 'Pillar', 40.8 [RPM], 3.5 [mm/s]
G1 F7800
G1 X-29.03 Y-79.94 E21.8407
G1 F210
G1 X-29.03 Y-79.94 Z0.125 E21.871
G1 X-29.03 Y-79.94 Z0.25 E21.9013
;
; 'Pillar', 40.8 [RPM], 3.5 [mm/s]
G1 F7800
G1 X-31.15 Y-77.82 E21.9013
G1 F210
G1 X-31.15 Y-77.82 Z0.125 E21.9317
G1 X-31.15 Y-77.82 Z0.25 E21.962
;
; 'Pillar', 40.8 [RPM], 3.5 [mm/s]
G1 F7800
G1 X-33.27 Y-79.94 E21.962
G1 F210
G1 X-33.27 Y-79.94 Z0.125 E21.9923
G1 X-33.27 Y-79.94 Z0.25 E22.0227
;
; 'Pillar', 40.8 [RPM], 3.5 [mm/s]
G1 F7800
G1 X-31.15 Y-82.06 E22.0227
G1 F210
G1 X-31.15 Y-82.06 Z0.125 E22.053
G1 X-31.15 Y-82.06 Z0.25 E22.0833
;
; 'Pillar', 40.8 [RPM], 3.5 [mm/s]
G1 F7800
G1 X-33.27 Y-84.18 E22.0833
G1 F210
G1 X-33.27 Y-84.18 Z0.125 E22.1137
G1 X-33.27 Y-84.18 Z0.25 E22.144
;
; 'Pillar', 40.8 [RPM], 3.5 [mm/s]
G1 F7800
G1 X-35.39 Y-86.31 E22.144
G1 F210
G1 X-35.39 Y-86.31 Z0.125 E22.1743
G1 X-35.39 Y-86.31 Z0.25 E22.2047
;
; 'Pillar', 40.8 [RPM], 3.5 [mm/s]
G1 F7800
G1 X-37.51 Y-84.18 E22.2047
G1 F210
G1 X-37.51 Y-84.18 Z0.125 E22.235
G1 X-37.51 Y-84.18 Z0.25 E22.2653
;
; 'Pillar', 40.8 [RPM], 3.5 [mm/s]
G1 F7800
G1 X-35.39 Y-82.06 E22.2653
G1 F210
G1 X-35.39 Y-82.06 Z0.125 E22.2957
G1 X-35.39 Y-82.06 Z0.25 E22.326
;
; 'Pillar', 40.8 [RPM], 3.5 [mm/s]
G1 F7800
G1 X-29.03 Y-84.18 E22.326
G1 F210
G1 X-29.03 Y-84.18 Z0.125 E22.3563
G1 X-29.03 Y-84.18 Z0.25 E22.3867
;
; 'Pillar', 40.8 [RPM], 3.5 [mm/s]
G1 F7800
G1 X-22.67 Y-77.82 E22.3867
G1 F210
G1 X-22.67 Y-77.82 Z0.125 E22.417
G1 X-22.67 Y-77.82 Z0.25 E22.4473
;
; 'Pillar', 40.8 [RPM], 3.5 [mm/s]
G1 F7800
G1 X-20.54 Y-75.7 E22.4473
G1 F210
G1 X-20.54 Y-75.7 Z0.125 E22.4777
G1 X-20.54 Y-75.7 Z0.25 E22.508
;
; 'Pillar', 40.8 [RPM], 3.5 [mm/s]
G1 F7800
G1 X-18.42 Y-73.58 E22.508
G1 F210
G1 X-18.42 Y-73.58 Z0.125 E22.5383
G1 X-18.42 Y-73.58 Z0.25 E22.5687
;
; 'Pillar', 40.8 [RPM], 3.5 [mm/s]
G1 F7800
G1 X-16.3 Y-71.46 E22.5687
G1 F210
G1 X-16.3 Y-71.46 Z0.125 E22.599
G1 X-16.3 Y-71.46 Z0.25 E22.6293
;
; 'Pillar', 40.8 [RPM], 3.5 [mm/s]
G1 F7800
G1 X-14.18 Y-69.33 E22.6293
G1 F210
G1 X-14.18 Y-69.33 Z0.125 E22.6597
G1 X-14.18 Y-69.33 Z0.25 E22.69
;
; 'Pillar', 40.8 [RPM], 3.5 [mm/s]
G1 F7800
G1 X-12.06 Y-67.21 E22.69
G1 F210
G1 X-12.06 Y-67.21 Z0.125 E22.7203
G1 X-12.06 Y-67.21 Z0.25 E22.7507
;
; 'Pillar', 40.8 [RPM], 3.5 [mm/s]
G1 F7800
G1 X-9.94 Y-65.09 E22.7507
G1 F210
G1 X-9.94 Y-65.09 Z0.125 E22.781
G1 X-9.94 Y-65.09 Z0.25 E22.8113
;
; 'Pillar', 40.8 [RPM], 3.5 [mm/s]
G1 F7800
G1 X-7.82 Y-62.97 E22.8113
G1 F210
G1 X-7.82 Y-62.97 Z0.125 E22.8417
G1 X-7.82 Y-62.97 Z0.25 E22.872
;
; 'Pillar', 40.8 [RPM], 3.5 [mm/s]
G1 F7800
G1 X-7.82 Y-58.73 E22.872
G1 F210
G1 X-7.82 Y-58.73 Z0.125 E22.9024
G1 X-7.82 Y-58.73 Z0.25 E22.9327
;
; 'Pillar', 40.8 [RPM], 3.5 [mm/s]
G1 F7800
G1 X-5.69 Y-56.61 E22.9327
G1 F210
G1 X-5.69 Y-56.61 Z0.125 E22.963
G1 X-5.69 Y-56.61 Z0.25 E22.9934
;
; 'Pillar', 40.8 [RPM], 3.5 [mm/s]
G1 F7800
G1 X-7.82 Y-50.24 E22.9934
G1 F210
G1 X-7.82 Y-50.24 Z0.125 E23.0237
G1 X-7.82 Y-50.24 Z0.25 E23.054
;
; 'Pillar', 40.8 [RPM], 3.5 [mm/s]
G1 F7800
G1 X-9.94 Y-60.85 E23.054
G1 F210
G1 X-9.94 Y-60.85 Z0.125 E23.0844
G1 X-9.94 Y-60.85 Z0.25 E23.1147
;
; 'Pillar', 40.8 [RPM], 3.5 [mm/s]
G1 F7800
G1 X-12.06 Y-62.97 E23.1147
G1 F210
G1 X-12.06 Y-62.97 Z0.125 E23.145
G1 X-12.06 Y-62.97 Z0.25 E23.1754
;
; 'Pillar', 40.8 [RPM], 3.5 [mm/s]
G1 F7800
G1 X-14.18 Y-65.09 E23.1754
G1 F210
G1 X-14.18 Y-65.09 Z0.125 E23.2057
G1 X-14.18 Y-65.09 Z0.25 E23.236
;
; 'Pillar', 40.8 [RPM], 3.5 [mm/s]
G1 F7800
G1 X-20.54 Y-71.46 E23.236
G1 F210
G1 X-20.54 Y-71.46 Z0.125 E23.2664
G1 X-20.54 Y-71.46 Z0.25 E23.2967
;
; 'Pillar', 40.8 [RPM], 3.5 [mm/s]
G1 F7800
G1 X-22.67 Y-73.58 E23.2967
G1 F210
G1 X-22.67 Y-73.58 Z0.125 E23.327
G1 X-22.67 Y-73.58 Z0.25 E23.3574
;
; 'Pillar', 40.8 [RPM], 3.5 [mm/s]
G1 F7800
G1 X-24.79 Y-75.7 E23.3574
G1 F210
G1 X-24.79 Y-75.7 Z0.125 E23.3877
G1 X-24.79 Y-75.7 Z0.25 E23.418
;
; 'Pillar', 40.8 [RPM], 3.5 [mm/s]
G1 F7800
G1 X-33.27 Y-67.21 E23.418
G1 F210
G1 X-33.27 Y-67.21 Z0.125 E23.4484
G1 X-33.27 Y-67.21 Z0.25 E23.4787
;
; 'Pillar', 40.8 [RPM], 3.5 [mm/s]
G1 F7800
G1 X-31.15 Y-65.09 E23.4787
G1 F210
G1 X-31.15 Y-65.09 Z0.125 E23.509
G1 X-31.15 Y-65.09 Z0.25 E23.5394
;
; 'Pillar', 40.8 [RPM], 3.5 [mm/s]
G1 F7800
G1 X-29.03 Y-62.97 E23.5394
G1 F210
G1 X-29.03 Y-62.97 Z0.125 E23.5697
G1 X-29.03 Y-62.97 Z0.25 E23.6
;
; 'Pillar', 40.8 [RPM], 3.5 [mm/s]
G1 F7800
G1 X-26.91 Y-60.85 E23.6
G1 F210
G1 X-26.91 Y-60.85 Z0.125 E23.6304
G1 X-26.91 Y-60.85 Z0.25 E23.6607
;
; 'Pillar', 40.8 [RPM], 3.5 [mm/s]
G1 F7800
G1 X-24.79 Y-58.73 E23.6607
G1 F210
G1 X-24.79 Y-58.73 Z0.125 E23.691
G1 X-24.79 Y-58.73 Z0.25 E23.7214
;
; 'Pillar', 40.8 [RPM], 3.5 [mm/s]
G1 F7800
G1 X-29.03 Y-58.73 E23.7214
G1 F210
G1 X-29.03 Y-58.73 Z0.125 E23.7517
G1 X-29.03 Y-58.73 Z0.25 E23.782
;
; 'Pillar', 40.8 [RPM], 3.5 [mm/s]
G1 F7800
G1 X-31.15 Y-60.85 E23.782
G1 F210
G1 X-31.15 Y-60.85 Z0.125 E23.8124
G1 X-31.15 Y-60.85 Z0.25 E23.8427
;
; 'Pillar', 40.8 [RPM], 3.5 [mm/s]
G1 F7800
G1 X-33.27 Y-62.97 E23.8427
G1 F210
G1 X-33.27 Y-62.97 Z0.125 E23.873
G1 X-33.27 Y-62.97 Z0.25 E23.9034
;
; 'Pillar', 40.8 [RPM], 3.5 [mm/s]
G1 F7800
G1 X-84.18 Y-62.97 E23.9034
G1 F210
G1 X-84.18 Y-62.97 Z0.125 E23.9337
G1 X-84.18 Y-62.97 Z0.25 E23.9641
;
; 'Pillar', 40.8 [RPM], 3.5 [mm/s]
G1 F7800
G1 X-29.03 Y-24.79 E23.9641
G1 F210
G1 X-29.03 Y-24.79 Z0.125 E23.9944
G1 X-29.03 Y-24.79 Z0.25 E24.0247
;
; 'Pillar', 40.8 [RPM], 3.5 [mm/s]
G1 F7800
G1 X-26.91 Y-22.67 E24.0247
G1 F210
G1 X-26.91 Y-22.67 Z0.125 E24.0551
G1 X-26.91 Y-22.67 Z0.25 E24.0854
;
; 'Pillar', 40.8 [RPM], 3.5 [mm/s]
G1 F7800
G1 X-24.79 Y-20.54 E24.0854
G1 F210
G1 X-24.79 Y-20.54 Z0.125 E24.1157
G1 X-24.79 Y-20.54 Z0.25 E24.1461
;
; 'Pillar', 40.8 [RPM], 3.5 [mm/s]
G1 F7800
G1 X-22.67 Y-18.42 E24.1461
G1 F210
G1 X-22.67 Y-18.42 Z0.125 E24.1764
G1 X-22.67 Y-18.42 Z0.25 E24.2067
;
; 'Pillar', 40.8 [RPM], 3.5 [mm/s]
G1 F7800
G1 X-20.54 Y-16.3 E24.2067
G1 F210
G1 X-20.54 Y-16.3 Z0.125 E24.2371
G1 X-20.54 Y-16.3 Z0.25 E24.2674
;
; 'Pillar', 40.8 [RPM], 3.5 [mm/s]
G1 F7800
G1 X-22.67 Y-14.18 E24.2674
G1 F210
G1 X-22.67 Y-14.18 Z0.125 E24.2977
G1 X-22.67 Y-14.18 Z0.25 E24.3281
;
; 'Pillar', 40.8 [RPM], 3.5 [mm/s]
G1 F7800
G1 X-24.79 Y-16.3 E24.3281
G1 F210
G1 X-24.79 Y-16.3 Z0.125 E24.3584
G1 X-24.79 Y-16.3 Z0.25 E24.3887
;
; 'Pillar', 40.8 [RPM], 3.5 [mm/s]
G1 F7800
G1 X-26.91 Y-18.42 E24.3887
G1 F210
G1 X-26.91 Y-18.42 Z0.125 E24.4191
G1 X-26.91 Y-18.42 Z0.25 E24.4494
;
; 'Pillar', 40.8 [RPM], 3.5 [mm/s]
G1 F7800
G1 X-29.03 Y-20.54 E24.4494
G1 F210
G1 X-29.03 Y-20.54 Z0.125 E24.4797
G1 X-29.03 Y-20.54 Z0.25 E24.5101
G1 X-29.03 Y-20.54 Z0.75 E24.5101
; END_LAYER_RAFT z=0.25
; Reset extruder pos
G92 E0
; BEGIN_LAYER_RAFT z=0.50
;
; *** Warming Extruder 1 to 206 C ***
M109 S206
G92 E0
;
;
; 'Raft', 55.8 [RPM], 16.7 [mm/s]
G1 F7800
G1 X-88.48 Y-45.95 E0
G1 F210
G1 X-88.48 Y-45.95 Z0.5 E0
G1 F1002.6
G1 X-45.95 Y-88.48 E4.1808
G1 X-41.76 Y-88.43 E4.4724
G1 X-88.43 Y-41.76 E9.0608
G1 X-87.79 Y-38.15 E9.3153
G1 X-72.75 Y-53.19 E10.7937
G1 X-73.53 Y-48.17 E11.1469
G1 X-86.89 Y-34.81 E12.4606
G1 X-85.83 Y-31.63 E12.6938
G1 X-73.53 Y-43.93 E13.9033
G1 X-72.99 Y-40.22 E14.1636
G1 X-84.6 Y-28.62 E15.3045
G1 X-83.11 Y-25.87 E15.5221
G1 X-72.1 Y-36.87 E16.6036
G1 X-70.35 Y-34.38 E16.8152
G1 X-81.41 Y-23.31 E17.9033
G1 X-79.59 Y-20.9 E18.1138
G1 X-66.1 Y-34.38 E19.4395
G1 X-62.69 Y-33.55 E19.6838
G1 X-77.47 Y-18.78 E21.1367
G1 X-75.34 Y-16.66 E21.3453
G1 X-60.5 Y-31.5 E22.8052
G1 X-58.45 Y-29.31 E23.0139
G1 X-73.22 Y-14.53 E24.4668
G1 X-71.1 Y-12.41 E24.6754
G1 X-57.62 Y-25.9 E26.0011
G1 X-57.62 Y-21.65 E26.296
G1 X-68.69 Y-10.59 E27.3841
G1 X-66.13 Y-8.89 E27.5969
G1 X-55.13 Y-19.9 E28.6784
G1 X-51.78 Y-19.01 E28.9197
G1 X-63.38 Y-7.4 E30.0606
G1 X-60.37 Y-6.17 E30.2866
G1 X-48.07 Y-18.47 E31.4961
G1 X-43.83 Y-18.47 E31.7911
G1 X-57.19 Y-5.11 E33.1048
G1 X-53.85 Y-4.21 E33.3456
G1 X-38.58 Y-19.48 E34.8471
;
; 'Raft', 55.8 [RPM], 16.7 [mm/s]
G1 F7800
G1 X-34.38 Y-23.68 E34.8471
G1 F1002.6
G1 X-23.68 Y-34.38 E35.8994
G1 X-28.2 Y-34.1 E36.2147
G1 X-34.1 Y-28.2 E36.7943
;
; 'Raft', 55.8 [RPM], 16.7 [mm/s]
G1 F7800
G1 X-18.47 Y-43.83 E36.7943
G1 F1002.6
G1 X-5.11 Y-57.19 E38.1081
G1 X-6.17 Y-60.37 E38.3413
G1 X-18.47 Y-48.07 E39.5508
G1 X-19.01 Y-51.78 E39.8111
G1 X-7.4 Y-63.38 E40.9519
G1 X-8.89 Y-66.13 E41.1695
G1 X-19.9 Y-55.13 E42.2511
G1 X-21.65 Y-57.62 E42.4627
G1 X-10.59 Y-68.69 E43.5507
G1 X-12.41 Y-71.1 E43.7613
G1 X-25.9 Y-57.62 E45.087
G1 X-29.31 Y-58.45 E45.3313
G1 X-14.53 Y-73.22 E46.7842
G1 X-16.66 Y-75.34 E46.9927
G1 X-31.5 Y-60.5 E48.4527
G1 X-33.55 Y-62.69 E48.6614
G1 X-18.78 Y-77.47 E50.1143
G1 X-20.9 Y-79.59 E50.3228
G1 X-34.38 Y-66.1 E51.6485
G1 X-34.38 Y-70.35 E51.9435
G1 X-23.31 Y-81.41 E53.0315
G1 X-25.87 Y-83.11 E53.2443
G1 X-36.87 Y-72.1 E54.3259
G1 X-40.22 Y-72.99 E54.5672
G1 X-28.62 Y-84.6 E55.7081
G1 X-31.63 Y-85.83 E55.9341
G1 X-43.93 Y-73.53 E57.1436
G1 X-48.17 Y-73.53 E57.4385
G1 X-34.81 Y-86.89 E58.7523
G1 X-38.15 Y-87.79 E58.9931
G1 X-53.42 Y-72.52 E60.4945
;
; 'Raft', 55.8 [RPM], 16.7 [mm/s]
G1 F7800
G1 X-57.62 Y-68.32 E60.4945
G1 F1002.6
G1 X-68.32 Y-57.62 E61.5469
G1 X-63.8 Y-57.9 E61.8621
G1 X-57.9 Y-63.8 E62.4418
;
; 'Raft', 55.8 [RPM], 16.7 [mm/s]
G1 F7800
G1 X-61.79 Y-85.36 E62.4418
G1 F1002.6
G1 X-85.36 Y-61.79 E64.7595
;
; 'Raft', 55.8 [RPM], 16.7 [mm/s]
G1 F7800
G1 X-87.49 Y-55.43 E64.7595
G1 F1002.6
G1 X-55.43 Y-87.49 E67.9115
G1 X-50.24 Y-88.43 E68.2777
G1 X-88.43 Y-50.24 E72.0319
;
; 'Raft', 55.8 [RPM], 16.7 [mm/s]
G1 F7800
G1 X-50.24 Y-3.57 E72.0319
G1 F1002.6
G1 X-3.57 Y-50.24 E76.6203
G1 X-3.52 Y-46.05 E76.9118
G1 X-46.05 Y-3.52 E81.0927
G1 X-41.76 Y-3.57 E81.391
G1 X-3.57 Y-41.76 E85.1452
G1 X-4.51 Y-36.57 E85.5114
G1 X-36.57 Y-4.51 E88.6634
;
; 'Raft', 55.8 [RPM], 16.7 [mm/s]
G1 F7800
G1 X-30.21 Y-6.64 E88.6634
G1 F1002.6
G1 X-6.64 Y-30.21 E90.9811
;
; 'Raft', 55.8 [RPM], 16.7 [mm/s]
G1 F7800
G1 X-19.48 Y-38.58 E90.9811
G1 F1002.6
G1 X-4.21 Y-53.85 E92.4825
G1 F210
G1 X-4.21 Y-53.85 Z1 E92.4825
; END_LAYER_RAFT z=0.50
; Reset extruder pos
G92 E0
; BEGIN_LAYER_RAFT z=0.75
;
; 'Raft', 22.3 [RPM], 16.7 [mm/s]
G1 F7800
G1 X-86.97 Y-45.96 E0
G1 F210
G1 X-86.97 Y-45.96 Z0.75 E0
G1 F1002.6
G1 X-46.04 Y-5.03 E1.6099
G1 X-44.62 Y-5.03 E1.6493
G1 X-86.97 Y-47.38 E3.3148
G1 X-86.97 Y-48.79 E3.3541
G1 X-72.94 Y-34.76 E3.9061
G1 X-73.73 Y-36.96 E3.9711
G1 X-86.92 Y-50.15 E4.49
G1 X-86.62 Y-51.27 E4.5222
G1 X-74.32 Y-38.97 E5.006
G1 X-74.68 Y-40.73 E5.0561
G1 X-86.57 Y-52.63 E5.5238
G1 X-86.27 Y-53.74 E5.556
G1 X-75.03 Y-42.5 E5.9981
G1 X-75.03 Y-43.92 E6.0374
G1 X-86.07 Y-54.95 E6.4714
G1 X-85.71 Y-56.01 E6.5025
G1 X-75.03 Y-45.33 E6.9226
G1 X-75.03 Y-46.74 E6.962
G1 X-85.36 Y-57.07 E7.3682
G1 X-85 Y-58.13 E7.3993
G1 X-75.03 Y-48.16 E7.7916
G1 X-75.03 Y-49.57 E7.8308
G1 X-84.65 Y-59.2 E8.2094
G1 X-84.3 Y-60.26 E8.2404
G1 X-74.73 Y-50.69 E8.6167
G1 X-74.52 Y-51.9 E8.6508
G1 X-83.94 Y-61.32 E9.0212
G1 X-83.45 Y-62.24 E9.0503
G1 X-74.32 Y-53.1 E9.4095
G1 X-74.01 Y-54.22 E9.4415
G1 X-83.02 Y-63.22 E9.7956
G1 X-82.53 Y-64.14 E9.8247
G1 X-73.66 Y-55.28 E10.1735
G1 X-73.31 Y-56.34 E10.2046
G1 X-82.04 Y-65.07 E10.5479
G1 X-81.47 Y-65.91 E10.5762
G1 X-72.9 Y-57.34 E10.9134
G1 X-72.4 Y-58.26 E10.9424
G1 X-80.98 Y-66.83 E11.2796
G1 X-80.29 Y-67.57 E11.3074
G1 X-71.84 Y-59.12 E11.6398
G1 X-70.43 Y-59.12 E11.679
G1 X-79.84 Y-68.52 E12.0489
G1 X-79.23 Y-69.33 E12.077
G1 X-69.02 Y-59.12 E12.4787
G1 X-67.6 Y-59.12 E12.5181
G1 X-78.53 Y-70.04 E12.9476
G1 X-77.82 Y-70.75 E12.9754
G1 X-66.19 Y-59.12 E13.4328
G1 X-64.83 Y-59.17 E13.4706
G1 X-77.11 Y-71.46 E13.9536
G1 X-76.41 Y-72.16 E13.9814
G1 X-63.78 Y-59.54 E14.4779
G1 X-62.97 Y-60.14 E14.506
G1 X-75.7 Y-72.87 E15.0066
G1 X-74.99 Y-73.58 E15.0344
G1 X-62.26 Y-60.85 E15.5349
G1 X-61.56 Y-61.56 E15.5627
G1 X-74.28 Y-74.28 E16.0633
G1 X-73.58 Y-74.99 E16.0911
G1 X-60.85 Y-62.26 E16.5917
G1 X-60.14 Y-62.97 E16.6195
G1 X-72.87 Y-75.7 E17.12
G1 X-72.16 Y-76.41 E17.1478
G1 X-59.54 Y-63.78 E17.6443
G1 X-59.17 Y-64.83 E17.6752
G1 X-71.46 Y-77.11 E18.1582
G1 X-70.75 Y-77.82 E18.186
G1 X-59.12 Y-66.19 E18.6434
G1 X-59.12 Y-67.6 E18.6827
G1 X-70.04 Y-78.53 E19.1123
G1 X-69.33 Y-79.23 E19.1401
G1 X-59.12 Y-69.02 E19.5418
G1 X-59.12 Y-70.43 E19.5811
G1 X-68.52 Y-79.84 E19.951
G1 X-67.57 Y-80.29 E19.9805
G1 X-59.12 Y-71.84 E20.3129
G1 X-58.26 Y-72.4 E20.3413
G1 X-66.83 Y-80.98 E20.6784
G1 X-65.91 Y-81.47 E20.7075
G1 X-57.34 Y-72.9 E21.0447
G1 X-56.34 Y-73.31 E21.0748
G1 X-65.07 Y-82.04 E21.4181
G1 X-64.14 Y-82.53 E21.4472
G1 X-55.28 Y-73.66 E21.7959
G1 X-54.17 Y-73.96 E21.8279
G1 X-63.22 Y-83.02 E22.1841
G1 X-62.24 Y-83.45 E22.2139
G1 X-52.96 Y-74.17 E22.5789
G1 X-51.9 Y-74.52 E22.61
G1 X-61.32 Y-83.94 E22.9804
G1 X-60.26 Y-84.3 E23.0115
G1 X-50.69 Y-74.73 E23.3878
G1 X-49.57 Y-75.03 E23.42
G1 X-59.2 Y-84.65 E23.7985
G1 X-58.13 Y-85 E23.8296
G1 X-48.16 Y-75.03 E24.2219
G1 X-46.74 Y-75.03 E24.2612
G1 X-57.07 Y-85.36 E24.6674
G1 X-56.01 Y-85.71 E24.6985
G1 X-45.33 Y-75.03 E25.1187
G1 X-43.92 Y-75.03 E25.158
G1 X-54.95 Y-86.07 E25.592
G1 X-53.74 Y-86.27 E25.6261
G1 X-42.26 Y-74.79 E26.0778
G1 X-40.73 Y-74.68 E26.1203
G1 X-52.63 Y-86.57 E26.5879
G1 X-51.27 Y-86.62 E26.6256
G1 X-38.72 Y-74.08 E27.119
G1 X-36.96 Y-73.73 E27.1692
G1 X-50.15 Y-86.92 E27.6881
G1 X-48.79 Y-86.97 E27.7259
G1 X-20.94 Y-59.12 E28.8214
G1 X-22.35 Y-59.12 E28.8607
G1 X-32.88 Y-69.65 E29.2749
G1 X-32.88 Y-68.24 E29.3142
G1 X-23.76 Y-59.12 E29.6727
G1 X-25.18 Y-59.12 E29.7121
G1 X-32.88 Y-66.82 E30.015
G1 X-32.88 Y-65.41 E30.0543
G1 X-26.59 Y-59.12 E30.3016
G1 X-29.03 Y-60.14 E30.3751
G1 X-31.86 Y-62.97 E30.4864
;
; 'Raft', 22.3 [RPM], 16.7 [mm/s]
G1 F7800
G1 X-19.34 Y-57.52 E30.4864
G1 F1002.6
G1 X-5.03 Y-43.21 E31.0491
G1 X-5.03 Y-44.62 E31.0885
G1 X-47.38 Y-86.97 E32.754
G1 X-45.96 Y-86.97 E32.7933
G1 X-5.03 Y-46.04 E34.4033
G1 X-5.03 Y-47.45 E34.4426
G1 X-44.55 Y-86.97 E35.9969
G1 X-43.13 Y-86.97 E36.0362
G1 X-5.03 Y-48.87 E37.5349
G1 X-5.14 Y-50.39 E37.5774
G1 X-41.61 Y-86.86 E39.0118
G1 X-39.95 Y-86.62 E39.0584
G1 X-5.38 Y-52.05 E40.418
G1 X-5.73 Y-53.82 E40.4682
G1 X-38.18 Y-86.27 E41.7444
G1 X-36.31 Y-85.8 E41.7982
G1 X-6.2 Y-55.69 E42.9823
G1 X-6.9 Y-57.82 E43.0445
G1 X-34.18 Y-85.1 E44.1173
G1 X-32.06 Y-84.39 E44.1795
G1 X-7.61 Y-59.94 E45.1411
G1 X-8.59 Y-62.33 E45.2131
G1 X-29.67 Y-83.41 E46.0419
;
; 'Raft', 22.3 [RPM], 16.7 [mm/s]
G1 F7800
G1 X-26.55 Y-81.71 E46.0419
G1 F1002.6
G1 X-10.29 Y-65.45 E46.6815
;
; 'Raft', 22.3 [RPM], 16.7 [mm/s]
G1 F7800
G1 X-12.77 Y-69.33 E46.6815
G1 F1002.6
G1 X-22.67 Y-79.23 E47.0708
;
; 'Raft', 22.3 [RPM], 16.7 [mm/s]
G1 F7800
G1 X-18.27 Y-55.04 E47.0708
G1 F1002.6
G1 X-5.08 Y-41.85 E47.5897
G1 X-5.38 Y-40.73 E47.6219
G1 X-17.92 Y-53.28 E48.1153
G1 X-17.32 Y-51.27 E48.1736
G1 X-5.43 Y-39.37 E48.6413
G1 X-5.73 Y-38.26 E48.6735
G1 X-17.21 Y-49.74 E49.1251
G1 X-16.97 Y-48.08 E49.1717
G1 X-5.93 Y-37.05 E49.6057
G1 X-6.29 Y-35.99 E49.6368
G1 X-16.97 Y-46.67 E50.0569
G1 X-16.97 Y-45.26 E50.0963
G1 X-6.64 Y-34.93 E50.5025
G1 X-7 Y-33.87 E50.5336
G1 X-16.97 Y-43.84 E50.9259
G1 X-17.12 Y-42.58 E50.9612
G1 X-7.35 Y-32.8 E51.3456
G1 X-7.7 Y-31.74 E51.3767
G1 X-17.32 Y-41.37 E51.7551
G1 X-17.48 Y-40.1 E51.7905
G1 X-8.06 Y-30.68 E52.1609
G1 X-8.55 Y-29.76 E52.19
G1 X-17.83 Y-39.04 E52.555
G1 X-18.04 Y-37.83 E52.589
G1 X-8.98 Y-28.78 E52.9451
G1 X-9.47 Y-27.86 E52.9742
G1 X-18.34 Y-36.72 E53.323
G1 X-18.75 Y-35.72 E53.3531
G1 X-9.96 Y-26.93 E53.6987
G1 X-10.53 Y-26.09 E53.7271
G1 X-19.24 Y-34.8 E54.0697
G1 X-19.6 Y-33.74 E54.1008
G1 X-11.02 Y-25.17 E54.438
G1 X-11.71 Y-24.43 E54.4658
G1 X-20.16 Y-32.88 E54.7982
G1 X-21.57 Y-32.88 E54.8374
G1 X-12.16 Y-23.48 E55.2073
G1 X-12.77 Y-22.67 E55.2354
G1 X-22.98 Y-32.88 E55.6371
G1 X-24.4 Y-32.88 E55.6764
G1 X-13.47 Y-21.96 E56.106
G1 X-14.18 Y-21.25 E56.1338
G1 X-25.81 Y-32.88 E56.5911
G1 X-27.17 Y-32.83 E56.629
G1 X-14.89 Y-20.54 E57.112
G1 X-15.59 Y-19.84 E57.1398
G1 X-28.22 Y-32.46 E57.6363
G1 X-29.03 Y-31.86 E57.6644
G1 X-16.3 Y-19.13 E58.1649
G1 X-17.01 Y-18.42 E58.1927
G1 X-29.74 Y-31.15 E58.6933
G1 X-30.44 Y-30.44 E58.7211
G1 X-17.72 Y-17.72 E59.2217
G1 X-18.42 Y-17.01 E59.2495
G1 X-31.15 Y-29.74 E59.75
G1 X-31.86 Y-29.03 E59.7778
G1 X-19.13 Y-16.3 E60.2784
G1 X-19.84 Y-15.59 E60.3062
G1 X-32.46 Y-28.22 E60.8027
G1 X-32.83 Y-27.17 E60.8336
G1 X-20.54 Y-14.89 E61.3166
G1 X-21.25 Y-14.18 E61.3444
G1 X-32.88 Y-25.81 E61.8017
G1 X-32.88 Y-24.4 E61.8411
G1 X-21.96 Y-13.47 E62.2706
G1 X-22.67 Y-12.77 E62.2984
G1 X-32.88 Y-22.98 E62.7002
G1 X-32.88 Y-21.57 E62.7395
G1 X-23.48 Y-12.16 E63.1094
G1 X-24.43 Y-11.71 E63.1388
G1 X-32.88 Y-20.16 E63.4712
G1 X-33.74 Y-19.6 E63.4996
G1 X-25.17 Y-11.02 E63.8368
G1 X-26.09 Y-10.53 E63.8659
G1 X-34.8 Y-19.24 E64.2085
G1 X-35.72 Y-18.75 E64.2376
G1 X-26.93 Y-9.96 E64.5832
G1 X-27.86 Y-9.47 E64.6122
G1 X-36.72 Y-18.34 E64.961
G1 X-37.83 Y-18.04 E64.993
G1 X-28.78 Y-8.98 E65.3491
G1 X-29.76 Y-8.55 E65.379
G1 X-39.04 Y-17.83 E65.7439
G1 X-40.1 Y-17.48 E65.775
G1 X-30.68 Y-8.06 E66.1455
G1 X-31.74 Y-7.7 E66.1766
G1 X-41.37 Y-17.32 E66.555
G1 X-42.58 Y-17.12 E66.5892
G1 X-32.8 Y-7.35 E66.9735
G1 X-33.87 Y-7 E67.0046
G1 X-43.84 Y-16.97 E67.3969
G1 X-45.26 Y-16.97 E67.4362
G1 X-34.93 Y-6.64 E67.8425
G1 X-35.99 Y-6.29 E67.8735
G1 X-46.67 Y-16.97 E68.2937
G1 X-48.08 Y-16.97 E68.333
G1 X-37.05 Y-5.93 E68.767
G1 X-38.26 Y-5.73 E68.8011
G1 X-49.5 Y-16.97 E69.2432
G1 X-51.27 Y-17.32 E69.2934
G1 X-39.37 Y-5.43 E69.761
G1 X-40.73 Y-5.38 E69.7987
G1 X-53.28 Y-17.92 E70.2921
G1 X-55.04 Y-18.27 E70.3422
G1 X-41.85 Y-5.08 E70.8611
G1 X-43.21 Y-5.03 E70.899
G1 X-71.06 Y-32.88 E71.9944
G1 X-69.65 Y-32.88 E72.0338
G1 X-59.12 Y-22.35 E72.4479
G1 X-59.12 Y-23.76 E72.4873
G1 X-68.24 Y-32.88 E72.8458
G1 X-66.82 Y-32.88 E72.8851
G1 X-59.12 Y-25.18 E73.1881
G1 X-59.12 Y-26.59 E73.2274
G1 X-65.41 Y-32.88 E73.4747
G1 X-62.97 Y-31.86 E73.5482
G1 X-60.14 Y-29.03 E73.6594
;
; 'Raft', 22.3 [RPM], 16.7 [mm/s]
G1 F7800
G1 X-69.33 Y-12.77 E73.6594
G1 F1002.6
G1 X-79.23 Y-22.67 E74.0488
;
; 'Raft', 22.3 [RPM], 16.7 [mm/s]
G1 F7800
G1 X-81.71 Y-26.55 E74.0488
G1 F1002.6
G1 X-65.45 Y-10.29 E74.6884
;
; 'Raft', 22.3 [RPM], 16.7 [mm/s]
G1 F7800
G1 X-62.33 Y-8.59 E74.6884
G1 F1002.6
G1 X-83.41 Y-29.67 E75.5172
G1 X-84.39 Y-32.06 E75.5892
G1 X-59.94 Y-7.61 E76.5508
G1 X-57.82 Y-6.9 E76.613
G1 X-85.1 Y-34.18 E77.6858
G1 X-85.8 Y-36.31 E77.748
G1 X-55.69 Y-6.2 E78.9321
G1 X-53.82 Y-5.73 E78.9859
G1 X-86.27 Y-38.18 E80.2621
G1 X-86.62 Y-39.95 E80.3123
G1 X-52.05 Y-5.38 E81.6719
G1 X-50.39 Y-5.14 E81.7185
G1 X-86.86 Y-41.61 E83.1528
G1 X-86.97 Y-43.13 E83.1954
G1 X-48.87 Y-5.03 E84.6941
G1 X-47.45 Y-5.03 E84.7334
G1 X-86.97 Y-44.55 E86.2877
G1 F210
G1 X-86.97 Y-44.55 Z1.25 E86.2877
; END_LAYER_RAFT z=0.75
; Reset extruder pos
G92 E0
; BEGIN_LAYER_OBJECT z=1.00
;
; 'Support Interface', 27.8 [RPM], 25.0 [mm/s]
G1 F7800
G1 X-84.44 Y-45.75 E0
G1 F210
G1 X-84.44 Y-45.75 Z1 E0
G1 F1500
G1 X-80.1 Y-50.08 E0.142
G1 X-80.26 Y-48.51 E0.1786
G1 X-84.44 Y-44.33 E0.3155
G1 X-84.44 Y-42.92 E0.3483
G1 X-80.33 Y-47.02 E0.4827
G1 X-80.35 Y-45.6 E0.5157
G1 X-84.18 Y-41.76 E0.6415
G1 X-84.11 Y-41.33 E0.6516
G1 X-84.08 Y-40.44 E0.6721
G1 X-80.3 Y-44.23 E0.796
G1 X-80.21 Y-42.91 E0.8266
G1 X-83.83 Y-39.28 E0.9454
G1 X-83.76 Y-38.85 E0.9555
G1 X-83.73 Y-37.97 E0.976
G1 X-80.07 Y-41.63 E1.0959
G1 X-79.88 Y-40.4 E1.1247
G1 X-83.38 Y-36.91 E1.2392
G1 X-83.2 Y-36.58 E1.2477
G1 X-83.08 Y-36.21 E1.2568
G1 X-83.02 Y-35.85 E1.2653
G1 X-79.66 Y-39.21 E1.3756
G1 X-79.41 Y-38.04 E1.4033
G1 X-82.67 Y-34.79 E1.5099
G1 X-82.49 Y-34.46 E1.5185
G1 X-82.38 Y-34.09 E1.5276
G1 X-82.31 Y-33.73 E1.5361
G1 X-79.12 Y-36.92 E1.6408
G1 X-78.79 Y-35.83 E1.6671
G1 X-81.96 Y-32.67 E1.7709
G1 X-81.79 Y-32.34 E1.7795
G1 X-81.67 Y-31.97 E1.7885
G1 X-81.61 Y-31.61 E1.7971
G1 X-78.45 Y-34.77 E1.9006
G1 X-78.06 Y-33.74 E1.926
G1 X-81 Y-30.8 E2.0225
G1 X-80.94 Y-30.43 E2.031
G1 X-80.83 Y-30.06 E2.0401
G1 X-80.65 Y-29.74 E2.0487
G1 X-77.66 Y-32.73 E2.1467
G1 X-77.23 Y-31.74 E2.1716
G1 X-80.19 Y-28.78 E2.2687
G1 X-80.04 Y-28.49 E2.2764
G1 X-79.82 Y-28.2 E2.2846
G1 X-79.59 Y-27.97 E2.2923
G1 X-76.78 Y-30.78 E2.3843
G1 X-76.29 Y-29.86 E2.4085
G1 X-79.13 Y-27.01 E2.5018
G1 X-78.98 Y-26.72 E2.5095
G1 X-78.76 Y-26.44 E2.5177
G1 X-78.53 Y-26.2 E2.5254
G1 X-75.8 Y-28.93 E2.6147
G1 X-75.26 Y-28.05 E2.6385
G1 X-77.82 Y-25.49 E2.7224
G1 X-77.76 Y-25.13 E2.7309
G1 X-77.65 Y-24.76 E2.7399
G1 X-77.47 Y-24.43 E2.7485
G1 X-74.72 Y-27.18 E2.8387
G1 X-74.15 Y-26.34 E2.8623
G1 X-76.76 Y-23.73 E2.9479
G1 X-76.05 Y-23.02 E2.971
G1 X-73.56 Y-25.51 E3.0528
G1 X-72.95 Y-24.71 E3.0762
G1 X-75.34 Y-22.31 E3.1547
G1 X-74.64 Y-21.6 E3.1779
G1 X-72.32 Y-23.93 E3.254
G1 X-71.66 Y-23.17 E3.2773
G1 X-73.93 Y-20.9 E3.3516
G1 X-73.22 Y-20.19 E3.3748
G1 X-70.99 Y-22.43 E3.4482
G1 X-70.29 Y-21.71 E3.4713
G1 X-72.52 Y-19.48 E3.5444
G1 X-71.81 Y-18.78 E3.5675
G1 X-69.57 Y-21.02 E3.641
G1 X-68.83 Y-20.34 E3.6642
G1 X-71.1 Y-18.07 E3.7386
G1 X-70.4 Y-17.36 E3.7618
G1 X-68.07 Y-19.69 E3.8379
G1 X-67.29 Y-19.05 E3.8612
G1 X-69.69 Y-16.66 E3.9397
G1 X-68.98 Y-15.95 E3.9628
G1 X-66.5 Y-18.43 E4.0443
G1 X-65.67 Y-17.84 E4.0678
G1 X-68.27 Y-15.24 E4.1531
G1 X-67.57 Y-14.53 E4.1763
G1 X-64.83 Y-17.27 E4.266
G1 X-63.96 Y-16.73 E4.2898
G1 X-66.51 Y-14.18 E4.3732
G1 X-65.8 Y-13.47 E4.3964
G1 X-63.07 Y-16.2 E4.4858
G1 X-62.16 Y-15.69 E4.5099
G1 X-64.99 Y-12.87 E4.6025
G1 X-64.66 Y-12.81 E4.6104
G1 X-64.28 Y-12.65 E4.6199
G1 X-64.03 Y-12.41 E4.6279
G1 X-61.23 Y-15.21 E4.7197
G1 X-60.27 Y-14.76 E4.7443
G1 X-63.22 Y-11.81 E4.841
G1 X-62.89 Y-11.75 E4.8489
G1 X-62.51 Y-11.59 E4.8584
G1 X-62.26 Y-11.35 E4.8663
G1 X-59.29 Y-14.33 E4.9639
G1 X-58.28 Y-13.92 E4.9891
G1 X-61.2 Y-11 E5.0849
G1 X-60.97 Y-10.76 E5.0926
G1 X-60.69 Y-10.55 E5.1008
G1 X-60.39 Y-10.39 E5.1085
G1 X-57.24 Y-13.54 E5.2118
G1 X-56.18 Y-13.2 E5.2378
G1 X-59.33 Y-10.04 E5.3413
G1 X-58.97 Y-9.98 E5.3498
G1 X-58.6 Y-9.86 E5.3589
G1 X-58.27 Y-9.69 E5.3674
G1 X-55.08 Y-12.88 E5.472
G1 X-53.96 Y-12.59 E5.4989
G1 X-57.21 Y-9.33 E5.6057
G1 X-56.85 Y-9.27 E5.6142
G1 X-56.48 Y-9.15 E5.6233
G1 X-56.15 Y-8.98 E5.6318
G1 X-52.8 Y-12.33 E5.7418
G1 X-51.6 Y-12.11 E5.7699
G1 X-55.09 Y-8.62 E5.8843
G1 X-54.73 Y-8.56 E5.8928
G1 X-54.36 Y-8.44 E5.9019
G1 X-54.03 Y-8.27 E5.9104
G1 X-50.37 Y-11.93 E6.0304
G1 X-49.09 Y-11.79 E6.0601
G1 X-52.72 Y-8.17 E6.1789
G1 X-52.38 Y-7.98 E6.1879
G1 X-51.94 Y-7.9 E6.1982
G1 X-51.56 Y-7.92 E6.2072
G1 X-47.78 Y-11.7 E6.331
G1 X-46.4 Y-11.66 E6.3629
G1 X-50.24 Y-7.82 E6.4887
G1 X-49.91 Y-7.62 E6.4977
G1 X-49.47 Y-7.55 E6.508
G1 X-49.08 Y-7.56 E6.517
G1 X-44.97 Y-11.67 E6.6516
G1 X-43.48 Y-11.75 E6.6862
G1 X-47.67 Y-7.56 E6.8233
G1 X-46.25 Y-7.56 E6.8561
G1 X-41.92 Y-11.9 E6.9981
G1 X-40.26 Y-12.14 E7.0369
G1 X-44.84 Y-7.56 E7.1869
G1 X-43.42 Y-7.56 E7.2196
G1 X-38.5 Y-12.49 E7.3809
G1 X-37.55 Y-12.71 E7.4036
G1 X-36.6 Y-12.97 E7.4263
G1 X-41.76 Y-7.81 E7.5952
G1 X-41 Y-7.92 E7.613
G1 X-40.24 Y-7.92 E7.6306
G1 X-34.53 Y-13.63 E7.8177
G1 X-33.35 Y-14.07 E7.8469
G1 X-32.19 Y-14.56 E7.8761
G1 X-38.47 Y-8.27 E8.0821
G1 X-38.01 Y-8.27 E8.0928
G1 X-37.64 Y-8.45 E8.1025
G1 X-36.82 Y-8.67 E8.1221
G1 X-36.46 Y-8.88 E8.1318
G1 X-29.39 Y-15.94 E8.3632
;
; 'Support Interface', 27.8 [RPM], 25.0 [mm/s]
G1 F7800
G1 X-26.56 Y-13.12 E8.3632
G1 F1500
G1 X-13.12 Y-26.56 E8.8036
G1 X-12.89 Y-26.95 E8.8141
G1 X-12.81 Y-27.37 E8.8241
G1 X-12.55 Y-27.83 E8.8362
G1 X-12.23 Y-28.15 E8.8466
G1 X-11.95 Y-28.51 E8.8574
G1 X-11.78 Y-28.94 E8.868
G1 X-11.67 Y-29.42 E8.8794
G1 X-11.35 Y-29.74 E8.8898
G1 X-29.74 Y-11.35 E9.4924
G1 X-30.13 Y-11.13 E9.5028
G1 X-30.57 Y-11.04 E9.5133
G1 X-30.98 Y-10.82 E9.5239
G1 X-31.34 Y-10.53 E9.5346
G1 X-31.78 Y-10.36 E9.5457
G1 X-32.21 Y-10.29 E9.5558
G1 X-10.29 Y-32.21 E10.2743
G1 X-10.07 Y-32.6 E10.2846
G1 X-9.97 Y-33.06 E10.2954
G1 X-9.66 Y-33.9 E10.3162
G1 X-9.58 Y-34.33 E10.3265
G1 X-18.53 Y-25.38 E10.6198
G1 X-17.43 Y-26.94 E10.664
G1 X-16.66 Y-28.15 E10.6973
G1 X-15.94 Y-29.39 E10.7304
G1 X-8.88 Y-36.46 E10.962
G1 X-8.67 Y-36.82 E10.9717
G1 X-8.45 Y-37.64 E10.9913
G1 X-8.27 Y-38.01 E11.001
G1 X-8.27 Y-38.47 E11.0117
G1 X-14.55 Y-32.19 E11.2176
G1 X-14.07 Y-33.35 E11.2467
G1 X-13.63 Y-34.53 E11.2758
G1 X-7.92 Y-40.24 E11.463
G1 X-7.92 Y-41 E11.4806
G1 X-7.81 Y-41.76 E11.4983
G1 X-12.97 Y-36.6 E11.6672
G1 X-12.71 Y-37.55 E11.6899
G1 X-12.49 Y-38.5 E11.7125
G1 X-7.56 Y-43.42 E11.8739
G1 X-7.56 Y-44.84 E11.9067
G1 X-12.14 Y-40.26 E12.0566
G1 X-11.9 Y-41.91 E12.0953
G1 X-7.56 Y-46.25 E12.2375
G1 X-7.56 Y-47.67 E12.2703
G1 X-11.75 Y-43.48 E12.4074
G1 X-11.67 Y-44.97 E12.442
G1 X-7.56 Y-49.08 E12.5766
G1 X-7.55 Y-49.47 E12.5855
G1 X-7.62 Y-49.91 E12.5958
G1 X-7.82 Y-50.24 E12.6048
G1 X-11.66 Y-46.4 E12.7308
G1 X-11.7 Y-47.77 E12.7626
G1 X-7.92 Y-51.56 E12.8866
G1 X-7.9 Y-51.94 E12.8956
G1 X-7.98 Y-52.38 E12.9059
G1 X-8.17 Y-52.72 E12.9149
G1 X-11.8 Y-49.09 E13.0338
G1 X-11.94 Y-50.37 E13.0636
G1 X-8.27 Y-54.03 E13.1837
G1 X-8.44 Y-54.36 E13.1923
G1 X-8.56 Y-54.73 E13.2013
G1 X-8.62 Y-55.09 E13.2099
G1 X-12.12 Y-51.6 E13.3243
G1 X-12.34 Y-52.79 E13.3525
G1 X-8.98 Y-56.15 E13.4625
G1 X-9.15 Y-56.48 E13.471
G1 X-9.27 Y-56.85 E13.4801
G1 X-9.33 Y-57.21 E13.4886
G1 X-12.59 Y-53.95 E13.5954
G1 X-12.88 Y-55.08 E13.6223
G1 X-9.69 Y-58.27 E13.727
G1 X-9.86 Y-58.6 E13.7356
G1 X-9.98 Y-58.97 E13.7446
G1 X-10.04 Y-59.33 E13.7532
G1 X-13.2 Y-56.17 E13.8567
G1 X-13.55 Y-57.24 E13.8827
G1 X-10.39 Y-60.39 E13.9862
G1 X-10.55 Y-60.69 E13.9938
G1 X-10.76 Y-60.97 E14.002
G1 X-11 Y-61.2 E14.0097
G1 X-13.93 Y-58.27 E14.1057
G1 X-14.33 Y-59.28 E14.1309
G1 X-11.35 Y-62.26 E14.2286
G1 X-11.59 Y-62.51 E14.2366
G1 X-11.75 Y-62.89 E14.2461
G1 X-11.81 Y-63.22 E14.254
G1 X-14.76 Y-60.27 E14.3509
G1 X-15.22 Y-61.23 E14.3755
G1 X-12.41 Y-64.03 E14.4674
G1 X-12.65 Y-64.28 E14.4754
G1 X-12.81 Y-64.65 E14.4849
G1 X-12.87 Y-64.99 E14.4928
G1 X-15.7 Y-62.16 E14.5855
G1 X-16.2 Y-63.07 E14.6096
G1 X-13.47 Y-65.8 E14.6989
G1 X-14.18 Y-66.51 E14.7221
G1 X-16.73 Y-63.96 E14.8055
G1 X-17.27 Y-64.83 E14.8293
G1 X-14.53 Y-67.57 E14.9191
G1 X-15.24 Y-68.27 E14.9423
G1 X-17.85 Y-65.67 E15.0277
G1 X-18.44 Y-66.49 E15.0512
G1 X-15.95 Y-68.98 E15.1328
G1 X-16.66 Y-69.69 E15.156
G1 X-19.05 Y-67.29 E15.2346
G1 X-19.69 Y-68.07 E15.2579
G1 X-17.36 Y-70.4 E15.3341
G1 X-18.07 Y-71.1 E15.3572
G1 X-20.34 Y-68.83 E15.4317
G1 X-21.02 Y-69.57 E15.4549
G1 X-18.78 Y-71.81 E15.5283
G1 X-19.48 Y-72.52 E15.5515
G1 X-21.71 Y-70.29 E15.6246
G1 X-22.43 Y-70.98 E15.6478
G1 X-20.19 Y-73.22 E15.7213
G1 X-20.9 Y-73.93 E15.7444
G1 X-23.17 Y-71.66 E15.819
G1 X-23.93 Y-72.31 E15.8422
G1 X-21.6 Y-74.64 E15.9184
G1 X-22.31 Y-75.34 E15.9416
G1 X-24.71 Y-72.95 E16.0201
G1 X-25.51 Y-73.56 E16.0435
G1 X-23.02 Y-76.05 E16.125
G1 X-23.73 Y-76.76 E16.1482
G1 X-26.33 Y-74.15 E16.2336
G1 X-27.17 Y-74.73 E16.2572
G1 X-24.43 Y-77.47 E16.347
G1 X-24.76 Y-77.65 E16.3556
G1 X-25.13 Y-77.76 E16.3647
G1 X-25.49 Y-77.82 E16.3732
G1 X-28.04 Y-75.27 E16.4567
G1 X-28.93 Y-75.8 E16.4806
G1 X-26.2 Y-78.53 E16.57
G1 X-26.44 Y-78.76 E16.5777
G1 X-26.72 Y-78.98 E16.5859
G1 X-27.01 Y-79.13 E16.5936
G1 X-29.84 Y-76.3 E16.6863
G1 X-30.77 Y-76.78 E16.7106
G1 X-27.97 Y-79.59 E16.8025
G1 X-28.2 Y-79.82 E16.8102
G1 X-28.49 Y-80.04 E16.8184
G1 X-28.78 Y-80.19 E16.8261
G1 X-31.73 Y-77.24 E16.9228
G1 X-32.71 Y-77.67 E16.9477
G1 X-29.74 Y-80.65 E17.0453
G1 X-30.06 Y-80.83 E17.0539
G1 X-30.43 Y-80.94 E17.0629
G1 X-30.8 Y-81 E17.0715
G1 X-33.72 Y-78.08 E17.1674
G1 X-34.76 Y-78.45 E17.1929
G1 X-31.61 Y-81.61 E17.2963
G1 X-31.97 Y-81.67 E17.3048
G1 X-32.34 Y-81.79 E17.3139
G1 X-32.67 Y-81.96 E17.3224
G1 X-35.82 Y-78.8 E17.4259
G1 X-36.92 Y-79.12 E17.4524
G1 X-33.73 Y-82.31 E17.557
G1 X-34.09 Y-82.38 E17.5656
G1 X-34.46 Y-82.49 E17.5746
G1 X-34.79 Y-82.67 E17.5832
G1 X-38.04 Y-79.41 E17.6899
G1 X-39.2 Y-79.67 E17.7174
G1 X-35.85 Y-83.02 E17.8274
G1 X-36.21 Y-83.08 E17.8359
G1 X-36.58 Y-83.2 E17.845
G1 X-36.91 Y-83.38 E17.8535
G1 X-40.4 Y-79.89 E17.9679
G1 X-41.63 Y-80.07 E17.9968
G1 X-37.97 Y-83.73 E18.1168
G1 X-38.85 Y-83.76 E18.1372
G1 X-39.28 Y-83.83 E18.1474
G1 X-42.91 Y-80.21 E18.2662
G1 X-44.22 Y-80.3 E18.2968
G1 X-40.44 Y-84.08 E18.4206
G1 X-41.33 Y-84.11 E18.4411
G1 X-41.76 Y-84.18 E18.4512
G1 X-45.6 Y-80.34 E18.5771
G1 X-47.03 Y-80.33 E18.6102
G1 X-42.92 Y-84.44 E18.7447
G1 X-44.33 Y-84.44 E18.7775
G1 X-48.52 Y-80.25 E18.9146
G1 X-50.08 Y-80.1 E18.951
G1 X-45.75 Y-84.44 E19.093
G1 X-47.16 Y-84.44 E19.1258
G1 X-51.74 Y-79.86 E19.2757
G1 X-53.5 Y-79.52 E19.3173
G1 X-48.58 Y-84.44 E19.4785
G1 X-49.41 Y-84.45 E19.4978
G1 X-49.89 Y-84.38 E19.5091
G1 X-50.24 Y-84.19 E19.5184
G1 X-55.39 Y-79.03 E19.6873
G1 X-56.23 Y-78.79 E19.7074
G1 X-57.46 Y-78.38 E19.7376
G1 X-51.76 Y-84.08 E19.9246
G1 X-52.24 Y-84.09 E19.9358
G1 X-52.63 Y-83.88 E19.946
G1 X-53.08 Y-83.77 E19.9567
G1 X-53.53 Y-83.73 E19.9671
G1 X-59.81 Y-77.45 E20.173
G1 X-61.42 Y-76.69 E20.2142
G1 X-62.6 Y-76.07 E20.2452
G1 X-55.54 Y-83.12 E20.4764
G1 X-55.98 Y-83.05 E20.4867
G1 X-56.82 Y-82.73 E20.5075
G1 X-57.28 Y-82.64 E20.5183
G1 X-57.67 Y-82.42 E20.5286
G1 X-66.59 Y-73.5 E20.821
;
; 'Support Interface', 27.8 [RPM], 25.0 [mm/s]
G1 F7800
G1 X-62.26 Y-80.65 E20.821
G1 F1500
G1 X-80.65 Y-62.26 E21.4236
G1 X-80.33 Y-62.58 E21.434
G1 X-80.22 Y-63.06 E21.4454
G1 X-80.05 Y-63.49 E21.4561
G1 X-79.77 Y-63.85 E21.4669
G1 X-79.45 Y-64.17 E21.4773
G1 X-79.19 Y-64.63 E21.4894
G1 X-79.11 Y-65.05 E21.4993
G1 X-78.88 Y-65.44 E21.5099
G1 X-65.44 Y-78.88 E21.9503
;
; 'Support Interface', 27.8 [RPM], 25.0 [mm/s]
G1 F7800
G1 X-73.49 Y-66.6 E21.9503
G1 F1500
G1 X-82.42 Y-57.67 E22.243
G1 X-82.64 Y-57.28 E22.2533
G1 X-82.73 Y-56.82 E22.2641
G1 X-83.05 Y-55.98 E22.2849
G1 X-83.12 Y-55.54 E22.2952
G1 X-76.07 Y-62.6 E22.5265
G1 X-76.89 Y-61.01 E22.5679
G1 X-77.46 Y-59.8 E22.599
G1 X-83.73 Y-53.53 E22.8045
G1 X-83.77 Y-53.08 E22.815
G1 X-83.88 Y-52.63 E22.8256
G1 X-84.09 Y-52.24 E22.8358
G1 X-84.08 Y-51.76 E22.847
G1 X-78.38 Y-57.46 E23.0339
G1 X-78.66 Y-56.64 E23.054
G1 X-79.04 Y-55.39 E23.0843
G1 X-84.19 Y-50.24 E23.253
G1 X-84.38 Y-49.89 E23.2623
G1 X-84.45 Y-49.41 E23.2736
G1 X-84.44 Y-48.58 E23.2929
G1 X-79.52 Y-53.49 E23.454
G1 X-79.87 Y-51.73 E23.4957
G1 X-84.44 Y-47.16 E23.6454
;
; 'Support Interface', 27.8 [RPM], 25.0 [mm/s]
G1 F7800
G1 X-81.71 Y-59.79 E23.6454
G1 F1500
G1 X-59.79 Y-81.71 E24.3639
;
; 'Wipe', 0.0 [RPM], 25.0 [mm/s]
G1 F900
G1 E23.1139
G1 F1500
G1 X-66.86 Y-74.64 E23.1139
;
; 'Support Interface', 27.8 [RPM], 25.0 [mm/s]
G1 F7800
G1 X-25.39 Y-18.52 E23.1139
G1 F900
G1 E24.3639
G1 F1500
G1 X-34.33 Y-9.58 E24.6569
;
; 'Wipe', 0.0 [RPM], 25.0 [mm/s]
G1 F900
G1 E23.4069
G1 F1500
G1 X-27.26 Y-16.66 E23.4069
;
; 'Loop', 19.6 [RPM], 22.0 [mm/s]
G1 F7800
G1 X-63.31 Y-65.79 E23.4069
G1 F900
G1 E24.6569
G1 F1319.2
G1 X-65.79 Y-63.31 E24.7218
G1 X-65.93 Y-63.27 E24.7244
G1 X-73.53 Y-63.27 E24.8653
G1 X-73.7 Y-63.38 E24.8691
G1 X-73.76 Y-63.51 E24.8718
G1 X-73.35 Y-64.16 E24.886
G1 X-72.7 Y-65.1 E24.9072
G1 X-72.03 Y-66.02 E24.9283
G1 X-70.67 Y-67.66 E24.9679
G1 X-69.82 Y-68.59 E24.9911
G1 X-68.22 Y-70.16 E25.0328
G1 X-67.28 Y-70.99 E25.056
G1 X-66.51 Y-71.64 E25.0746
G1 X-64.68 Y-72.99 E25.1168
G1 X-63.51 Y-73.76 E25.1428
G1 X-63.38 Y-73.69 E25.1455
G1 X-63.28 Y-73.53 E25.1492
G1 X-63.28 Y-65.93 E25.2901
G1 X-63.31 Y-65.79 E25.2928
;
; 'Wipe', 0.0 [RPM], 25.0 [mm/s]
G1 F900
G1 E24.0428
G1 F1500
G1 X-63.28 Y-65.93 E24.0428
G1 X-63.28 Y-73.53 E24.0428
G1 X-63.38 Y-73.69 E24.0428
G1 X-63.51 Y-73.76 E24.0428
G1 X-64.58 Y-73.06 E24.0428
G1 X-65.09 Y-72.7 E24.0428
;
; 'Loop', 21.5 [RPM], 24.2 [mm/s]
G1 F7800
G1 X-67.84 Y-63.77 E24.0428
G1 F900
G1 E25.2928
G1 F1450.4
G1 X-72.95 Y-63.78 E25.3875
G1 X-72.92 Y-63.9 E25.3899
G1 X-72.27 Y-64.84 E25.4111
G1 X-70.96 Y-66.54 E25.4508
G1 X-69.47 Y-68.23 E25.4926
G1 X-68.59 Y-69.12 E25.5158
G1 X-67.02 Y-70.56 E25.5552
G1 X-66.15 Y-71.28 E25.5762
G1 X-65.25 Y-71.97 E25.5972
G1 X-63.9 Y-72.91 E25.6278
G1 X-63.78 Y-72.94 E25.6301
G1 X-63.78 Y-72.77 E25.6333
G1 X-63.78 Y-67.84 E25.7247
G1 X-64.03 Y-67.75 E25.7297
G1 X-64.3 Y-68.18 E25.7392
G1 X-64.55 Y-68.46 E25.7461
G1 X-64.93 Y-68.78 E25.7554
G1 X-65.39 Y-69.04 E25.7651
G1 X-65.83 Y-69.19 E25.7737
G1 X-66.4 Y-69.27 E25.7843
G1 X-66.94 Y-69.24 E25.7944
G1 X-67.23 Y-69.18 E25.7999
G1 X-67.74 Y-68.98 E25.8101
G1 X-68.18 Y-68.71 E25.8196
G1 X-68.55 Y-68.37 E25.8289
G1 X-68.85 Y-67.97 E25.8382
G1 X-69.09 Y-67.5 E25.848
G1 X-69.24 Y-66.94 E25.8587
G1 X-69.27 Y-66.39 E25.8688
G1 X-69.21 Y-65.92 E25.8776
G1 X-69.04 Y-65.56 E25.885
G1 X-69.03 Y-65.49 E25.8863
G1 X-69.01 Y-65.42 E25.8878
G1 X-68.93 Y-65.31 E25.8901
G1 X-68.89 Y-65.18 E25.8928
G1 X-68.78 Y-64.94 E25.8977
G1 X-68.47 Y-64.55 E25.907
G1 X-68.08 Y-64.22 E25.9163
G1 X-67.75 Y-64.03 E25.9235
G1 X-67.84 Y-63.77 E25.9284
;
; 'Wipe', 0.0 [RPM], 25.0 [mm/s]
G1 F900
G1 E24.6784
G1 F1500
G1 X-67.75 Y-64.03 E24.6784
G1 X-68.18 Y-64.3 E24.6784
G1 X-68.47 Y-64.55 E24.6784
G1 X-68.78 Y-64.94 E24.6784
G1 X-68.89 Y-65.18 E24.6784
G1 X-68.93 Y-65.31 E24.6784
G1 X-69.01 Y-65.42 E24.6784
G1 X-69.04 Y-65.56 E24.6784
G1 X-69.17 Y-65.79 E24.6784
G1 X-69.24 Y-66.07 E24.6784
G1 X-69.27 Y-66.62 E24.6784
G1 X-69.24 Y-66.96 E24.6784
G1 X-69.09 Y-67.5 E24.6784
G1 X-68.85 Y-67.97 E24.6784
G1 X-68.55 Y-68.37 E24.6784
G1 X-68.18 Y-68.71 E24.6784
G1 X-67.74 Y-68.98 E24.6784
G1 X-67.23 Y-69.18 E24.6784
G1 X-66.76 Y-69.26 E24.6784
G1 X-66.4 Y-69.27 E24.6784
G1 X-65.83 Y-69.19 E24.6784
G1 X-65.39 Y-69.04 E24.6784
G1 X-64.93 Y-68.78 E24.6784
G1 X-64.55 Y-68.46 E24.6784
G1 X-64.38 Y-68.28 E24.6784
;
; 'Loop', 21.5 [RPM], 24.2 [mm/s]
G1 F7800
G1 X-63.78 Y-19.06 E24.6784
G1 F900
G1 E25.9284
G1 F1450.4
G1 X-63.9 Y-19.09 E25.9307
G1 X-65.25 Y-20.03 E25.9613
G1 X-66.15 Y-20.72 E25.9823
G1 X-67.77 Y-22.11 E26.0219
G1 X-68.68 Y-22.97 E26.045
G1 X-70.15 Y-24.51 E26.0844
G1 X-70.96 Y-25.46 E26.1077
G1 X-72.27 Y-27.16 E26.1474
G1 X-72.92 Y-28.1 E26.1686
G1 X-72.95 Y-28.22 E26.171
G1 X-67.84 Y-28.23 E26.2657
G1 X-67.75 Y-27.97 E26.2707
G1 X-68.18 Y-27.7 E26.2802
G1 X-68.55 Y-27.36 E26.2895
G1 X-68.86 Y-26.96 E26.2988
G1 X-69.09 Y-26.49 E26.3086
G1 X-69.24 Y-25.93 E26.3193
G1 X-69.27 Y-25.38 E26.3295
G1 X-69.21 Y-24.91 E26.3383
G1 X-69.04 Y-24.55 E26.3457
G1 X-69.02 Y-24.48 E26.3471
G1 X-69.01 Y-24.41 E26.3484
G1 X-68.93 Y-24.31 E26.3508
G1 X-68.89 Y-24.17 E26.3534
G1 X-68.78 Y-23.93 E26.3583
G1 X-68.46 Y-23.54 E26.3676
G1 X-68.07 Y-23.22 E26.3769
G1 X-67.74 Y-23.02 E26.3841
G1 X-67.23 Y-22.82 E26.3942
G1 X-66.76 Y-22.74 E26.4031
G1 X-66.4 Y-22.73 E26.4099
G1 X-65.83 Y-22.81 E26.4204
G1 X-65.39 Y-22.96 E26.4291
G1 X-64.93 Y-23.21 E26.4387
G1 X-64.55 Y-23.54 E26.448
G1 X-64.23 Y-23.92 E26.4574
G1 X-64.03 Y-24.25 E26.4645
G1 X-63.78 Y-24.16 E26.4695
G1 X-63.78 Y-19.23 E26.5609
G1 X-63.78 Y-19.06 E26.5641
;
; 'Loop', 19.6 [RPM], 22.0 [mm/s]
G1 F7800
G1 X-63.38 Y-18.31 E26.5641
G1 F1319.2
G1 X-63.51 Y-18.24 E26.5668
G1 X-64.68 Y-19.01 E26.5928
G1 X-66.51 Y-20.36 E26.635
G1 X-67.38 Y-21.09 E26.6559
G1 X-68.94 Y-22.53 E26.6954
G1 X-69.82 Y-23.41 E26.7185
G1 X-70.67 Y-24.34 E26.7417
G1 X-72.03 Y-25.98 E26.7813
G1 X-72.7 Y-26.9 E26.8024
G1 X-73.35 Y-27.84 E26.8236
G1 X-73.76 Y-28.49 E26.8378
G1 X-73.7 Y-28.62 E26.8405
G1 X-73.53 Y-28.73 E26.8443
G1 X-65.93 Y-28.73 E26.9852
G1 X-65.79 Y-28.69 E26.9878
G1 X-63.31 Y-26.21 E27.0527
G1 X-63.28 Y-26.07 E27.0554
G1 X-63.28 Y-18.47 E27.1963
G1 X-63.38 Y-18.31 E27.2
;
; 'Wipe', 0.0 [RPM], 25.0 [mm/s]
G1 F900
G1 E25.95
G1 F1500
G1 X-63.28 Y-18.47 E25.95
G1 X-63.28 Y-26.07 E25.95
G1 X-63.31 Y-26.21 E25.95
G1 X-64.81 Y-27.72 E25.95
;
; 'Loop', 19.6 [RPM], 22.0 [mm/s]
G1 F7800
G1 X-18.55 Y-63.27 E25.95
G1 F900
G1 E27.2
G1 F1319.2
G1 X-26.07 Y-63.27 E27.3395
G1 X-26.22 Y-63.31 E27.3422
G1 X-28.69 Y-65.78 E27.4071
G1 X-28.73 Y-65.92 E27.4098
G1 X-28.73 Y-73.52 E27.5507
G1 X-28.62 Y-73.69 E27.5545
G1 X-28.49 Y-73.76 E27.5571
G1 X-27.32 Y-72.99 E27.5831
G1 X-25.49 Y-71.63 E27.6253
G1 X-24.63 Y-70.91 E27.6462
G1 X-23.06 Y-69.47 E27.6857
G1 X-22.18 Y-68.58 E27.7088
G1 X-20.68 Y-66.9 E27.7506
G1 X-19.9 Y-65.91 E27.774
G1 X-19.22 Y-65 E27.795
G1 X-18.3 Y-63.63 E27.8257
G1 X-18.38 Y-63.46 E27.8292
G1 X-18.55 Y-63.27 E27.8338
;
; 'Loop', 21.5 [RPM], 24.2 [mm/s]
G1 F7800
G1 X-19.05 Y-63.77 E27.8338
G1 F1450.4
G1 X-24.16 Y-63.77 E27.9286
G1 X-24.25 Y-64.03 E27.9336
G1 X-23.82 Y-64.3 E27.9431
G1 X-23.45 Y-64.64 E27.9523
G1 X-23.15 Y-65.04 E27.9617
G1 X-22.91 Y-65.51 E27.9715
G1 X-22.76 Y-66.07 E27.9822
G1 X-22.73 Y-66.61 E27.9922
G1 X-22.77 Y-66.96 E27.9988
G1 X-22.92 Y-67.49 E28.0089
G1 X-23.15 Y-67.96 E28.0187
G1 X-23.46 Y-68.37 E28.0281
G1 X-23.83 Y-68.7 E28.0373
G1 X-24.26 Y-68.98 E28.0468
G1 X-24.77 Y-69.17 E28.057
G1 X-25.24 Y-69.26 E28.0658
G1 X-25.6 Y-69.27 E28.0726
G1 X-26.17 Y-69.19 E28.0831
G1 X-26.61 Y-69.04 E28.0918
G1 X-27.07 Y-68.79 E28.1015
G1 X-27.45 Y-68.47 E28.1108
G1 X-27.78 Y-68.08 E28.1201
G1 X-27.98 Y-67.75 E28.1273
G1 X-28.23 Y-67.84 E28.1322
G1 X-28.23 Y-72.78 E28.2238
G1 X-28.23 Y-72.95 E28.227
G1 X-27.57 Y-72.56 E28.2411
G1 X-26.75 Y-71.97 E28.2599
G1 X-25.85 Y-71.28 E28.2809
G1 X-24.23 Y-69.89 E28.3205
G1 X-23.32 Y-69.03 E28.3436
G1 X-21.77 Y-67.4 E28.3854
G1 X-20.96 Y-66.45 E28.4086
G1 X-20.25 Y-65.56 E28.4296
G1 X-19.07 Y-63.91 E28.4672
G1 X-19.05 Y-63.77 E28.4698
;
; 'Loop', 19.6 [RPM], 22.0 [mm/s]
G1 F7800
G1 X-23.89 Y-64.9 E28.4698
G1 F1319.2
G1 X-24.18 Y-64.66 E28.4767
G1 X-24.51 Y-64.46 E28.4839
G1 X-24.89 Y-64.31 E28.4915
G1 X-25.34 Y-64.23 E28.5
G1 X-25.8 Y-64.25 E28.5086
G1 X-26.1 Y-64.31 E28.5142
G1 X-26.49 Y-64.45 E28.5219
G1 X-26.92 Y-64.72 E28.5314
G1 X-27.28 Y-65.07 E28.5406
G1 X-27.4 Y-65.31 E28.5455
G1 X-27.48 Y-65.4 E28.5478
G1 X-27.64 Y-65.77 E28.5553
G1 X-27.68 Y-65.91 E28.558
G1 X-27.75 Y-66.19 E28.5634
G1 X-27.77 Y-66.66 E28.572
G1 X-27.69 Y-67.11 E28.5805
G1 X-27.54 Y-67.5 E28.5881
G1 X-27.35 Y-67.83 E28.5953
G1 X-27.1 Y-68.11 E28.6023
G1 X-26.81 Y-68.36 E28.6093
G1 X-26.48 Y-68.55 E28.6164
G1 X-26.09 Y-68.69 E28.6241
G1 X-25.63 Y-68.77 E28.6327
G1 X-25.2 Y-68.75 E28.6408
G1 X-24.9 Y-68.69 E28.6464
G1 X-24.51 Y-68.55 E28.654
G1 X-24.08 Y-68.27 E28.6635
G1 X-23.73 Y-67.92 E28.6728
G1 X-23.52 Y-67.6 E28.6799
G1 X-23.35 Y-67.23 E28.6873
G1 X-23.25 Y-66.8 E28.6955
G1 X-23.24 Y-66.37 E28.7035
G1 X-23.33 Y-65.84 E28.7135
G1 X-23.51 Y-65.41 E28.7222
G1 X-23.65 Y-65.19 E28.7269
G1 X-23.89 Y-64.9 E28.7339
;
; 'Perimeter', 14.9 [RPM], 16.7 [mm/s]
G1 F7800
G1 X-23.98 Y-65.17 E28.7339
G1 F1002.6
G1 X-24.24 Y-65.26 E28.739
G1 X-24.54 Y-65.02 E28.746
G1 X-24.84 Y-64.86 E28.7524
G1 X-25.17 Y-64.77 E28.7587
G1 X-25.67 Y-64.74 E28.7679
G1 X-25.97 Y-64.79 E28.7736
G1 X-26.23 Y-64.89 E28.7787
G1 X-26.56 Y-65.08 E28.7859
G1 X-26.84 Y-65.34 E28.7929
G1 X-26.99 Y-65.54 E28.7976
G1 X-27.17 Y-65.89 E28.8049
G1 X-27.24 Y-66.17 E28.8102
G1 X-27.26 Y-66.68 E28.8196
G1 X-27.2 Y-66.98 E28.8253
G1 X-27.11 Y-67.24 E28.8304
G1 X-26.91 Y-67.57 E28.8375
G1 X-26.65 Y-67.84 E28.8445
G1 X-26.22 Y-68.12 E28.854
G1 X-25.96 Y-68.21 E28.8591
G1 X-25.48 Y-68.26 E28.8681
G1 X-25.03 Y-68.21 E28.8765
G1 X-24.77 Y-68.11 E28.8816
G1 X-24.34 Y-67.84 E28.8911
G1 X-24.09 Y-67.56 E28.898
G1 X-23.87 Y-67.18 E28.9061
G1 X-23.76 Y-66.82 E28.9131
G1 X-23.74 Y-66.49 E28.9192
G1 X-23.76 Y-66.19 E28.9248
G1 X-23.86 Y-65.84 E28.9315
G1 X-24.01 Y-65.56 E28.9375
G1 X-24.24 Y-65.26 E28.9445
G1 X-24.16 Y-64.99 E28.9496
;
; 'Wipe', 0.0 [RPM], 25.0 [mm/s]
G1 F900
G1 E27.6996
G1 F1500
G1 X-24.24 Y-65.26 E27.6996
G1 X-24.01 Y-65.56 E27.6996
G1 X-23.83 Y-65.91 E27.6996
G1 X-23.76 Y-66.19 E27.6996
G1 X-23.74 Y-66.52 E27.6996
G1 X-23.76 Y-66.82 E27.6996
G1 X-23.89 Y-67.23 E27.6996
G1 X-24.09 Y-67.56 E27.6996
G1 X-24.34 Y-67.84 E27.6996
G1 X-24.77 Y-68.11 E27.6996
G1 X-25.03 Y-68.21 E27.6996
G1 X-25.48 Y-68.26 E27.6996
G1 X-25.96 Y-68.21 E27.6996
G1 X-26.22 Y-68.12 E27.6996
G1 X-26.65 Y-67.84 E27.6996
G1 X-26.91 Y-67.57 E27.6996
G1 X-27.15 Y-67.15 E27.6996
G1 X-27.24 Y-66.84 E27.6996
G1 X-27.26 Y-66.33 E27.6996
G1 X-27.21 Y-66.03 E27.6996
G1 X-27.11 Y-65.77 E27.6996
G1 X-26.92 Y-65.44 E27.6996
G1 X-26.66 Y-65.16 E27.6996
G1 X-26.34 Y-64.95 E27.6996
G1 X-25.97 Y-64.79 E27.6996
G1 X-25.67 Y-64.74 E27.6996
G1 X-25.32 Y-64.74 E27.6996
;
