; KISSlicer - FREE
; Linux
; version 1.0.9.7
; Built: Jun 12 2012, 22:57:28
;
; Saved: Wed Aug  7 12:11:20 2013
; 'robot-brain.gcode'
;
; *** Printer Settings ***
;
; printer_name = Default
; extension = gcode
; cost_per_hour = 0
; g_code_prefix = NULL
; g_code_postfix = NULL
; g_code_ext_change = NULL
; post_process = NULL
; num_extruders = 1
; firmware_type = 1
; M104_M109 = 1
; add_comments = 1
; z_speed_mm_per_s = 3.5
; z_settle_mm = 0.25
; bed_size_x_mm = 180
; bed_size_y_mm = 180
; bed_size_z_mm = 140
; bed_offset_x_mm = 0
; bed_offset_y_mm = 0
; bed_offset_z_mm = 0
; bed_roughness_mm = 0
; travel_speed_mm_per_s = 130
; first_layer_speed_mm_per_s = 25
; lo_speed_perim_mm_per_s = 4
; lo_speed_solid_mm_per_s = 15
; lo_speed_sparse_mm_per_s = 30
; hi_speed_perim_mm_per_s = 45
; hi_speed_solid_mm_per_s = 50
; hi_speed_sparse_mm_per_s = 55
; ext_mm_per_rev_1 = 1.25
; ext_material_1 = 0
; ext_axis_1 = 0
; ext_mm_per_rev_2 = 1.25
; ext_material_2 = 0
; ext_axis_2 = 0
; ext_mm_per_rev_3 = 1.25
; ext_material_3 = 0
; ext_axis_3 = 0
; model_ext = 0
; support_ext = 0
; support_body_ext = 0
; raft_ext = 0
; solid_loop_overlap_fraction = 0.5
;
; *** Material Settings for Extruder 1 ***
;
; material_name = PLA
; fan_off_ISOs_all = 1
; temperature_C = 206
; keep_warm_C = 159
; first_layer_C = 215
; bed_C = 81
; sec_per_C_per_C = 0.00964207
; RPM_min = 3
; RPM_max = 75
; destring_suck = 1.25
; destring_prime = 1.25
; destring_min_mm = 0
; destring_speed_mm_per_s = 15
; min_layer_time_s = 10
; wipe_mm = 10
; cost_per_cm3 = 0.128
; flowrate_tweak = 1
; fiber_dia_mm = 2.93
; color = 0
;
; *** Style Settings ***
;
; style_name = Default
; layer_thickness_mm = 0.25
; extrusion_width_mm = 0.5
; num_loops = 3
; skin_thickness_mm = 0.8
; infill_extrusion_width = 0.5
; infill_density_denominator = 1
; stacked_layers = 1
; use_destring = 1
; loops_insideout = 1
; round_infill = 1
;
; *** Actual Slicing Settings As Used ***
;
; layer_thickness_mm = 0.25
; extrusion_width = 0.5
; num_ISOs = 3
; wall_thickness = 0.8
; infill_style = 2
; support_style = 3
; support_angle = 0.9
; destring_min_mm = 0
; stacked_infill_layers = 1
; ISO_wipe_mm = 10
; raft_style = 3
; extra_raft_depth = 0
; oversample_res_mm = 0.125
; crowning_threshold_mm = 1
; loops_insideout = 1
; sheathed_support = 0
; solid_loop_overlap_fraction = 0.5
; inflate_raft_mm = 2
; inflate_support_mm = 2
; model_support_gap_mm = 0.5
; round_infill = 1
; Speed vs Quality = 0.50
;
; *** Header ***
;
; fan off
M107
; [mm] mode
G21
; absolute mode
G90
; *** Main G-code ***
;
; BEGIN_LAYER_RAFT z=0.25
;
; *** Warming Extruder 1 to 215 C ***
M109 S215
;
;
; 'Pillar', 40.8 [RPM], 3.5 [mm/s]
G1 F7800
G1 X-88.43 Y-46 Z0.5 E0
G1 F210
G1 X-88.43 Y-46 Z0.25 E0
G1 X-88.43 Y-46 Z0.125 E0.0303
G1 X-88.43 Y-46 Z0.25 E0.0304
;
; 'Pillar', 40.8 [RPM], 3.5 [mm/s]
G1 F7800
G1 X-86.31 Y-43.88 E0
G1 F210
G1 X-86.31 Y-43.88 Z0.125 E0.0303
G1 X-86.31 Y-43.88 Z0.25 E0.0303
;
; 'Pillar', 40.8 [RPM], 3.5 [mm/s]
G1 F7800
G1 X-84.18 Y-41.76 E0
G1 F210
G1 X-84.18 Y-41.76 Z0.125 E0.0304
G1 X-84.18 Y-41.76 Z0.25 E0.0303
;
; 'Pillar', 40.8 [RPM], 3.5 [mm/s]
G1 F7800
G1 X-82.06 Y-39.64 E0
G1 F210
G1 X-82.06 Y-39.64 Z0.125 E0.0303
G1 X-82.06 Y-39.64 Z0.25 E0.0304
;
; 'Pillar', 40.8 [RPM], 3.5 [mm/s]
G1 F7800
G1 X-79.94 Y-37.51 E0
G1 F210
G1 X-79.94 Y-37.51 Z0.125 E0.0303
G1 X-79.94 Y-37.51 Z0.25 E0.0303
;
; 'Pillar', 40.8 [RPM], 3.5 [mm/s]
G1 F7800
G1 X-77.82 Y-35.39 E0
G1 F210
G1 X-77.82 Y-35.39 Z0.125 E0.0304
G1 X-77.82 Y-35.39 Z0.25 E0.0303
;
; 'Pillar', 40.8 [RPM], 3.5 [mm/s]
G1 F7800
G1 X-75.7 Y-33.27 E0
G1 F210
G1 X-75.7 Y-33.27 Z0.125 E0.0303
G1 X-75.7 Y-33.27 Z0.25 E0.0304
;
; 'Pillar', 40.8 [RPM], 3.5 [mm/s]
G1 F7800
G1 X-73.58 Y-31.15 E0
G1 F210
G1 X-73.58 Y-31.15 Z0.125 E0.0303
G1 X-73.58 Y-31.15 Z0.25 E0.0303
;
; 'Pillar', 40.8 [RPM], 3.5 [mm/s]
G1 F7800
G1 X-71.46 Y-29.03 E0
G1 F210
G1 X-71.46 Y-29.03 Z0.125 E0.0304
G1 X-71.46 Y-29.03 Z0.25 E0.0303
;
; 'Pillar', 40.8 [RPM], 3.5 [mm/s]
G1 F7800
G1 X-69.33 Y-26.91 E0
G1 F210
G1 X-69.33 Y-26.91 Z0.125 E0.0304
G1 X-69.33 Y-26.91 Z0.25 E0.0303
;
; 'Pillar', 40.8 [RPM], 3.5 [mm/s]
G1 F7800
G1 X-67.21 Y-24.79 E0
G1 F210
G1 X-67.21 Y-24.79 Z0.125 E0.0303
G1 X-67.21 Y-24.79 Z0.25 E0.0304
;
; 'Pillar', 40.8 [RPM], 3.5 [mm/s]
G1 F7800
G1 X-65.09 Y-22.67 E0
G1 F210
G1 X-65.09 Y-22.67 Z0.125 E0.0303
G1 X-65.09 Y-22.67 Z0.25 E0.0303
;
; 'Pillar', 40.8 [RPM], 3.5 [mm/s]
G1 F7800
G1 X-62.97 Y-20.54 E0
G1 F210
G1 X-62.97 Y-20.54 Z0.125 E0.0304
G1 X-62.97 Y-20.54 Z0.25 E0.0303
;
; 'Pillar', 40.8 [RPM], 3.5 [mm/s]
G1 F7800
G1 X-60.85 Y-18.42 E0
G1 F210
G1 X-60.85 Y-18.42 Z0.125 E0.0303
G1 X-60.85 Y-18.42 Z0.25 E0.0304
;
; 'Pillar', 40.8 [RPM], 3.5 [mm/s]
G1 F7800
G1 X-58.73 Y-16.3 E0
G1 F210
G1 X-58.73 Y-16.3 Z0.125 E0.0303
G1 X-58.73 Y-16.3 Z0.25 E0.0303
;
; 'Pillar', 40.8 [RPM], 3.5 [mm/s]
G1 F7800
G1 X-56.61 Y-14.18 E0
G1 F210
G1 X-56.61 Y-14.18 Z0.125 E0.0304
G1 X-56.61 Y-14.18 Z0.25 E0.0303
;
; 'Pillar', 40.8 [RPM], 3.5 [mm/s]
G1 F7800
G1 X-54.49 Y-12.06 E0
G1 F210
G1 X-54.49 Y-12.06 Z0.125 E0.0303
G1 X-54.49 Y-12.06 Z0.25 E0.0304
;
; 'Pillar', 40.8 [RPM], 3.5 [mm/s]
G1 F7800
G1 X-52.36 Y-9.94 E0
G1 F210
G1 X-52.36 Y-9.94 Z0.125 E0.0303
G1 X-52.36 Y-9.94 Z0.25 E0.0303
;
; 'Pillar', 40.8 [RPM], 3.5 [mm/s]
G1 F7800
G1 X-50.24 Y-7.82 E0
G1 F210
G1 X-50.24 Y-7.82 Z0.125 E0.0304
G1 X-50.24 Y-7.82 Z0.25 E0.0303
;
; 'Pillar', 40.8 [RPM], 3.5 [mm/s]
G1 F7800
G1 X-48.12 Y-5.69 E0
G1 F210
G1 X-48.12 Y-5.69 Z0.125 E0.0303
G1 X-48.12 Y-5.69 Z0.25 E0.0304
;
; 'Pillar', 40.8 [RPM], 3.5 [mm/s]
G1 F7800
G1 X-46 Y-3.57 E0
G1 F210
G1 X-46 Y-3.57 Z0.125 E0.0303
G1 X-46 Y-3.57 Z0.25 E0.0303
;
; 'Pillar', 40.8 [RPM], 3.5 [mm/s]
G1 F7800
G1 X-41.76 Y-3.57 E0
G1 F210
G1 X-41.76 Y-3.57 Z0.125 E0.0304
G1 X-41.76 Y-3.57 Z0.25 E0.0303
;
; 'Pillar', 40.8 [RPM], 3.5 [mm/s]
G1 F7800
G1 X-43.88 Y-5.69 E0
G1 F210
G1 X-43.88 Y-5.69 Z0.125 E0.0303
G1 X-43.88 Y-5.69 Z0.25 E0.0304
;
; 'Pillar', 40.8 [RPM], 3.5 [mm/s]
G1 F7800
G1 X-46 Y-7.82 E0
G1 F210
G1 X-46 Y-7.82 Z0.125 E0.0303
G1 X-46 Y-7.82 Z0.25 E0.0303
;
; 'Pillar', 40.8 [RPM], 3.5 [mm/s]
G1 F7800
G1 X-48.12 Y-9.94 E0
G1 F210
G1 X-48.12 Y-9.94 Z0.125 E0.0304
G1 X-48.12 Y-9.94 Z0.25 E0.0303
;
; 'Pillar', 40.8 [RPM], 3.5 [mm/s]
G1 F7800
G1 X-50.24 Y-12.06 E0
G1 F210
G1 X-50.24 Y-12.06 Z0.125 E0.0303
G1 X-50.24 Y-12.06 Z0.25 E0.0304
;
; 'Pillar', 40.8 [RPM], 3.5 [mm/s]
G1 F7800
G1 X-52.36 Y-14.18 E0
G1 F210
G1 X-52.36 Y-14.18 Z0.125 E0.0303
G1 X-52.36 Y-14.18 Z0.25 E0.0303
;
; 'Pillar', 40.8 [RPM], 3.5 [mm/s]
G1 F7800
G1 X-54.49 Y-16.3 E0
G1 F210
G1 X-54.49 Y-16.3 Z0.125 E0.0304
G1 X-54.49 Y-16.3 Z0.25 E0.0303
;
; 'Pillar', 40.8 [RPM], 3.5 [mm/s]
G1 F7800
G1 X-56.61 Y-18.42 E0
G1 F210
G1 X-56.61 Y-18.42 Z0.125 E0.0304
G1 X-56.61 Y-18.42 Z0.25 E0.0303
;
; 'Pillar', 40.8 [RPM], 3.5 [mm/s]
G1 F7800
G1 X-58.73 Y-20.54 E0
G1 F210
G1 X-58.73 Y-20.54 Z0.125 E0.0303
G1 X-58.73 Y-20.54 Z0.25 E0.0304
;
; 'Pillar', 40.8 [RPM], 3.5 [mm/s]
G1 F7800
G1 X-60.85 Y-22.67 E0
G1 F210
G1 X-60.85 Y-22.67 Z0.125 E0.0303
G1 X-60.85 Y-22.67 Z0.25 E0.0303
;
; 'Pillar', 40.8 [RPM], 3.5 [mm/s]
G1 F7800
G1 X-62.97 Y-24.79 E0
G1 F210
G1 X-62.97 Y-24.79 Z0.125 E0.0304
G1 X-62.97 Y-24.79 Z0.25 E0.0303
;
; 'Pillar', 40.8 [RPM], 3.5 [mm/s]
G1 F7800
G1 X-65.09 Y-26.91 E0
G1 F210
G1 X-65.09 Y-26.91 Z0.125 E0.0303
G1 X-65.09 Y-26.91 Z0.25 E0.0304
;
; 'Pillar', 40.8 [RPM], 3.5 [mm/s]
G1 F7800
G1 X-67.21 Y-29.03 E0
G1 F210
G1 X-67.21 Y-29.03 Z0.125 E0.0303
G1 X-67.21 Y-29.03 Z0.25 E0.0303
;
; 'Pillar', 40.8 [RPM], 3.5 [mm/s]
G1 F7800
G1 X-69.33 Y-31.15 E0
G1 F210
G1 X-69.33 Y-31.15 Z0.125 E0.0304
G1 X-69.33 Y-31.15 Z0.25 E0.0303
;
; 'Pillar', 40.8 [RPM], 3.5 [mm/s]
G1 F7800
G1 X-71.46 Y-33.27 E0
G1 F210
G1 X-71.46 Y-33.27 Z0.125 E0.0303
G1 X-71.46 Y-33.27 Z0.25 E0.0304
;
; 'Pillar', 40.8 [RPM], 3.5 [mm/s]
G1 F7800
G1 X-73.58 Y-35.39 E0
G1 F210
G1 X-73.58 Y-35.39 Z0.125 E0.0303
G1 X-73.58 Y-35.39 Z0.25 E0.0303
;
; 'Pillar', 40.8 [RPM], 3.5 [mm/s]
G1 F7800
G1 X-75.7 Y-37.51 E0
G1 F210
G1 X-75.7 Y-37.51 Z0.125 E0.0304
G1 X-75.7 Y-37.51 Z0.25 E0.0303
;
; 'Pillar', 40.8 [RPM], 3.5 [mm/s]
G1 F7800
G1 X-77.82 Y-39.64 E0
G1 F210
G1 X-77.82 Y-39.64 Z0.125 E0.0303
G1 X-77.82 Y-39.64 Z0.25 E0.0304
;
; 'Pillar', 40.8 [RPM], 3.5 [mm/s]
G1 F7800
G1 X-79.94 Y-41.76 E0
G1 F210
G1 X-79.94 Y-41.76 Z0.125 E0.0303
G1 X-79.94 Y-41.76 Z0.25 E0.0303
;
; 'Pillar', 40.8 [RPM], 3.5 [mm/s]
G1 F7800
G1 X-82.06 Y-43.88 E0
G1 F210
G1 X-82.06 Y-43.88 Z0.125 E0.0304
G1 X-82.06 Y-43.88 Z0.25 E0.0303
;
; 'Pillar', 40.8 [RPM], 3.5 [mm/s]
G1 F7800
G1 X-84.18 Y-46 E0
G1 F210
G1 X-84.18 Y-46 Z0.125 E0.0303
G1 X-84.18 Y-46 Z0.25 E0.0304
;
; 'Pillar', 40.8 [RPM], 3.5 [mm/s]
G1 F7800
G1 X-86.31 Y-48.12 E0
G1 F210
G1 X-86.31 Y-48.12 Z0.125 E0.0303
G1 X-86.31 Y-48.12 Z0.25 E0.0303
;
; 'Pillar', 40.8 [RPM], 3.5 [mm/s]
G1 F7800
G1 X-84.18 Y-50.24 E0
G1 F210
G1 X-84.18 Y-50.24 Z0.125 E0.0304
G1 X-84.18 Y-50.24 Z0.25 E0.0303
;
; 'Pillar', 40.8 [RPM], 3.5 [mm/s]
G1 F7800
G1 X-82.06 Y-52.36 E0
G1 F210
G1 X-82.06 Y-52.36 Z0.125 E0.0303
G1 X-82.06 Y-52.36 Z0.25 E0.0304
;
; 'Pillar', 40.8 [RPM], 3.5 [mm/s]
G1 F7800
G1 X-79.94 Y-54.49 E0
G1 F210
G1 X-79.94 Y-54.49 Z0.125 E0.0303
G1 X-79.94 Y-54.49 Z0.25 E0.0304
;
; 'Pillar', 40.8 [RPM], 3.5 [mm/s]
G1 F7800
G1 X-77.82 Y-56.61 E0
G1 F210
G1 X-77.82 Y-56.61 Z0.125 E0.0303
G1 X-77.82 Y-56.61 Z0.25 E0.0303
;
; 'Pillar', 40.8 [RPM], 3.5 [mm/s]
G1 F7800
G1 X-75.7 Y-58.73 E0
G1 F210
G1 X-75.7 Y-58.73 Z0.125 E0.0304
G1 X-75.7 Y-58.73 Z0.25 E0.0303
;
; 'Pillar', 40.8 [RPM], 3.5 [mm/s]
G1 F7800
G1 X-73.58 Y-60.85 E0
G1 F210
G1 X-73.58 Y-60.85 Z0.125 E0.0303
G1 X-73.58 Y-60.85 Z0.25 E0.0304
;
; 'Pillar', 40.8 [RPM], 3.5 [mm/s]
G1 F7800
G1 X-71.46 Y-62.97 E0
G1 F210
G1 X-71.46 Y-62.97 Z0.125 E0.0303
G1 X-71.46 Y-62.97 Z0.25 E0.0303
;
; 'Pillar', 40.8 [RPM], 3.5 [mm/s]
G1 F7800
G1 X-69.33 Y-65.09 E0
G1 F210
G1 X-69.33 Y-65.09 Z0.125 E0.0304
G1 X-69.33 Y-65.09 Z0.25 E0.0303
;
; 'Pillar', 40.8 [RPM], 3.5 [mm/s]
G1 F7800
G1 X-67.21 Y-67.21 E0
G1 F210
G1 X-67.21 Y-67.21 Z0.125 E0.0303
G1 X-67.21 Y-67.21 Z0.25 E0.0304
;
; 'Pillar', 40.8 [RPM], 3.5 [mm/s]
G1 F7800
G1 X-65.09 Y-69.33 E0
G1 F210
G1 X-65.09 Y-69.33 Z0.125 E0.0303
G1 X-65.09 Y-69.33 Z0.25 E0.0303
;
; 'Pillar', 40.8 [RPM], 3.5 [mm/s]
G1 F7800
G1 X-62.97 Y-71.46 E0
G1 F210
G1 X-62.97 Y-71.46 Z0.125 E0.0304
G1 X-62.97 Y-71.46 Z0.25 E0.0303
;
; 'Pillar', 40.8 [RPM], 3.5 [mm/s]
G1 F7800
G1 X-60.85 Y-73.58 E0
G1 F210
G1 X-60.85 Y-73.58 Z0.125 E0.0303
G1 X-60.85 Y-73.58 Z0.25 E0.0304
;
; 'Pillar', 40.8 [RPM], 3.5 [mm/s]
G1 F7800
G1 X-58.73 Y-75.7 E0
G1 F210
G1 X-58.73 Y-75.7 Z0.125 E0.0303
G1 X-58.73 Y-75.7 Z0.25 E0.0303
;
; 'Pillar', 40.8 [RPM], 3.5 [mm/s]
G1 F7800
G1 X-56.61 Y-77.82 E0
G1 F210
G1 X-56.61 Y-77.82 Z0.125 E0.0304
G1 X-56.61 Y-77.82 Z0.25 E0.0303
;
; 'Pillar', 40.8 [RPM], 3.5 [mm/s]
G1 F7800
G1 X-54.49 Y-79.94 E0
G1 F210
G1 X-54.49 Y-79.94 Z0.125 E0.0303
G1 X-54.49 Y-79.94 Z0.25 E0.0304
;
; 'Pillar', 40.8 [RPM], 3.5 [mm/s]
G1 F7800
G1 X-52.36 Y-82.06 E0
G1 F210
G1 X-52.36 Y-82.06 Z0.125 E0.0303
G1 X-52.36 Y-82.06 Z0.25 E0.0303
;
; 'Pillar', 40.8 [RPM], 3.5 [mm/s]
G1 F7800
G1 X-54.49 Y-84.18 E0
G1 F210
G1 X-54.49 Y-84.18 Z0.125 E0.0304
G1 X-54.49 Y-84.18 Z0.25 E0.0303
;
; 'Pillar', 40.8 [RPM], 3.5 [mm/s]
G1 F7800
G1 X-52.36 Y-86.31 E0
G1 F210
G1 X-52.36 Y-86.31 Z0.125 E0.0303
G1 X-52.36 Y-86.31 Z0.25 E0.0304
;
; 'Pillar', 40.8 [RPM], 3.5 [mm/s]
G1 F7800
G1 X-50.24 Y-88.43 E0
G1 F210
G1 X-50.24 Y-88.43 Z0.125 E0.0303
G1 X-50.24 Y-88.43 Z0.25 E0.0303
;
; 'Pillar', 40.8 [RPM], 3.5 [mm/s]
G1 F7800
G1 X-48.12 Y-86.31 E0
G1 F210
G1 X-48.12 Y-86.31 Z0.125 E0.0304
G1 X-48.12 Y-86.31 Z0.25 E0.0303
;
; 'Pillar', 40.8 [RPM], 3.5 [mm/s]
G1 F7800
G1 X-46 Y-84.18 E0
G1 F210
G1 X-46 Y-84.18 Z0.125 E0.0303
G1 X-46 Y-84.18 Z0.25 E0.0304
;
; 'Pillar', 40.8 [RPM], 3.5 [mm/s]
G1 F7800
G1 X-43.88 Y-82.06 E0
G1 F210
G1 X-43.88 Y-82.06 Z0.125 E0.0303
G1 X-43.88 Y-82.06 Z0.25 E0.0304
;
; 'Pillar', 40.8 [RPM], 3.5 [mm/s]
G1 F7800
G1 X-41.76 Y-79.94 E0
G1 F210
G1 X-41.76 Y-79.94 Z0.125 E0.0303
G1 X-41.76 Y-79.94 Z0.25 E0.0303
;
; 'Pillar', 40.8 [RPM], 3.5 [mm/s]
G1 F7800
G1 X-39.64 Y-77.82 E0
G1 F210
G1 X-39.64 Y-77.82 Z0.125 E0.0304
G1 X-39.64 Y-77.82 Z0.25 E0.0303
;
; 'Pillar', 40.8 [RPM], 3.5 [mm/s]
G1 F7800
G1 X-37.51 Y-75.7 E0
G1 F210
G1 X-37.51 Y-75.7 Z0.125 E0.0303
G1 X-37.51 Y-75.7 Z0.25 E0.0304
;
; 'Pillar', 40.8 [RPM], 3.5 [mm/s]
G1 F7800
G1 X-35.39 Y-73.58 E0
G1 F210
G1 X-35.39 Y-73.58 Z0.125 E0.0303
G1 X-35.39 Y-73.58 Z0.25 E0.0303
;
; 'Pillar', 40.8 [RPM], 3.5 [mm/s]
G1 F7800
G1 X-33.27 Y-71.46 E0
G1 F210
G1 X-33.27 Y-71.46 Z0.125 E0.0304
G1 X-33.27 Y-71.46 Z0.25 E0.0303
;
; 'Pillar', 40.8 [RPM], 3.5 [mm/s]
G1 F7800
G1 X-31.15 Y-69.33 E0
G1 F210
G1 X-31.15 Y-69.33 Z0.125 E0.0303
G1 X-31.15 Y-69.33 Z0.25 E0.0304
;
; 'Pillar', 40.8 [RPM], 3.5 [mm/s]
G1 F7800
G1 X-29.03 Y-67.21 E0
G1 F210
G1 X-29.03 Y-67.21 Z0.125 E0.0303
G1 X-29.03 Y-67.21 Z0.25 E0.0303
;
; 'Pillar', 40.8 [RPM], 3.5 [mm/s]
G1 F7800
G1 X-26.91 Y-65.09 E0
G1 F210
G1 X-26.91 Y-65.09 Z0.125 E0.0304
G1 X-26.91 Y-65.09 Z0.25 E0.0303
;
; 'Pillar', 40.8 [RPM], 3.5 [mm/s]
G1 F7800
G1 X-24.79 Y-62.97 E0
G1 F210
G1 X-24.79 Y-62.97 Z0.125 E0.0303
G1 X-24.79 Y-62.97 Z0.25 E0.0304
;
; 'Pillar', 40.8 [RPM], 3.5 [mm/s]
G1 F7800
G1 X-22.67 Y-60.85 E0
G1 F210
G1 X-22.67 Y-60.85 Z0.125 E0.0303
G1 X-22.67 Y-60.85 Z0.25 E0.0303
;
; 'Pillar', 40.8 [RPM], 3.5 [mm/s]
G1 F7800
G1 X-20.54 Y-58.73 E0
G1 F210
G1 X-20.54 Y-58.73 Z0.125 E0.0304
G1 X-20.54 Y-58.73 Z0.25 E0.0303
;
; 'Pillar', 40.8 [RPM], 3.5 [mm/s]
G1 F7800
G1 X-18.42 Y-56.61 E0
G1 F210
G1 X-18.42 Y-56.61 Z0.125 E0.0303
G1 X-18.42 Y-56.61 Z0.25 E0.0304
;
; 'Pillar', 40.8 [RPM], 3.5 [mm/s]
G1 F7800
G1 X-16.3 Y-54.49 E0
G1 F210
G1 X-16.3 Y-54.49 Z0.125 E0.0303
G1 X-16.3 Y-54.49 Z0.25 E0.0303
;
; 'Pillar', 40.8 [RPM], 3.5 [mm/s]
G1 F7800
G1 X-14.18 Y-52.36 E0
G1 F210
G1 X-14.18 Y-52.36 Z0.125 E0.0304
G1 X-14.18 Y-52.36 Z0.25 E0.0303
;
; 'Pillar', 40.8 [RPM], 3.5 [mm/s]
G1 F7800
G1 X-12.06 Y-50.24 E0
G1 F210
G1 X-12.06 Y-50.24 Z0.125 E0.0303
G1 X-12.06 Y-50.24 Z0.25 E0.0304
;
; 'Pillar', 40.8 [RPM], 3.5 [mm/s]
G1 F7800
G1 X-9.94 Y-48.12 E0
G1 F210
G1 X-9.94 Y-48.12 Z0.125 E0.0303
G1 X-9.94 Y-48.12 Z0.25 E0.0303
;
; 'Pillar', 40.8 [RPM], 3.5 [mm/s]
G1 F7800
G1 X-7.82 Y-46 E0
G1 F210
G1 X-7.82 Y-46 Z0.125 E0.0304
G1 X-7.82 Y-46 Z0.25 E0.0303
;
; 'Pillar', 40.8 [RPM], 3.5 [mm/s]
G1 F7800
G1 X-5.69 Y-43.88 E0
G1 F210
G1 X-5.69 Y-43.88 Z0.125 E0.0304
G1 X-5.69 Y-43.88 Z0.25 E0.0303
;
; 'Pillar', 40.8 [RPM], 3.5 [mm/s]
G1 F7800
G1 X-3.57 Y-41.76 E0
G1 F210
G1 X-3.57 Y-41.76 Z0.125 E0.0303
G1 X-3.57 Y-41.76 Z0.25 E0.0304
;
; 'Pillar', 40.8 [RPM], 3.5 [mm/s]
G1 F7800
G1 X-5.69 Y-39.64 E0
G1 F210
G1 X-5.69 Y-39.64 Z0.125 E0.0303
G1 X-5.69 Y-39.64 Z0.25 E0.0303
;
; 'Pillar', 40.8 [RPM], 3.5 [mm/s]
G1 F7800
G1 X-7.82 Y-41.76 E0
G1 F210
G1 X-7.82 Y-41.76 Z0.125 E0.0304
G1 X-7.82 Y-41.76 Z0.25 E0.0303
;
; 'Pillar', 40.8 [RPM], 3.5 [mm/s]
G1 F7800
G1 X-9.94 Y-43.88 E0
G1 F210
G1 X-9.94 Y-43.88 Z0.125 E0.0303
G1 X-9.94 Y-43.88 Z0.25 E0.0304
;
; 'Pillar', 40.8 [RPM], 3.5 [mm/s]
G1 F7800
G1 X-12.06 Y-46 E0
G1 F210
G1 X-12.06 Y-46 Z0.125 E0.0303
G1 X-12.06 Y-46 Z0.25 E0.0303
;
; 'Pillar', 40.8 [RPM], 3.5 [mm/s]
G1 F7800
G1 X-14.18 Y-48.12 E0
G1 F210
G1 X-14.18 Y-48.12 Z0.125 E0.0304
G1 X-14.18 Y-48.12 Z0.25 E0.0303
;
; 'Pillar', 40.8 [RPM], 3.5 [mm/s]
G1 F7800
G1 X-16.3 Y-50.24 E0
G1 F210
G1 X-16.3 Y-50.24 Z0.125 E0.0303
G1 X-16.3 Y-50.24 Z0.25 E0.0304
;
; 'Pillar', 40.8 [RPM], 3.5 [mm/s]
G1 F7800
G1 X-18.42 Y-52.36 E0
G1 F210
G1 X-18.42 Y-52.36 Z0.125 E0.0303
G1 X-18.42 Y-52.36 Z0.25 E0.0303
;
; 'Pillar', 40.8 [RPM], 3.5 [mm/s]
G1 F7800
G1 X-14.18 Y-56.61 E0
G1 F210
G1 X-14.18 Y-56.61 Z0.125 E0.0304
G1 X-14.18 Y-56.61 Z0.25 E0.0303
;
; 'Pillar', 40.8 [RPM], 3.5 [mm/s]
G1 F7800
G1 X-16.3 Y-58.73 E0
G1 F210
G1 X-16.3 Y-58.73 Z0.125 E0.0303
G1 X-16.3 Y-58.73 Z0.25 E0.0304
;
; 'Pillar', 40.8 [RPM], 3.5 [mm/s]
G1 F7800
G1 X-18.42 Y-60.85 E0
G1 F210
G1 X-18.42 Y-60.85 Z0.125 E0.0303
G1 X-18.42 Y-60.85 Z0.25 E0.0303
;
; 'Pillar', 40.8 [RPM], 3.5 [mm/s]
G1 F7800
G1 X-20.54 Y-62.97 E0
G1 F210
G1 X-20.54 Y-62.97 Z0.125 E0.0304
G1 X-20.54 Y-62.97 Z0.25 E0.0303
;
; 'Pillar', 40.8 [RPM], 3.5 [mm/s]
G1 F7800
G1 X-22.67 Y-65.09 E0
G1 F210
G1 X-22.67 Y-65.09 Z0.125 E0.0303
G1 X-22.67 Y-65.09 Z0.25 E0.0304
;
; 'Pillar', 40.8 [RPM], 3.5 [mm/s]
G1 F7800
G1 X-24.79 Y-67.21 E0
G1 F210
G1 X-24.79 Y-67.21 Z0.125 E0.0303
G1 X-24.79 Y-67.21 Z0.25 E0.0303
;
; 'Pillar', 40.8 [RPM], 3.5 [mm/s]
G1 F7800
G1 X-26.91 Y-69.33 E0
G1 F210
G1 X-26.91 Y-69.33 Z0.125 E0.0304
G1 X-26.91 Y-69.33 Z0.25 E0.0303
;
; 'Pillar', 40.8 [RPM], 3.5 [mm/s]
G1 F7800
G1 X-29.03 Y-71.46 E0
G1 F210
G1 X-29.03 Y-71.46 Z0.125 E0.0303
G1 X-29.03 Y-71.46 Z0.25 E0.0304
;
; 'Pillar', 40.8 [RPM], 3.5 [mm/s]
G1 F7800
G1 X-31.15 Y-73.58 E0
G1 F210
G1 X-31.15 Y-73.58 Z0.125 E0.0303
G1 X-31.15 Y-73.58 Z0.25 E0.0303
;
; 'Pillar', 40.8 [RPM], 3.5 [mm/s]
G1 F7800
G1 X-33.27 Y-75.7 E0
G1 F210
G1 X-33.27 Y-75.7 Z0.125 E0.0304
G1 X-33.27 Y-75.7 Z0.25 E0.0303
;
; 'Pillar', 40.8 [RPM], 3.5 [mm/s]
G1 F7800
G1 X-35.39 Y-77.82 E0
G1 F210
G1 X-35.39 Y-77.82 Z0.125 E0.0304
G1 X-35.39 Y-77.82 Z0.25 E0.0303
;
; 'Pillar', 40.8 [RPM], 3.5 [mm/s]
G1 F7800
G1 X-37.51 Y-79.94 E0
G1 F210
G1 X-37.51 Y-79.94 Z0.125 E0.0303
G1 X-37.51 Y-79.94 Z0.25 E0.0304
;
; 'Pillar', 40.8 [RPM], 3.5 [mm/s]
G1 F7800
G1 X-39.64 Y-82.06 E0
G1 F210
G1 X-39.64 Y-82.06 Z0.125 E0.0303
G1 X-39.64 Y-82.06 Z0.25 E0.0303
;
; 'Pillar', 40.8 [RPM], 3.5 [mm/s]
G1 F7800
G1 X-41.76 Y-84.18 E0
G1 F210
G1 X-41.76 Y-84.18 Z0.125 E0.0304
G1 X-41.76 Y-84.18 Z0.25 E0.0303
;
; 'Pillar', 40.8 [RPM], 3.5 [mm/s]
G1 F7800
G1 X-39.64 Y-86.31 E0
G1 F210
G1 X-39.64 Y-86.31 Z0.125 E0.0303
G1 X-39.64 Y-86.31 Z0.25 E0.0304
;
; 'Pillar', 40.8 [RPM], 3.5 [mm/s]
G1 F7800
G1 X-41.76 Y-88.43 E0
G1 F210
G1 X-41.76 Y-88.43 Z0.125 E0.0303
G1 X-41.76 Y-88.43 Z0.25 E0.0303
;
; 'Pillar', 40.8 [RPM], 3.5 [mm/s]
G1 F7800
G1 X-43.88 Y-86.31 E0
G1 F210
G1 X-43.88 Y-86.31 Z0.125 E0.0304
G1 X-43.88 Y-86.31 Z0.25 E0.0303
;
; 'Pillar', 40.8 [RPM], 3.5 [mm/s]
G1 F7800
G1 X-46 Y-88.43 E0
G1 F210
G1 X-46 Y-88.43 Z0.125 E0.0303
G1 X-46 Y-88.43 Z0.25 E0.0304
;
; 'Pillar', 40.8 [RPM], 3.5 [mm/s]
G1 F7800
G1 X-50.24 Y-84.18 E0
G1 F210
G1 X-50.24 Y-84.18 Z0.125 E0.0303
G1 X-50.24 Y-84.18 Z0.25 E0.0303
;
; 'Pillar', 40.8 [RPM], 3.5 [mm/s]
G1 F7800
G1 X-48.12 Y-82.06 E0
G1 F210
G1 X-48.12 Y-82.06 Z0.125 E0.0304
G1 X-48.12 Y-82.06 Z0.25 E0.0303
;
; 'Pillar', 40.8 [RPM], 3.5 [mm/s]
G1 F7800
G1 X-46 Y-79.94 E0
G1 F210
G1 X-46 Y-79.94 Z0.125 E0.0303
G1 X-46 Y-79.94 Z0.25 E0.0304
;
; 'Pillar', 40.8 [RPM], 3.5 [mm/s]
G1 F7800
G1 X-43.88 Y-77.82 E0
G1 F210
G1 X-43.88 Y-77.82 Z0.125 E0.0303
G1 X-43.88 Y-77.82 Z0.25 E0.0303
;
; 'Pillar', 40.8 [RPM], 3.5 [mm/s]
G1 F7800
G1 X-41.76 Y-75.7 E0
G1 F210
G1 X-41.76 Y-75.7 Z0.125 E0.0304
G1 X-41.76 Y-75.7 Z0.25 E0.0303
;
; 'Pillar', 40.8 [RPM], 3.5 [mm/s]
G1 F7800
G1 X-39.64 Y-73.58 E0
G1 F210
G1 X-39.64 Y-73.58 Z0.125 E0.0303
G1 X-39.64 Y-73.58 Z0.25 E0.0304
;
; 'Pillar', 40.8 [RPM], 3.5 [mm/s]
G1 F7800
G1 X-43.88 Y-73.58 E0
G1 F210
G1 X-43.88 Y-73.58 Z0.125 E0.0303
G1 X-43.88 Y-73.58 Z0.25 E0.0303
;
; 'Pillar', 40.8 [RPM], 3.5 [mm/s]
G1 F7800
G1 X-46 Y-75.7 E0
G1 F210
G1 X-46 Y-75.7 Z0.125 E0.0304
G1 X-46 Y-75.7 Z0.25 E0.0303
;
; 'Pillar', 40.8 [RPM], 3.5 [mm/s]
G1 F7800
G1 X-48.12 Y-73.58 E0
G1 F210
G1 X-48.12 Y-73.58 Z0.125 E0.0303
G1 X-48.12 Y-73.58 Z0.25 E0.0304
;
; 'Pillar', 40.8 [RPM], 3.5 [mm/s]
G1 F7800
G1 X-50.24 Y-75.7 E0
G1 F210
G1 X-50.24 Y-75.7 Z0.125 E0.0303
G1 X-50.24 Y-75.7 Z0.25 E0.0303
;
; 'Pillar', 40.8 [RPM], 3.5 [mm/s]
G1 F7800
G1 X-48.12 Y-77.82 E0
G1 F210
G1 X-48.12 Y-77.82 Z0.125 E0.0304
G1 X-48.12 Y-77.82 Z0.25 E0.0303
;
; 'Pillar', 40.8 [RPM], 3.5 [mm/s]
G1 F7800
G1 X-50.24 Y-79.94 E0
G1 F210
G1 X-50.24 Y-79.94 Z0.125 E0.0304
G1 X-50.24 Y-79.94 Z0.25 E0.0303
;
; 'Pillar', 40.8 [RPM], 3.5 [mm/s]
G1 F7800
G1 X-52.36 Y-77.82 E0
G1 F210
G1 X-52.36 Y-77.82 Z0.125 E0.0303
G1 X-52.36 Y-77.82 Z0.25 E0.0304
;
; 'Pillar', 40.8 [RPM], 3.5 [mm/s]
G1 F7800
G1 X-54.49 Y-75.7 E0
G1 F210
G1 X-54.49 Y-75.7 Z0.125 E0.0303
G1 X-54.49 Y-75.7 Z0.25 E0.0303
;
; 'Pillar', 40.8 [RPM], 3.5 [mm/s]
G1 F7800
G1 X-56.61 Y-73.58 E0
G1 F210
G1 X-56.61 Y-73.58 Z0.125 E0.0304
G1 X-56.61 Y-73.58 Z0.25 E0.0303
;
; 'Pillar', 40.8 [RPM], 3.5 [mm/s]
G1 F7800
G1 X-58.73 Y-71.46 E0
G1 F210
G1 X-58.73 Y-71.46 Z0.125 E0.0303
G1 X-58.73 Y-71.46 Z0.25 E0.0304
;
; 'Pillar', 40.8 [RPM], 3.5 [mm/s]
G1 F7800
G1 X-60.85 Y-69.33 E0
G1 F210
G1 X-60.85 Y-69.33 Z0.125 E0.0303
G1 X-60.85 Y-69.33 Z0.25 E0.0303
;
; 'Pillar', 40.8 [RPM], 3.5 [mm/s]
G1 F7800
G1 X-62.97 Y-67.21 E0
G1 F210
G1 X-62.97 Y-67.21 Z0.125 E0.0304
G1 X-62.97 Y-67.21 Z0.25 E0.0303
;
; 'Pillar', 40.8 [RPM], 3.5 [mm/s]
G1 F7800
G1 X-65.09 Y-65.09 E0
G1 F210
G1 X-65.09 Y-65.09 Z0.125 E0.0303
G1 X-65.09 Y-65.09 Z0.25 E0.0304
;
; 'Pillar', 40.8 [RPM], 3.5 [mm/s]
G1 F7800
G1 X-67.21 Y-62.97 E0
G1 F210
G1 X-67.21 Y-62.97 Z0.125 E0.0303
G1 X-67.21 Y-62.97 Z0.25 E0.0303
;
; 'Pillar', 40.8 [RPM], 3.5 [mm/s]
G1 F7800
G1 X-69.33 Y-60.85 E0
G1 F210
G1 X-69.33 Y-60.85 Z0.125 E0.0304
G1 X-69.33 Y-60.85 Z0.25 E0.0303
;
; 'Pillar', 40.8 [RPM], 3.5 [mm/s]
G1 F7800
G1 X-71.46 Y-58.73 E0
G1 F210
G1 X-71.46 Y-58.73 Z0.125 E0.0303
G1 X-71.46 Y-58.73 Z0.25 E0.0304
;
; 'Pillar', 40.8 [RPM], 3.5 [mm/s]
G1 F7800
G1 X-73.58 Y-56.61 E0
G1 F210
G1 X-73.58 Y-56.61 Z0.125 E0.0303
G1 X-73.58 Y-56.61 Z0.25 E0.0303
;
; 'Pillar', 40.8 [RPM], 3.5 [mm/s]
G1 F7800
G1 X-75.7 Y-54.49 E0
G1 F210
G1 X-75.7 Y-54.49 Z0.125 E0.0304
G1 X-75.7 Y-54.49 Z0.25 E0.0303
;
; 'Pillar', 40.8 [RPM], 3.5 [mm/s]
G1 F7800
G1 X-77.82 Y-52.36 E0
G1 F210
G1 X-77.82 Y-52.36 Z0.125 E0.0303
G1 X-77.82 Y-52.36 Z0.25 E0.0304
;
; 'Pillar', 40.8 [RPM], 3.5 [mm/s]
G1 F7800
G1 X-79.94 Y-50.24 E0
G1 F210
G1 X-79.94 Y-50.24 Z0.125 E0.0303
G1 X-79.94 Y-50.24 Z0.25 E0.0303
;
; 'Pillar', 40.8 [RPM], 3.5 [mm/s]
G1 F7800
G1 X-82.06 Y-48.12 E0
G1 F210
G1 X-82.06 Y-48.12 Z0.125 E0.0304
G1 X-82.06 Y-48.12 Z0.25 E0.0303
;
; 'Pillar', 40.8 [RPM], 3.5 [mm/s]
G1 F7800
G1 X-79.94 Y-46 E0
G1 F210
G1 X-79.94 Y-46 Z0.125 E0.0303
G1 X-79.94 Y-46 Z0.25 E0.0304
;
; 'Pillar', 40.8 [RPM], 3.5 [mm/s]
G1 F7800
G1 X-77.82 Y-43.88 E0
G1 F210
G1 X-77.82 Y-43.88 Z0.125 E0.0303
G1 X-77.82 Y-43.88 Z0.25 E0.0304
;
; 'Pillar', 40.8 [RPM], 3.5 [mm/s]
G1 F7800
G1 X-75.7 Y-41.76 E0
G1 F210
G1 X-75.7 Y-41.76 Z0.125 E0.0303
G1 X-75.7 Y-41.76 Z0.25 E0.0303
;
; 'Pillar', 40.8 [RPM], 3.5 [mm/s]
G1 F7800
G1 X-73.58 Y-39.64 E0
G1 F210
G1 X-73.58 Y-39.64 Z0.125 E0.0304
G1 X-73.58 Y-39.64 Z0.25 E0.0303
;
; 'Pillar', 40.8 [RPM], 3.5 [mm/s]
G1 F7800
G1 X-73.58 Y-43.88 E0
G1 F210
G1 X-73.58 Y-43.88 Z0.125 E0.0303
G1 X-73.58 Y-43.88 Z0.25 E0.0304
;
; 'Pillar', 40.8 [RPM], 3.5 [mm/s]
G1 F7800
G1 X-75.7 Y-46 E0
G1 F210
G1 X-75.7 Y-46 Z0.125 E0.0303
G1 X-75.7 Y-46 Z0.25 E0.0303
;
; 'Pillar', 40.8 [RPM], 3.5 [mm/s]
G1 F7800
G1 X-73.58 Y-48.12 E0
G1 F210
G1 X-73.58 Y-48.12 Z0.125 E0.0304
G1 X-73.58 Y-48.12 Z0.25 E0.0303
;
; 'Pillar', 40.8 [RPM], 3.5 [mm/s]
G1 F7800
G1 X-75.7 Y-50.24 E0
G1 F210
G1 X-75.7 Y-50.24 Z0.125 E0.0303
G1 X-75.7 Y-50.24 Z0.25 E0.0304
;
; 'Pillar', 40.8 [RPM], 3.5 [mm/s]
G1 F7800
G1 X-73.58 Y-52.36 E0
G1 F210
G1 X-73.58 Y-52.36 Z0.125 E0.0303
G1 X-73.58 Y-52.36 Z0.25 E0.0303
;
; 'Pillar', 40.8 [RPM], 3.5 [mm/s]
G1 F7800
G1 X-77.82 Y-48.12 E0
G1 F210
G1 X-77.82 Y-48.12 Z0.125 E0.0304
G1 X-77.82 Y-48.12 Z0.25 E0.0303
;
; 'Pillar', 40.8 [RPM], 3.5 [mm/s]
G1 F7800
G1 X-84.18 Y-54.49 E0
G1 F210
G1 X-84.18 Y-54.49 Z0.125 E0.0303
G1 X-84.18 Y-54.49 Z0.25 E0.0304
;
; 'Pillar', 40.8 [RPM], 3.5 [mm/s]
G1 F7800
G1 X-86.31 Y-56.61 E0
G1 F210
G1 X-86.31 Y-56.61 Z0.125 E0.0303
G1 X-86.31 Y-56.61 Z0.25 E0.0303
;
; 'Pillar', 40.8 [RPM], 3.5 [mm/s]
G1 F7800
G1 X-84.18 Y-58.73 E0
G1 F210
G1 X-84.18 Y-58.73 Z0.125 E0.0304
G1 X-84.18 Y-58.73 Z0.25 E0.0303
;
; 'Pillar', 40.8 [RPM], 3.5 [mm/s]
G1 F7800
G1 X-82.06 Y-60.85 E0
G1 F210
G1 X-82.06 Y-60.85 Z0.125 E0.0303
G1 X-82.06 Y-60.85 Z0.25 E0.0304
;
; 'Pillar', 40.8 [RPM], 3.5 [mm/s]
G1 F7800
G1 X-79.94 Y-62.97 E0
G1 F210
G1 X-79.94 Y-62.97 Z0.125 E0.0303
G1 X-79.94 Y-62.97 Z0.25 E0.0303
;
; 'Pillar', 40.8 [RPM], 3.5 [mm/s]
G1 F7800
G1 X-82.06 Y-65.09 E0
G1 F210
G1 X-82.06 Y-65.09 Z0.125 E0.0304
G1 X-82.06 Y-65.09 Z0.25 E0.0303
;
; 'Pillar', 40.8 [RPM], 3.5 [mm/s]
G1 F7800
G1 X-79.94 Y-67.21 E0
G1 F210
G1 X-79.94 Y-67.21 Z0.125 E0.0303
G1 X-79.94 Y-67.21 Z0.25 E0.0304
;
; 'Pillar', 40.8 [RPM], 3.5 [mm/s]
G1 F7800
G1 X-77.82 Y-69.33 E0
G1 F210
G1 X-77.82 Y-69.33 Z0.125 E0.0303
G1 X-77.82 Y-69.33 Z0.25 E0.0303
;
; 'Pillar', 40.8 [RPM], 3.5 [mm/s]
G1 F7800
G1 X-75.7 Y-71.46 E0
G1 F210
G1 X-75.7 Y-71.46 Z0.125 E0.0304
G1 X-75.7 Y-71.46 Z0.25 E0.0303
;
; 'Pillar', 40.8 [RPM], 3.5 [mm/s]
G1 F7800
G1 X-73.58 Y-73.58 E0
G1 F210
G1 X-73.58 Y-73.58 Z0.125 E0.0303
G1 X-73.58 Y-73.58 Z0.25 E0.0304
;
; 'Pillar', 40.8 [RPM], 3.5 [mm/s]
G1 F7800
G1 X-71.46 Y-75.7 E0
G1 F210
G1 X-71.46 Y-75.7 Z0.125 E0.0303
G1 X-71.46 Y-75.7 Z0.25 E0.0304
;
; 'Pillar', 40.8 [RPM], 3.5 [mm/s]
G1 F7800
G1 X-69.33 Y-77.82 E0
G1 F210
G1 X-69.33 Y-77.82 Z0.125 E0.0303
G1 X-69.33 Y-77.82 Z0.25 E0.0303
;
; 'Pillar', 40.8 [RPM], 3.5 [mm/s]
G1 F7800
G1 X-67.21 Y-79.94 E0
G1 F210
G1 X-67.21 Y-79.94 Z0.125 E0.0304
G1 X-67.21 Y-79.94 Z0.25 E0.0303
;
; 'Pillar', 40.8 [RPM], 3.5 [mm/s]
G1 F7800
G1 X-65.09 Y-82.06 E0
G1 F210
G1 X-65.09 Y-82.06 Z0.125 E0.0303
G1 X-65.09 Y-82.06 Z0.25 E0.0304
;
; 'Pillar', 40.8 [RPM], 3.5 [mm/s]
G1 F7800
G1 X-62.97 Y-84.18 E0
G1 F210
G1 X-62.97 Y-84.18 Z0.125 E0.0303
G1 X-62.97 Y-84.18 Z0.25 E0.0303
;
; 'Pillar', 40.8 [RPM], 3.5 [mm/s]
G1 F7800
G1 X-60.85 Y-82.06 E0
G1 F210
G1 X-60.85 Y-82.06 Z0.125 E0.0304
G1 X-60.85 Y-82.06 Z0.25 E0.0303
;
; 'Pillar', 40.8 [RPM], 3.5 [mm/s]
G1 F7800
G1 X-58.73 Y-79.94 E0
G1 F210
G1 X-58.73 Y-79.94 Z0.125 E0.0303
G1 X-58.73 Y-79.94 Z0.25 E0.0304
;
; 'Pillar', 40.8 [RPM], 3.5 [mm/s]
G1 F7800
G1 X-56.61 Y-82.06 E0
G1 F210
G1 X-56.61 Y-82.06 Z0.125 E0.0303
G1 X-56.61 Y-82.06 Z0.25 E0.0303
;
; 'Pillar', 40.8 [RPM], 3.5 [mm/s]
G1 F7800
G1 X-58.73 Y-84.18 E0
G1 F210
G1 X-58.73 Y-84.18 Z0.125 E0.0304
G1 X-58.73 Y-84.18 Z0.25 E0.0303
;
; 'Pillar', 40.8 [RPM], 3.5 [mm/s]
G1 F7800
G1 X-56.61 Y-86.31 E0
G1 F210
G1 X-56.61 Y-86.31 Z0.125 E0.0303
G1 X-56.61 Y-86.31 Z0.25 E0.0304
;
; 'Pillar', 40.8 [RPM], 3.5 [mm/s]
G1 F7800
G1 X-62.97 Y-79.94 E0
G1 F210
G1 X-62.97 Y-79.94 Z0.125 E0.0303
G1 X-62.97 Y-79.94 Z0.25 E0.0303
;
; 'Pillar', 40.8 [RPM], 3.5 [mm/s]
G1 F7800
G1 X-65.09 Y-77.82 E0
G1 F210
G1 X-65.09 Y-77.82 Z0.125 E0.0304
G1 X-65.09 Y-77.82 Z0.25 E0.0303
;
; 'Pillar', 40.8 [RPM], 3.5 [mm/s]
G1 F7800
G1 X-67.21 Y-75.7 E0
G1 F210
G1 X-67.21 Y-75.7 Z0.125 E0.0303
G1 X-67.21 Y-75.7 Z0.25 E0.0304
;
; 'Pillar', 40.8 [RPM], 3.5 [mm/s]
G1 F7800
G1 X-69.33 Y-73.58 E0
G1 F210
G1 X-69.33 Y-73.58 Z0.125 E0.0303
G1 X-69.33 Y-73.58 Z0.25 E0.0303
;
; 'Pillar', 40.8 [RPM], 3.5 [mm/s]
G1 F7800
G1 X-71.46 Y-71.46 E0
G1 F210
G1 X-71.46 Y-71.46 Z0.125 E0.0304
G1 X-71.46 Y-71.46 Z0.25 E0.0303
;
; 'Pillar', 40.8 [RPM], 3.5 [mm/s]
G1 F7800
G1 X-73.58 Y-69.33 E0
G1 F210
G1 X-73.58 Y-69.33 Z0.125 E0.0303
G1 X-73.58 Y-69.33 Z0.25 E0.0304
;
; 'Pillar', 40.8 [RPM], 3.5 [mm/s]
G1 F7800
G1 X-75.7 Y-67.21 E0
G1 F210
G1 X-75.7 Y-67.21 Z0.125 E0.0303
G1 X-75.7 Y-67.21 Z0.25 E0.0303
;
; 'Pillar', 40.8 [RPM], 3.5 [mm/s]
G1 F7800
G1 X-77.82 Y-65.09 E0
G1 F210
G1 X-77.82 Y-65.09 Z0.125 E0.0304
G1 X-77.82 Y-65.09 Z0.25 E0.0303
;
; 'Pillar', 40.8 [RPM], 3.5 [mm/s]
G1 F7800
G1 X-75.7 Y-62.97 E0
G1 F210
G1 X-75.7 Y-62.97 Z0.125 E0.0304
G1 X-75.7 Y-62.97 Z0.25 E0.0303
;
; 'Pillar', 40.8 [RPM], 3.5 [mm/s]
G1 F7800
G1 X-73.58 Y-65.09 E0
G1 F210
G1 X-73.58 Y-65.09 Z0.125 E0.0303
G1 X-73.58 Y-65.09 Z0.25 E0.0304
;
; 'Pillar', 40.8 [RPM], 3.5 [mm/s]
G1 F7800
G1 X-71.46 Y-67.21 E0
G1 F210
G1 X-71.46 Y-67.21 Z0.125 E0.0303
G1 X-71.46 Y-67.21 Z0.25 E0.0303
;
; 'Pillar', 40.8 [RPM], 3.5 [mm/s]
G1 F7800
G1 X-69.33 Y-69.33 E0
G1 F210
G1 X-69.33 Y-69.33 Z0.125 E0.0304
G1 X-69.33 Y-69.33 Z0.25 E0.0303
;
; 'Pillar', 40.8 [RPM], 3.5 [mm/s]
G1 F7800
G1 X-67.21 Y-71.46 E0
G1 F210
G1 X-67.21 Y-71.46 Z0.125 E0.0303
G1 X-67.21 Y-71.46 Z0.25 E0.0304
;
; 'Pillar', 40.8 [RPM], 3.5 [mm/s]
G1 F7800
G1 X-65.09 Y-73.58 E0
G1 F210
G1 X-65.09 Y-73.58 Z0.125 E0.0303
G1 X-65.09 Y-73.58 Z0.25 E0.0303
;
; 'Pillar', 40.8 [RPM], 3.5 [mm/s]
G1 F7800
G1 X-62.97 Y-75.7 E0
G1 F210
G1 X-62.97 Y-75.7 Z0.125 E0.0304
G1 X-62.97 Y-75.7 Z0.25 E0.0303
;
; 'Pillar', 40.8 [RPM], 3.5 [mm/s]
G1 F7800
G1 X-60.85 Y-77.82 E0
G1 F210
G1 X-60.85 Y-77.82 Z0.125 E0.0303
G1 X-60.85 Y-77.82 Z0.25 E0.0304
;
; 'Pillar', 40.8 [RPM], 3.5 [mm/s]
G1 F7800
G1 X-52.36 Y-73.58 E0
G1 F210
G1 X-52.36 Y-73.58 Z0.125 E0.0303
G1 X-52.36 Y-73.58 Z0.25 E0.0303
;
; 'Pillar', 40.8 [RPM], 3.5 [mm/s]
G1 F7800
G1 X-58.73 Y-62.97 E0
G1 F210
G1 X-58.73 Y-62.97 Z0.125 E0.0304
G1 X-58.73 Y-62.97 Z0.25 E0.0303
;
; 'Pillar', 40.8 [RPM], 3.5 [mm/s]
G1 F7800
G1 X-60.85 Y-65.09 E0
G1 F210
G1 X-60.85 Y-65.09 Z0.125 E0.0303
G1 X-60.85 Y-65.09 Z0.25 E0.0304
;
; 'Pillar', 40.8 [RPM], 3.5 [mm/s]
G1 F7800
G1 X-58.73 Y-67.21 E0
G1 F210
G1 X-58.73 Y-67.21 Z0.125 E0.0303
G1 X-58.73 Y-67.21 Z0.25 E0.0303
;
; 'Pillar', 40.8 [RPM], 3.5 [mm/s]
G1 F7800
G1 X-62.97 Y-62.97 E0
G1 F210
G1 X-62.97 Y-62.97 Z0.125 E0.0304
G1 X-62.97 Y-62.97 Z0.25 E0.0303
;
; 'Pillar', 40.8 [RPM], 3.5 [mm/s]
G1 F7800
G1 X-65.09 Y-60.85 E0
G1 F210
G1 X-65.09 Y-60.85 Z0.125 E0.0303
G1 X-65.09 Y-60.85 Z0.25 E0.0304
;
; 'Pillar', 40.8 [RPM], 3.5 [mm/s]
G1 F7800
G1 X-67.21 Y-58.73 E0
G1 F210
G1 X-67.21 Y-58.73 Z0.125 E0.0303
G1 X-67.21 Y-58.73 Z0.25 E0.0303
;
; 'Pillar', 40.8 [RPM], 3.5 [mm/s]
G1 F7800
G1 X-62.97 Y-58.73 E0
G1 F210
G1 X-62.97 Y-58.73 Z0.125 E0.0304
G1 X-62.97 Y-58.73 Z0.25 E0.0303
;
; 'Pillar', 40.8 [RPM], 3.5 [mm/s]
G1 F7800
G1 X-60.85 Y-60.85 E0
G1 F210
G1 X-60.85 Y-60.85 Z0.125 E0.0303
G1 X-60.85 Y-60.85 Z0.25 E0.0304
;
; 'Pillar', 40.8 [RPM], 3.5 [mm/s]
G1 F7800
G1 X-77.82 Y-60.85 E0
G1 F210
G1 X-77.82 Y-60.85 Z0.125 E0.0303
G1 X-77.82 Y-60.85 Z0.25 E0.0303
;
; 'Pillar', 40.8 [RPM], 3.5 [mm/s]
G1 F7800
G1 X-79.94 Y-58.73 E0
G1 F210
G1 X-79.94 Y-58.73 Z0.125 E0.0304
G1 X-79.94 Y-58.73 Z0.25 E0.0303
;
; 'Pillar', 40.8 [RPM], 3.5 [mm/s]
G1 F7800
G1 X-82.06 Y-56.61 E0
G1 F210
G1 X-82.06 Y-56.61 Z0.125 E0.0304
G1 X-82.06 Y-56.61 Z0.25 E0.0303
;
; 'Pillar', 40.8 [RPM], 3.5 [mm/s]
G1 F7800
G1 X-86.31 Y-52.36 E0
G1 F210
G1 X-86.31 Y-52.36 Z0.125 E0.0303
G1 X-86.31 Y-52.36 Z0.25 E0.0304
;
; 'Pillar', 40.8 [RPM], 3.5 [mm/s]
G1 F7800
G1 X-88.43 Y-50.24 E0
G1 F210
G1 X-88.43 Y-50.24 Z0.125 E0.0303
G1 X-88.43 Y-50.24 Z0.25 E0.0303
;
; 'Pillar', 40.8 [RPM], 3.5 [mm/s]
G1 F7800
G1 X-88.43 Y-41.76 E0
G1 F210
G1 X-88.43 Y-41.76 Z0.125 E0.0304
G1 X-88.43 Y-41.76 Z0.25 E0.0303
;
; 'Pillar', 40.8 [RPM], 3.5 [mm/s]
G1 F7800
G1 X-86.31 Y-39.64 E0
G1 F210
G1 X-86.31 Y-39.64 Z0.125 E0.0303
G1 X-86.31 Y-39.64 Z0.25 E0.0304
;
; 'Pillar', 40.8 [RPM], 3.5 [mm/s]
G1 F7800
G1 X-84.18 Y-37.51 E0
G1 F210
G1 X-84.18 Y-37.51 Z0.125 E0.0303
G1 X-84.18 Y-37.51 Z0.25 E0.0303
;
; 'Pillar', 40.8 [RPM], 3.5 [mm/s]
G1 F7800
G1 X-82.06 Y-35.39 E0
G1 F210
G1 X-82.06 Y-35.39 Z0.125 E0.0304
G1 X-82.06 Y-35.39 Z0.25 E0.0303
;
; 'Pillar', 40.8 [RPM], 3.5 [mm/s]
G1 F7800
G1 X-79.94 Y-33.27 E0
G1 F210
G1 X-79.94 Y-33.27 Z0.125 E0.0303
G1 X-79.94 Y-33.27 Z0.25 E0.0304
;
; 'Pillar', 40.8 [RPM], 3.5 [mm/s]
G1 F7800
G1 X-77.82 Y-31.15 E0
G1 F210
G1 X-77.82 Y-31.15 Z0.125 E0.0303
G1 X-77.82 Y-31.15 Z0.25 E0.0303
;
; 'Pillar', 40.8 [RPM], 3.5 [mm/s]
G1 F7800
G1 X-75.7 Y-29.03 E0
G1 F210
G1 X-75.7 Y-29.03 Z0.125 E0.0304
G1 X-75.7 Y-29.03 Z0.25 E0.0303
;
; 'Pillar', 40.8 [RPM], 3.5 [mm/s]
G1 F7800
G1 X-73.58 Y-26.91 E0
G1 F210
G1 X-73.58 Y-26.91 Z0.125 E0.0303
G1 X-73.58 Y-26.91 Z0.25 E0.0304
;
; 'Pillar', 40.8 [RPM], 3.5 [mm/s]
G1 F7800
G1 X-71.46 Y-24.79 E0
G1 F210
G1 X-71.46 Y-24.79 Z0.125 E0.0303
G1 X-71.46 Y-24.79 Z0.25 E0.0303
;
; 'Pillar', 40.8 [RPM], 3.5 [mm/s]
G1 F7800
G1 X-69.33 Y-22.67 E0
G1 F210
G1 X-69.33 Y-22.67 Z0.125 E0.0304
G1 X-69.33 Y-22.67 Z0.25 E0.0303
;
; 'Pillar', 40.8 [RPM], 3.5 [mm/s]
G1 F7800
G1 X-67.21 Y-20.54 E0
G1 F210
G1 X-67.21 Y-20.54 Z0.125 E0.0303
G1 X-67.21 Y-20.54 Z0.25 E0.0304
;
; 'Pillar', 40.8 [RPM], 3.5 [mm/s]
G1 F7800
G1 X-65.09 Y-18.42 E0
G1 F210
G1 X-65.09 Y-18.42 Z0.125 E0.0303
G1 X-65.09 Y-18.42 Z0.25 E0.0303
;
; 'Pillar', 40.8 [RPM], 3.5 [mm/s]
G1 F7800
G1 X-62.97 Y-16.3 E0
G1 F210
G1 X-62.97 Y-16.3 Z0.125 E0.0304
G1 X-62.97 Y-16.3 Z0.25 E0.0303
;
; 'Pillar', 40.8 [RPM], 3.5 [mm/s]
G1 F7800
G1 X-60.85 Y-14.18 E0
G1 F210
G1 X-60.85 Y-14.18 Z0.125 E0.0303
G1 X-60.85 Y-14.18 Z0.25 E0.0304
;
; 'Pillar', 40.8 [RPM], 3.5 [mm/s]
G1 F7800
G1 X-58.73 Y-12.06 E0
G1 F210
G1 X-58.73 Y-12.06 Z0.125 E0.0303
G1 X-58.73 Y-12.06 Z0.25 E0.0304
;
; 'Pillar', 40.8 [RPM], 3.5 [mm/s]
G1 F7800
G1 X-56.61 Y-9.94 E0
G1 F210
G1 X-56.61 Y-9.94 Z0.125 E0.0303
G1 X-56.61 Y-9.94 Z0.25 E0.0303
;
; 'Pillar', 40.8 [RPM], 3.5 [mm/s]
G1 F7800
G1 X-54.49 Y-7.82 E0
G1 F210
G1 X-54.49 Y-7.82 Z0.125 E0.0304
G1 X-54.49 Y-7.82 Z0.25 E0.0303
;
; 'Pillar', 40.8 [RPM], 3.5 [mm/s]
G1 F7800
G1 X-52.36 Y-5.69 E0
G1 F210
G1 X-52.36 Y-5.69 Z0.125 E0.0303
G1 X-52.36 Y-5.69 Z0.25 E0.0304
;
; 'Pillar', 40.8 [RPM], 3.5 [mm/s]
G1 F7800
G1 X-50.24 Y-3.57 E0
G1 F210
G1 X-50.24 Y-3.57 Z0.125 E0.0303
G1 X-50.24 Y-3.57 Z0.25 E0.0303
;
; 'Pillar', 40.8 [RPM], 3.5 [mm/s]
G1 F7800
G1 X-41.76 Y-7.82 E0
G1 F210
G1 X-41.76 Y-7.82 Z0.125 E0.0304
G1 X-41.76 Y-7.82 Z0.25 E0.0303
;
; 'Pillar', 40.8 [RPM], 3.5 [mm/s]
G1 F7800
G1 X-39.64 Y-5.69 E0
G1 F210
G1 X-39.64 Y-5.69 Z0.125 E0.0303
G1 X-39.64 Y-5.69 Z0.25 E0.0304
;
; 'Pillar', 40.8 [RPM], 3.5 [mm/s]
G1 F7800
G1 X-35.39 Y-5.69 E0
G1 F210
G1 X-35.39 Y-5.69 Z0.125 E0.0303
G1 X-35.39 Y-5.69 Z0.25 E0.0303
;
; 'Pillar', 40.8 [RPM], 3.5 [mm/s]
G1 F7800
G1 X-37.51 Y-7.82 E0
G1 F210
G1 X-37.51 Y-7.82 Z0.125 E0.0304
G1 X-37.51 Y-7.82 Z0.25 E0.0303
;
; 'Pillar', 40.8 [RPM], 3.5 [mm/s]
G1 F7800
G1 X-39.64 Y-9.94 E0
G1 F210
G1 X-39.64 Y-9.94 Z0.125 E0.0303
G1 X-39.64 Y-9.94 Z0.25 E0.0304
;
; 'Pillar', 40.8 [RPM], 3.5 [mm/s]
G1 F7800
G1 X-41.76 Y-12.06 E0
G1 F210
G1 X-41.76 Y-12.06 Z0.125 E0.0303
G1 X-41.76 Y-12.06 Z0.25 E0.0303
;
; 'Pillar', 40.8 [RPM], 3.5 [mm/s]
G1 F7800
G1 X-43.88 Y-14.18 E0
G1 F210
G1 X-43.88 Y-14.18 Z0.125 E0.0304
G1 X-43.88 Y-14.18 Z0.25 E0.0303
;
; 'Pillar', 40.8 [RPM], 3.5 [mm/s]
G1 F7800
G1 X-46 Y-16.3 E0
G1 F210
G1 X-46 Y-16.3 Z0.125 E0.0303
G1 X-46 Y-16.3 Z0.25 E0.0304
;
; 'Pillar', 40.8 [RPM], 3.5 [mm/s]
G1 F7800
G1 X-48.12 Y-18.42 E0
G1 F210
G1 X-48.12 Y-18.42 Z0.125 E0.0303
G1 X-48.12 Y-18.42 Z0.25 E0.0303
;
; 'Pillar', 40.8 [RPM], 3.5 [mm/s]
G1 F7800
G1 X-50.24 Y-16.3 E0
G1 F210
G1 X-50.24 Y-16.3 Z0.125 E0.0304
G1 X-50.24 Y-16.3 Z0.25 E0.0303
;
; 'Pillar', 40.8 [RPM], 3.5 [mm/s]
G1 F7800
G1 X-52.36 Y-18.42 E0
G1 F210
G1 X-52.36 Y-18.42 Z0.125 E0.0303
G1 X-52.36 Y-18.42 Z0.25 E0.0304
;
; 'Pillar', 40.8 [RPM], 3.5 [mm/s]
G1 F7800
G1 X-58.73 Y-24.79 E0
G1 F210
G1 X-58.73 Y-24.79 Z0.125 E0.0303
G1 X-58.73 Y-24.79 Z0.25 E0.0303
;
; 'Pillar', 40.8 [RPM], 3.5 [mm/s]
G1 F7800
G1 X-60.85 Y-26.91 E0
G1 F210
G1 X-60.85 Y-26.91 Z0.125 E0.0304
G1 X-60.85 Y-26.91 Z0.25 E0.0303
;
; 'Pillar', 40.8 [RPM], 3.5 [mm/s]
G1 F7800
G1 X-62.97 Y-29.03 E0
G1 F210
G1 X-62.97 Y-29.03 Z0.125 E0.0303
G1 X-62.97 Y-29.03 Z0.25 E0.0304
;
; 'Pillar', 40.8 [RPM], 3.5 [mm/s]
G1 F7800
G1 X-65.09 Y-31.15 E0
G1 F210
G1 X-65.09 Y-31.15 Z0.125 E0.0303
G1 X-65.09 Y-31.15 Z0.25 E0.0304
;
; 'Pillar', 40.8 [RPM], 3.5 [mm/s]
G1 F7800
G1 X-67.21 Y-33.27 E0
G1 F210
G1 X-67.21 Y-33.27 Z0.125 E0.0303
G1 X-67.21 Y-33.27 Z0.25 E0.0303
;
; 'Pillar', 40.8 [RPM], 3.5 [mm/s]
G1 F7800
G1 X-62.97 Y-33.27 E0
G1 F210
G1 X-62.97 Y-33.27 Z0.125 E0.0304
G1 X-62.97 Y-33.27 Z0.25 E0.0303
;
; 'Pillar', 40.8 [RPM], 3.5 [mm/s]
G1 F7800
G1 X-60.85 Y-31.15 E0
G1 F210
G1 X-60.85 Y-31.15 Z0.125 E0.0303
G1 X-60.85 Y-31.15 Z0.25 E0.0304
;
; 'Pillar', 40.8 [RPM], 3.5 [mm/s]
G1 F7800
G1 X-58.73 Y-29.03 E0
G1 F210
G1 X-58.73 Y-29.03 Z0.125 E0.0303
G1 X-58.73 Y-29.03 Z0.25 E0.0303
;
; 'Pillar', 40.8 [RPM], 3.5 [mm/s]
G1 F7800
G1 X-67.21 Y-16.3 E0
G1 F210
G1 X-67.21 Y-16.3 Z0.125 E0.0304
G1 X-67.21 Y-16.3 Z0.25 E0.0303
;
; 'Pillar', 40.8 [RPM], 3.5 [mm/s]
G1 F7800
G1 X-65.09 Y-14.18 E0
G1 F210
G1 X-65.09 Y-14.18 Z0.125 E0.0303
G1 X-65.09 Y-14.18 Z0.25 E0.0304
;
; 'Pillar', 40.8 [RPM], 3.5 [mm/s]
G1 F7800
G1 X-62.97 Y-12.06 E0
G1 F210
G1 X-62.97 Y-12.06 Z0.125 E0.0303
G1 X-62.97 Y-12.06 Z0.25 E0.0303
;
; 'Pillar', 40.8 [RPM], 3.5 [mm/s]
G1 F7800
G1 X-60.85 Y-9.94 E0
G1 F210
G1 X-60.85 Y-9.94 Z0.125 E0.0304
G1 X-60.85 Y-9.94 Z0.25 E0.0303
;
; 'Pillar', 40.8 [RPM], 3.5 [mm/s]
G1 F7800
G1 X-58.73 Y-7.82 E0
G1 F210
G1 X-58.73 Y-7.82 Z0.125 E0.0303
G1 X-58.73 Y-7.82 Z0.25 E0.0304
;
; 'Pillar', 40.8 [RPM], 3.5 [mm/s]
G1 F7800
G1 X-56.61 Y-5.69 E0
G1 F210
G1 X-56.61 Y-5.69 Z0.125 E0.0303
G1 X-56.61 Y-5.69 Z0.25 E0.0303
;
; 'Pillar', 40.8 [RPM], 3.5 [mm/s]
G1 F7800
G1 X-62.97 Y-7.82 E0
G1 F210
G1 X-62.97 Y-7.82 Z0.125 E0.0304
G1 X-62.97 Y-7.82 Z0.25 E0.0303
;
; 'Pillar', 40.8 [RPM], 3.5 [mm/s]
G1 F7800
G1 X-65.09 Y-9.94 E0
G1 F210
G1 X-65.09 Y-9.94 Z0.125 E0.0303
G1 X-65.09 Y-9.94 Z0.25 E0.0304
;
; 'Pillar', 40.8 [RPM], 3.5 [mm/s]
G1 F7800
G1 X-67.21 Y-12.06 E0
G1 F210
G1 X-67.21 Y-12.06 Z0.125 E0.0303
G1 X-67.21 Y-12.06 Z0.25 E0.0303
;
; 'Pillar', 40.8 [RPM], 3.5 [mm/s]
G1 F7800
G1 X-69.33 Y-14.18 E0
G1 F210
G1 X-69.33 Y-14.18 Z0.125 E0.0304
G1 X-69.33 Y-14.18 Z0.25 E0.0303
;
; 'Pillar', 40.8 [RPM], 3.5 [mm/s]
G1 F7800
G1 X-71.46 Y-16.3 E0
G1 F210
G1 X-71.46 Y-16.3 Z0.125 E0.0303
G1 X-71.46 Y-16.3 Z0.25 E0.0304
;
; 'Pillar', 40.8 [RPM], 3.5 [mm/s]
G1 F7800
G1 X-69.33 Y-18.42 E0
G1 F210
G1 X-69.33 Y-18.42 Z0.125 E0.0303
G1 X-69.33 Y-18.42 Z0.25 E0.0303
;
; 'Pillar', 40.8 [RPM], 3.5 [mm/s]
G1 F7800
G1 X-71.46 Y-20.54 E0
G1 F210
G1 X-71.46 Y-20.54 Z0.125 E0.0304
G1 X-71.46 Y-20.54 Z0.25 E0.0303
;
; 'Pillar', 40.8 [RPM], 3.5 [mm/s]
G1 F7800
G1 X-73.58 Y-22.67 E0
G1 F210
G1 X-73.58 Y-22.67 Z0.125 E0.0304
G1 X-73.58 Y-22.67 Z0.25 E0.0303
;
; 'Pillar', 40.8 [RPM], 3.5 [mm/s]
G1 F7800
G1 X-75.7 Y-20.54 E0
G1 F210
G1 X-75.7 Y-20.54 Z0.125 E0.0303
G1 X-75.7 Y-20.54 Z0.25 E0.0304
;
; 'Pillar', 40.8 [RPM], 3.5 [mm/s]
G1 F7800
G1 X-77.82 Y-22.67 E0
G1 F210
G1 X-77.82 Y-22.67 Z0.125 E0.0303
G1 X-77.82 Y-22.67 Z0.25 E0.0303
;
; 'Pillar', 40.8 [RPM], 3.5 [mm/s]
G1 F7800
G1 X-79.94 Y-24.79 E0
G1 F210
G1 X-79.94 Y-24.79 Z0.125 E0.0304
G1 X-79.94 Y-24.79 Z0.25 E0.0303
;
; 'Pillar', 40.8 [RPM], 3.5 [mm/s]
G1 F7800
G1 X-82.06 Y-26.91 E0
G1 F210
G1 X-82.06 Y-26.91 Z0.125 E0.0303
G1 X-82.06 Y-26.91 Z0.25 E0.0304
;
; 'Pillar', 40.8 [RPM], 3.5 [mm/s]
G1 F7800
G1 X-79.94 Y-29.03 E0
G1 F210
G1 X-79.94 Y-29.03 Z0.125 E0.0303
G1 X-79.94 Y-29.03 Z0.25 E0.0303
;
; 'Pillar', 40.8 [RPM], 3.5 [mm/s]
G1 F7800
G1 X-82.06 Y-31.15 E0
G1 F210
G1 X-82.06 Y-31.15 Z0.125 E0.0304
G1 X-82.06 Y-31.15 Z0.25 E0.0303
;
; 'Pillar', 40.8 [RPM], 3.5 [mm/s]
G1 F7800
G1 X-84.18 Y-33.27 E0
G1 F210
G1 X-84.18 Y-33.27 Z0.125 E0.0303
G1 X-84.18 Y-33.27 Z0.25 E0.0304
;
; 'Pillar', 40.8 [RPM], 3.5 [mm/s]
G1 F7800
G1 X-86.31 Y-35.39 E0
G1 F210
G1 X-86.31 Y-35.39 Z0.125 E0.0303
G1 X-86.31 Y-35.39 Z0.25 E0.0303
;
; 'Pillar', 40.8 [RPM], 3.5 [mm/s]
G1 F7800
G1 X-84.18 Y-29.03 E0
G1 F210
G1 X-84.18 Y-29.03 Z0.125 E0.0304
G1 X-84.18 Y-29.03 Z0.25 E0.0303
;
; 'Pillar', 40.8 [RPM], 3.5 [mm/s]
G1 F7800
G1 X-77.82 Y-26.91 E0
G1 F210
G1 X-77.82 Y-26.91 Z0.125 E0.0303
G1 X-77.82 Y-26.91 Z0.25 E0.0304
;
; 'Pillar', 40.8 [RPM], 3.5 [mm/s]
G1 F7800
G1 X-75.7 Y-24.79 E0
G1 F210
G1 X-75.7 Y-24.79 Z0.125 E0.0303
G1 X-75.7 Y-24.79 Z0.25 E0.0303
;
; 'Pillar', 40.8 [RPM], 3.5 [mm/s]
G1 F7800
G1 X-73.58 Y-18.42 E0
G1 F210
G1 X-73.58 Y-18.42 Z0.125 E0.0304
G1 X-73.58 Y-18.42 Z0.25 E0.0303
;
; 'Pillar', 40.8 [RPM], 3.5 [mm/s]
G1 F7800
G1 X-48.12 Y-14.18 E0
G1 F210
G1 X-48.12 Y-14.18 Z0.125 E0.0303
G1 X-48.12 Y-14.18 Z0.25 E0.0304
;
; 'Pillar', 40.8 [RPM], 3.5 [mm/s]
G1 F7800
G1 X-46 Y-12.06 E0
G1 F210
G1 X-46 Y-12.06 Z0.125 E0.0303
G1 X-46 Y-12.06 Z0.25 E0.0303
;
; 'Pillar', 40.8 [RPM], 3.5 [mm/s]
G1 F7800
G1 X-43.88 Y-9.94 E0
G1 F210
G1 X-43.88 Y-9.94 Z0.125 E0.0304
G1 X-43.88 Y-9.94 Z0.25 E0.0303
;
; 'Pillar', 40.8 [RPM], 3.5 [mm/s]
G1 F7800
G1 X-37.51 Y-12.06 E0
G1 F210
G1 X-37.51 Y-12.06 Z0.125 E0.0303
G1 X-37.51 Y-12.06 Z0.25 E0.0304
;
; 'Pillar', 40.8 [RPM], 3.5 [mm/s]
G1 F7800
G1 X-35.39 Y-9.94 E0
G1 F210
G1 X-35.39 Y-9.94 Z0.125 E0.0303
G1 X-35.39 Y-9.94 Z0.25 E0.0303
;
; 'Pillar', 40.8 [RPM], 3.5 [mm/s]
G1 F7800
G1 X-33.27 Y-7.82 E0
G1 F210
G1 X-33.27 Y-7.82 Z0.125 E0.0304
G1 X-33.27 Y-7.82 Z0.25 E0.0303
;
; 'Pillar', 40.8 [RPM], 3.5 [mm/s]
G1 F7800
G1 X-29.03 Y-7.82 E0
G1 F210
G1 X-29.03 Y-7.82 Z0.125 E0.0304
G1 X-29.03 Y-7.82 Z0.25 E0.0303
;
; 'Pillar', 40.8 [RPM], 3.5 [mm/s]
G1 F7800
G1 X-31.15 Y-9.94 E0
G1 F210
G1 X-31.15 Y-9.94 Z0.125 E0.0303
G1 X-31.15 Y-9.94 Z0.25 E0.0304
;
; 'Pillar', 40.8 [RPM], 3.5 [mm/s]
G1 F7800
G1 X-33.27 Y-12.06 E0
G1 F210
G1 X-33.27 Y-12.06 Z0.125 E0.0303
G1 X-33.27 Y-12.06 Z0.25 E0.0303
;
; 'Pillar', 40.8 [RPM], 3.5 [mm/s]
G1 F7800
G1 X-35.39 Y-14.18 E0
G1 F210
G1 X-35.39 Y-14.18 Z0.125 E0.0304
G1 X-35.39 Y-14.18 Z0.25 E0.0303
;
; 'Pillar', 40.8 [RPM], 3.5 [mm/s]
G1 F7800
G1 X-37.51 Y-16.3 E0
G1 F210
G1 X-37.51 Y-16.3 Z0.125 E0.0303
G1 X-37.51 Y-16.3 Z0.25 E0.0304
;
; 'Pillar', 40.8 [RPM], 3.5 [mm/s]
G1 F7800
G1 X-39.64 Y-18.42 E0
G1 F210
G1 X-39.64 Y-18.42 Z0.125 E0.0303
G1 X-39.64 Y-18.42 Z0.25 E0.0303
;
; 'Pillar', 40.8 [RPM], 3.5 [mm/s]
G1 F7800
G1 X-41.76 Y-16.3 E0
G1 F210
G1 X-41.76 Y-16.3 Z0.125 E0.0304
G1 X-41.76 Y-16.3 Z0.25 E0.0303
;
; 'Pillar', 40.8 [RPM], 3.5 [mm/s]
G1 F7800
G1 X-43.88 Y-18.42 E0
G1 F210
G1 X-43.88 Y-18.42 Z0.125 E0.0303
G1 X-43.88 Y-18.42 Z0.25 E0.0304
;
; 'Pillar', 40.8 [RPM], 3.5 [mm/s]
G1 F7800
G1 X-39.64 Y-14.18 E0
G1 F210
G1 X-39.64 Y-14.18 Z0.125 E0.0303
G1 X-39.64 Y-14.18 Z0.25 E0.0303
;
; 'Pillar', 40.8 [RPM], 3.5 [mm/s]
G1 F7800
G1 X-33.27 Y-16.3 E0
G1 F210
G1 X-33.27 Y-16.3 Z0.125 E0.0304
G1 X-33.27 Y-16.3 Z0.25 E0.0303
;
; 'Pillar', 40.8 [RPM], 3.5 [mm/s]
G1 F7800
G1 X-31.15 Y-14.18 E0
G1 F210
G1 X-31.15 Y-14.18 Z0.125 E0.0303
G1 X-31.15 Y-14.18 Z0.25 E0.0304
;
; 'Pillar', 40.8 [RPM], 3.5 [mm/s]
G1 F7800
G1 X-29.03 Y-12.06 E0
G1 F210
G1 X-29.03 Y-12.06 Z0.125 E0.0303
G1 X-29.03 Y-12.06 Z0.25 E0.0303
;
; 'Pillar', 40.8 [RPM], 3.5 [mm/s]
G1 F7800
G1 X-26.91 Y-9.94 E0
G1 F210
G1 X-26.91 Y-9.94 Z0.125 E0.0304
G1 X-26.91 Y-9.94 Z0.25 E0.0303
;
; 'Pillar', 40.8 [RPM], 3.5 [mm/s]
G1 F7800
G1 X-24.79 Y-12.06 E0
G1 F210
G1 X-24.79 Y-12.06 Z0.125 E0.0303
G1 X-24.79 Y-12.06 Z0.25 E0.0304
;
; 'Pillar', 40.8 [RPM], 3.5 [mm/s]
G1 F7800
G1 X-26.91 Y-14.18 E0
G1 F210
G1 X-26.91 Y-14.18 Z0.125 E0.0303
G1 X-26.91 Y-14.18 Z0.25 E0.0303
;
; 'Pillar', 40.8 [RPM], 3.5 [mm/s]
G1 F7800
G1 X-29.03 Y-16.3 E0
G1 F210
G1 X-29.03 Y-16.3 Z0.125 E0.0304
G1 X-29.03 Y-16.3 Z0.25 E0.0303
;
; 'Pillar', 40.8 [RPM], 3.5 [mm/s]
G1 F7800
G1 X-31.15 Y-18.42 E0
G1 F210
G1 X-31.15 Y-18.42 Z0.125 E0.0303
G1 X-31.15 Y-18.42 Z0.25 E0.0304
;
; 'Pillar', 40.8 [RPM], 3.5 [mm/s]
G1 F7800
G1 X-33.27 Y-20.54 E0
G1 F210
G1 X-33.27 Y-20.54 Z0.125 E0.0303
G1 X-33.27 Y-20.54 Z0.25 E0.0303
;
; 'Pillar', 40.8 [RPM], 3.5 [mm/s]
G1 F7800
G1 X-35.39 Y-18.42 E0
G1 F210
G1 X-35.39 Y-18.42 Z0.125 E0.0304
G1 X-35.39 Y-18.42 Z0.25 E0.0303
;
; 'Pillar', 40.8 [RPM], 3.5 [mm/s]
G1 F7800
G1 X-31.15 Y-22.67 E0
G1 F210
G1 X-31.15 Y-22.67 Z0.125 E0.0304
G1 X-31.15 Y-22.67 Z0.25 E0.0303
;
; 'Pillar', 40.8 [RPM], 3.5 [mm/s]
G1 F7800
G1 X-33.27 Y-24.79 E0
G1 F210
G1 X-33.27 Y-24.79 Z0.125 E0.0303
G1 X-33.27 Y-24.79 Z0.25 E0.0304
;
; 'Pillar', 40.8 [RPM], 3.5 [mm/s]
G1 F7800
G1 X-31.15 Y-26.91 E0
G1 F210
G1 X-31.15 Y-26.91 Z0.125 E0.0303
G1 X-31.15 Y-26.91 Z0.25 E0.0303
;
; 'Pillar', 40.8 [RPM], 3.5 [mm/s]
G1 F7800
G1 X-33.27 Y-29.03 E0
G1 F210
G1 X-33.27 Y-29.03 Z0.125 E0.0304
G1 X-33.27 Y-29.03 Z0.25 E0.0303
;
; 'Pillar', 40.8 [RPM], 3.5 [mm/s]
G1 F7800
G1 X-31.15 Y-31.15 E0
G1 F210
G1 X-31.15 Y-31.15 Z0.125 E0.0303
G1 X-31.15 Y-31.15 Z0.25 E0.0304
;
; 'Pillar', 40.8 [RPM], 3.5 [mm/s]
G1 F7800
G1 X-29.03 Y-33.27 E0
G1 F210
G1 X-29.03 Y-33.27 Z0.125 E0.0303
G1 X-29.03 Y-33.27 Z0.25 E0.0303
;
; 'Pillar', 40.8 [RPM], 3.5 [mm/s]
G1 F7800
G1 X-26.91 Y-31.15 E0
G1 F210
G1 X-26.91 Y-31.15 Z0.125 E0.0304
G1 X-26.91 Y-31.15 Z0.25 E0.0303
;
; 'Pillar', 40.8 [RPM], 3.5 [mm/s]
G1 F7800
G1 X-24.79 Y-29.03 E0
G1 F210
G1 X-24.79 Y-29.03 Z0.125 E0.0303
G1 X-24.79 Y-29.03 Z0.25 E0.0304
;
; 'Pillar', 40.8 [RPM], 3.5 [mm/s]
G1 F7800
G1 X-22.67 Y-26.91 E0
G1 F210
G1 X-22.67 Y-26.91 Z0.125 E0.0303
G1 X-22.67 Y-26.91 Z0.25 E0.0303
;
; 'Pillar', 40.8 [RPM], 3.5 [mm/s]
G1 F7800
G1 X-20.54 Y-24.79 E0
G1 F210
G1 X-20.54 Y-24.79 Z0.125 E0.0304
G1 X-20.54 Y-24.79 Z0.25 E0.0303
;
; 'Pillar', 40.8 [RPM], 3.5 [mm/s]
G1 F7800
G1 X-18.42 Y-22.67 E0
G1 F210
G1 X-18.42 Y-22.67 Z0.125 E0.0303
G1 X-18.42 Y-22.67 Z0.25 E0.0304
;
; 'Pillar', 40.8 [RPM], 3.5 [mm/s]
G1 F7800
G1 X-16.3 Y-20.54 E0
G1 F210
G1 X-16.3 Y-20.54 Z0.125 E0.0303
G1 X-16.3 Y-20.54 Z0.25 E0.0303
;
; 'Pillar', 40.8 [RPM], 3.5 [mm/s]
G1 F7800
G1 X-18.42 Y-18.42 E0
G1 F210
G1 X-18.42 Y-18.42 Z0.125 E0.0304
G1 X-18.42 Y-18.42 Z0.25 E0.0303
;
; 'Pillar', 40.8 [RPM], 3.5 [mm/s]
G1 F7800
G1 X-20.54 Y-20.54 E0
G1 F210
G1 X-20.54 Y-20.54 Z0.125 E0.0303
G1 X-20.54 Y-20.54 Z0.25 E0.0304
;
; 'Pillar', 40.8 [RPM], 3.5 [mm/s]
G1 F7800
G1 X-22.67 Y-22.67 E0
G1 F210
G1 X-22.67 Y-22.67 Z0.125 E0.0303
G1 X-22.67 Y-22.67 Z0.25 E0.0303
;
; 'Pillar', 40.8 [RPM], 3.5 [mm/s]
G1 F7800
G1 X-24.79 Y-24.79 E0
G1 F210
G1 X-24.79 Y-24.79 Z0.125 E0.0304
G1 X-24.79 Y-24.79 Z0.25 E0.0303
;
; 'Pillar', 40.8 [RPM], 3.5 [mm/s]
G1 F7800
G1 X-26.91 Y-26.91 E0
G1 F210
G1 X-26.91 Y-26.91 Z0.125 E0.0303
G1 X-26.91 Y-26.91 Z0.25 E0.0304
;
; 'Pillar', 40.8 [RPM], 3.5 [mm/s]
G1 F7800
G1 X-29.03 Y-29.03 E0
G1 F210
G1 X-29.03 Y-29.03 Z0.125 E0.0303
G1 X-29.03 Y-29.03 Z0.25 E0.0304
;
; 'Pillar', 40.8 [RPM], 3.5 [mm/s]
G1 F7800
G1 X-24.79 Y-33.27 E0
G1 F210
G1 X-24.79 Y-33.27 Z0.125 E0.0303
G1 X-24.79 Y-33.27 Z0.25 E0.0303
;
; 'Pillar', 40.8 [RPM], 3.5 [mm/s]
G1 F7800
G1 X-22.67 Y-31.15 E0
G1 F210
G1 X-22.67 Y-31.15 Z0.125 E0.0304
G1 X-22.67 Y-31.15 Z0.25 E0.0303
;
; 'Pillar', 40.8 [RPM], 3.5 [mm/s]
G1 F7800
G1 X-20.54 Y-29.03 E0
G1 F210
G1 X-20.54 Y-29.03 Z0.125 E0.0303
G1 X-20.54 Y-29.03 Z0.25 E0.0304
;
; 'Pillar', 40.8 [RPM], 3.5 [mm/s]
G1 F7800
G1 X-18.42 Y-26.91 E0
G1 F210
G1 X-18.42 Y-26.91 Z0.125 E0.0303
G1 X-18.42 Y-26.91 Z0.25 E0.0303
;
; 'Pillar', 40.8 [RPM], 3.5 [mm/s]
G1 F7800
G1 X-16.3 Y-24.79 E0
G1 F210
G1 X-16.3 Y-24.79 Z0.125 E0.0304
G1 X-16.3 Y-24.79 Z0.25 E0.0303
;
; 'Pillar', 40.8 [RPM], 3.5 [mm/s]
G1 F7800
G1 X-14.18 Y-22.67 E0
G1 F210
G1 X-14.18 Y-22.67 Z0.125 E0.0303
G1 X-14.18 Y-22.67 Z0.25 E0.0304
;
; 'Pillar', 40.8 [RPM], 3.5 [mm/s]
G1 F7800
G1 X-12.06 Y-24.79 E0
G1 F210
G1 X-12.06 Y-24.79 Z0.125 E0.0303
G1 X-12.06 Y-24.79 Z0.25 E0.0303
;
; 'Pillar', 40.8 [RPM], 3.5 [mm/s]
G1 F7800
G1 X-14.18 Y-26.91 E0
G1 F210
G1 X-14.18 Y-26.91 Z0.125 E0.0304
G1 X-14.18 Y-26.91 Z0.25 E0.0303
;
; 'Pillar', 40.8 [RPM], 3.5 [mm/s]
G1 F7800
G1 X-16.3 Y-29.03 E0
G1 F210
G1 X-16.3 Y-29.03 Z0.125 E0.0303
G1 X-16.3 Y-29.03 Z0.25 E0.0304
;
; 'Pillar', 40.8 [RPM], 3.5 [mm/s]
G1 F7800
G1 X-18.42 Y-31.15 E0
G1 F210
G1 X-18.42 Y-31.15 Z0.125 E0.0303
G1 X-18.42 Y-31.15 Z0.25 E0.0303
;
; 'Pillar', 40.8 [RPM], 3.5 [mm/s]
G1 F7800
G1 X-20.54 Y-33.27 E0
G1 F210
G1 X-20.54 Y-33.27 Z0.125 E0.0304
G1 X-20.54 Y-33.27 Z0.25 E0.0303
;
; 'Pillar', 40.8 [RPM], 3.5 [mm/s]
G1 F7800
G1 X-18.42 Y-35.39 E0
G1 F210
G1 X-18.42 Y-35.39 Z0.125 E0.0303
G1 X-18.42 Y-35.39 Z0.25 E0.0304
;
; 'Pillar', 40.8 [RPM], 3.5 [mm/s]
G1 F7800
G1 X-16.3 Y-37.51 E0
G1 F210
G1 X-16.3 Y-37.51 Z0.125 E0.0303
G1 X-16.3 Y-37.51 Z0.25 E0.0303
;
; 'Pillar', 40.8 [RPM], 3.5 [mm/s]
G1 F7800
G1 X-14.18 Y-39.64 E0
G1 F210
G1 X-14.18 Y-39.64 Z0.125 E0.0304
G1 X-14.18 Y-39.64 Z0.25 E0.0303
;
; 'Pillar', 40.8 [RPM], 3.5 [mm/s]
G1 F7800
G1 X-12.06 Y-41.76 E0
G1 F210
G1 X-12.06 Y-41.76 Z0.125 E0.0303
G1 X-12.06 Y-41.76 Z0.25 E0.0304
;
; 'Pillar', 40.8 [RPM], 3.5 [mm/s]
G1 F7800
G1 X-14.18 Y-43.88 E0
G1 F210
G1 X-14.18 Y-43.88 Z0.125 E0.0303
G1 X-14.18 Y-43.88 Z0.25 E0.0303
;
; 'Pillar', 40.8 [RPM], 3.5 [mm/s]
G1 F7800
G1 X-16.3 Y-46 E0
G1 F210
G1 X-16.3 Y-46 Z0.125 E0.0304
G1 X-16.3 Y-46 Z0.25 E0.0303
;
; 'Pillar', 40.8 [RPM], 3.5 [mm/s]
G1 F7800
G1 X-18.42 Y-48.12 E0
G1 F210
G1 X-18.42 Y-48.12 Z0.125 E0.0303
G1 X-18.42 Y-48.12 Z0.25 E0.0304
;
; 'Pillar', 40.8 [RPM], 3.5 [mm/s]
G1 F7800
G1 X-18.42 Y-43.88 E0
G1 F210
G1 X-18.42 Y-43.88 Z0.125 E0.0303
G1 X-18.42 Y-43.88 Z0.25 E0.0304
;
; 'Pillar', 40.8 [RPM], 3.5 [mm/s]
G1 F7800
G1 X-16.3 Y-41.76 E0
G1 F210
G1 X-16.3 Y-41.76 Z0.125 E0.0303
G1 X-16.3 Y-41.76 Z0.25 E0.0303
;
; 'Pillar', 40.8 [RPM], 3.5 [mm/s]
G1 F7800
G1 X-18.42 Y-39.64 E0
G1 F210
G1 X-18.42 Y-39.64 Z0.125 E0.0304
G1 X-18.42 Y-39.64 Z0.25 E0.0303
;
; 'Pillar', 40.8 [RPM], 3.5 [mm/s]
G1 F7800
G1 X-14.18 Y-35.39 E0
G1 F210
G1 X-14.18 Y-35.39 Z0.125 E0.0303
G1 X-14.18 Y-35.39 Z0.25 E0.0304
;
; 'Pillar', 40.8 [RPM], 3.5 [mm/s]
G1 F7800
G1 X-12.06 Y-33.27 E0
G1 F210
G1 X-12.06 Y-33.27 Z0.125 E0.0303
G1 X-12.06 Y-33.27 Z0.25 E0.0303
;
; 'Pillar', 40.8 [RPM], 3.5 [mm/s]
G1 F7800
G1 X-9.94 Y-31.15 E0
G1 F210
G1 X-9.94 Y-31.15 Z0.125 E0.0304
G1 X-9.94 Y-31.15 Z0.25 E0.0303
;
; 'Pillar', 40.8 [RPM], 3.5 [mm/s]
G1 F7800
G1 X-7.82 Y-29.03 E0
G1 F210
G1 X-7.82 Y-29.03 Z0.125 E0.0303
G1 X-7.82 Y-29.03 Z0.25 E0.0304
;
; 'Pillar', 40.8 [RPM], 3.5 [mm/s]
G1 F7800
G1 X-9.94 Y-26.91 E0
G1 F210
G1 X-9.94 Y-26.91 Z0.125 E0.0303
G1 X-9.94 Y-26.91 Z0.25 E0.0303
;
; 'Pillar', 40.8 [RPM], 3.5 [mm/s]
G1 F7800
G1 X-12.06 Y-29.03 E0
G1 F210
G1 X-12.06 Y-29.03 Z0.125 E0.0304
G1 X-12.06 Y-29.03 Z0.25 E0.0303
;
; 'Pillar', 40.8 [RPM], 3.5 [mm/s]
G1 F7800
G1 X-14.18 Y-31.15 E0
G1 F210
G1 X-14.18 Y-31.15 Z0.125 E0.0303
G1 X-14.18 Y-31.15 Z0.25 E0.0304
;
; 'Pillar', 40.8 [RPM], 3.5 [mm/s]
G1 F7800
G1 X-16.3 Y-33.27 E0
G1 F210
G1 X-16.3 Y-33.27 Z0.125 E0.0303
G1 X-16.3 Y-33.27 Z0.25 E0.0303
;
; 'Pillar', 40.8 [RPM], 3.5 [mm/s]
G1 F7800
G1 X-12.06 Y-37.51 E0
G1 F210
G1 X-12.06 Y-37.51 Z0.125 E0.0304
G1 X-12.06 Y-37.51 Z0.25 E0.0303
;
; 'Pillar', 40.8 [RPM], 3.5 [mm/s]
G1 F7800
G1 X-9.94 Y-39.64 E0
G1 F210
G1 X-9.94 Y-39.64 Z0.125 E0.0303
G1 X-9.94 Y-39.64 Z0.25 E0.0304
;
; 'Pillar', 40.8 [RPM], 3.5 [mm/s]
G1 F7800
G1 X-7.82 Y-37.51 E0
G1 F210
G1 X-7.82 Y-37.51 Z0.125 E0.0303
G1 X-7.82 Y-37.51 Z0.25 E0.0303
;
; 'Pillar', 40.8 [RPM], 3.5 [mm/s]
G1 F7800
G1 X-5.69 Y-35.39 E0
G1 F210
G1 X-5.69 Y-35.39 Z0.125 E0.0304
G1 X-5.69 Y-35.39 Z0.25 E0.0303
;
; 'Pillar', 40.8 [RPM], 3.5 [mm/s]
G1 F7800
G1 X-7.82 Y-33.27 E0
G1 F210
G1 X-7.82 Y-33.27 Z0.125 E0.0303
G1 X-7.82 Y-33.27 Z0.25 E0.0304
;
; 'Pillar', 40.8 [RPM], 3.5 [mm/s]
G1 F7800
G1 X-9.94 Y-35.39 E0
G1 F210
G1 X-9.94 Y-35.39 Z0.125 E0.0303
G1 X-9.94 Y-35.39 Z0.25 E0.0303
;
; 'Pillar', 40.8 [RPM], 3.5 [mm/s]
G1 F7800
G1 X-3.57 Y-46 E0
G1 F210
G1 X-3.57 Y-46 Z0.125 E0.0304
G1 X-3.57 Y-46 Z0.25 E0.0303
;
; 'Pillar', 40.8 [RPM], 3.5 [mm/s]
G1 F7800
G1 X-5.69 Y-48.12 E0
G1 F210
G1 X-5.69 Y-48.12 Z0.125 E0.0304
G1 X-5.69 Y-48.12 Z0.25 E0.0303
;
; 'Pillar', 40.8 [RPM], 3.5 [mm/s]
G1 F7800
G1 X-3.57 Y-50.24 E0
G1 F210
G1 X-3.57 Y-50.24 Z0.125 E0.0303
G1 X-3.57 Y-50.24 Z0.25 E0.0304
;
; 'Pillar', 40.8 [RPM], 3.5 [mm/s]
G1 F7800
G1 X-5.69 Y-52.36 E0
G1 F210
G1 X-5.69 Y-52.36 Z0.125 E0.0303
G1 X-5.69 Y-52.36 Z0.25 E0.0303
;
; 'Pillar', 40.8 [RPM], 3.5 [mm/s]
G1 F7800
G1 X-7.82 Y-54.49 E0
G1 F210
G1 X-7.82 Y-54.49 Z0.125 E0.0304
G1 X-7.82 Y-54.49 Z0.25 E0.0303
;
; 'Pillar', 40.8 [RPM], 3.5 [mm/s]
G1 F7800
G1 X-9.94 Y-52.36 E0
G1 F210
G1 X-9.94 Y-52.36 Z0.125 E0.0303
G1 X-9.94 Y-52.36 Z0.25 E0.0304
;
; 'Pillar', 40.8 [RPM], 3.5 [mm/s]
G1 F7800
G1 X-12.06 Y-54.49 E0
G1 F210
G1 X-12.06 Y-54.49 Z0.125 E0.0303
G1 X-12.06 Y-54.49 Z0.25 E0.0303
;
; 'Pillar', 40.8 [RPM], 3.5 [mm/s]
G1 F7800
G1 X-9.94 Y-56.61 E0
G1 F210
G1 X-9.94 Y-56.61 Z0.125 E0.0304
G1 X-9.94 Y-56.61 Z0.25 E0.0303
;
; 'Pillar', 40.8 [RPM], 3.5 [mm/s]
G1 F7800
G1 X-12.06 Y-58.73 E0
G1 F210
G1 X-12.06 Y-58.73 Z0.125 E0.0303
G1 X-12.06 Y-58.73 Z0.25 E0.0304
;
; 'Pillar', 40.8 [RPM], 3.5 [mm/s]
G1 F7800
G1 X-14.18 Y-60.85 E0
G1 F210
G1 X-14.18 Y-60.85 Z0.125 E0.0303
G1 X-14.18 Y-60.85 Z0.25 E0.0303
;
; 'Pillar', 40.8 [RPM], 3.5 [mm/s]
G1 F7800
G1 X-16.3 Y-62.97 E0
G1 F210
G1 X-16.3 Y-62.97 Z0.125 E0.0304
G1 X-16.3 Y-62.97 Z0.25 E0.0303
;
; 'Pillar', 40.8 [RPM], 3.5 [mm/s]
G1 F7800
G1 X-18.42 Y-65.09 E0
G1 F210
G1 X-18.42 Y-65.09 Z0.125 E0.0303
G1 X-18.42 Y-65.09 Z0.25 E0.0304
;
; 'Pillar', 40.8 [RPM], 3.5 [mm/s]
G1 F7800
G1 X-16.3 Y-67.21 E0
G1 F210
G1 X-16.3 Y-67.21 Z0.125 E0.0303
G1 X-16.3 Y-67.21 Z0.25 E0.0303
;
; 'Pillar', 40.8 [RPM], 3.5 [mm/s]
G1 F7800
G1 X-18.42 Y-69.33 E0
G1 F210
G1 X-18.42 Y-69.33 Z0.125 E0.0304
G1 X-18.42 Y-69.33 Z0.25 E0.0303
;
; 'Pillar', 40.8 [RPM], 3.5 [mm/s]
G1 F7800
G1 X-20.54 Y-67.21 E0
G1 F210
G1 X-20.54 Y-67.21 Z0.125 E0.0303
G1 X-20.54 Y-67.21 Z0.25 E0.0304
;
; 'Pillar', 40.8 [RPM], 3.5 [mm/s]
G1 F7800
G1 X-22.67 Y-69.33 E0
G1 F210
G1 X-22.67 Y-69.33 Z0.125 E0.0303
G1 X-22.67 Y-69.33 Z0.25 E0.0303
;
; 'Pillar', 40.8 [RPM], 3.5 [mm/s]
G1 F7800
G1 X-24.79 Y-71.46 E0
G1 F210
G1 X-24.79 Y-71.46 Z0.125 E0.0304
G1 X-24.79 Y-71.46 Z0.25 E0.0303
;
; 'Pillar', 40.8 [RPM], 3.5 [mm/s]
G1 F7800
G1 X-26.91 Y-73.58 E0
G1 F210
G1 X-26.91 Y-73.58 Z0.125 E0.0303
G1 X-26.91 Y-73.58 Z0.25 E0.0304
;
; 'Pillar', 40.8 [RPM], 3.5 [mm/s]
G1 F7800
G1 X-29.03 Y-75.7 E0
G1 F210
G1 X-29.03 Y-75.7 Z0.125 E0.0303
G1 X-29.03 Y-75.7 Z0.25 E0.0303
;
; 'Pillar', 40.8 [RPM], 3.5 [mm/s]
G1 F7800
G1 X-26.91 Y-77.82 E0
G1 F210
G1 X-26.91 Y-77.82 Z0.125 E0.0304
G1 X-26.91 Y-77.82 Z0.25 E0.0303
;
; 'Pillar', 40.8 [RPM], 3.5 [mm/s]
G1 F7800
G1 X-24.79 Y-79.94 E0
G1 F210
G1 X-24.79 Y-79.94 Z0.125 E0.0304
G1 X-24.79 Y-79.94 Z0.25 E0.0303
;
; 'Pillar', 40.8 [RPM], 3.5 [mm/s]
G1 F7800
G1 X-26.91 Y-82.06 E0
G1 F210
G1 X-26.91 Y-82.06 Z0.125 E0.0303
G1 X-26.91 Y-82.06 Z0.25 E0.0304
;
; 'Pillar', 40.8 [RPM], 3.5 [mm/s]
G1 F7800
G1 X-29.03 Y-79.94 E0
G1 F210
G1 X-29.03 Y-79.94 Z0.125 E0.0303
G1 X-29.03 Y-79.94 Z0.25 E0.0303
;
; 'Pillar', 40.8 [RPM], 3.5 [mm/s]
G1 F7800
G1 X-31.15 Y-77.82 E0
G1 F210
G1 X-31.15 Y-77.82 Z0.125 E0.0304
G1 X-31.15 Y-77.82 Z0.25 E0.0303
;
; 'Pillar', 40.8 [RPM], 3.5 [mm/s]
G1 F7800
G1 X-33.27 Y-79.94 E0
G1 F210
G1 X-33.27 Y-79.94 Z0.125 E0.0303
G1 X-33.27 Y-79.94 Z0.25 E0.0304
;
; 'Pillar', 40.8 [RPM], 3.5 [mm/s]
G1 F7800
G1 X-31.15 Y-82.06 E0
G1 F210
G1 X-31.15 Y-82.06 Z0.125 E0.0303
G1 X-31.15 Y-82.06 Z0.25 E0.0303
;
; 'Pillar', 40.8 [RPM], 3.5 [mm/s]
G1 F7800
G1 X-33.27 Y-84.18 E0
G1 F210
G1 X-33.27 Y-84.18 Z0.125 E0.0304
G1 X-33.27 Y-84.18 Z0.25 E0.0303
;
; 'Pillar', 40.8 [RPM], 3.5 [mm/s]
G1 F7800
G1 X-35.39 Y-86.31 E0
G1 F210
G1 X-35.39 Y-86.31 Z0.125 E0.0303
G1 X-35.39 Y-86.31 Z0.25 E0.0304
;
; 'Pillar', 40.8 [RPM], 3.5 [mm/s]
G1 F7800
G1 X-37.51 Y-84.18 E0
G1 F210
G1 X-37.51 Y-84.18 Z0.125 E0.0303
G1 X-37.51 Y-84.18 Z0.25 E0.0303
;
; 'Pillar', 40.8 [RPM], 3.5 [mm/s]
G1 F7800
G1 X-35.39 Y-82.06 E0
G1 F210
G1 X-35.39 Y-82.06 Z0.125 E0.0304
G1 X-35.39 Y-82.06 Z0.25 E0.0303
;
; 'Pillar', 40.8 [RPM], 3.5 [mm/s]
G1 F7800
G1 X-29.03 Y-84.18 E0
G1 F210
G1 X-29.03 Y-84.18 Z0.125 E0.0303
G1 X-29.03 Y-84.18 Z0.25 E0.0304
;
; 'Pillar', 40.8 [RPM], 3.5 [mm/s]
G1 F7800
G1 X-22.67 Y-77.82 E0
G1 F210
G1 X-22.67 Y-77.82 Z0.125 E0.0303
G1 X-22.67 Y-77.82 Z0.25 E0.0303
;
; 'Pillar', 40.8 [RPM], 3.5 [mm/s]
G1 F7800
G1 X-20.54 Y-75.7 E0
G1 F210
G1 X-20.54 Y-75.7 Z0.125 E0.0304
G1 X-20.54 Y-75.7 Z0.25 E0.0303
;
; 'Pillar', 40.8 [RPM], 3.5 [mm/s]
G1 F7800
G1 X-18.42 Y-73.58 E0
G1 F210
G1 X-18.42 Y-73.58 Z0.125 E0.0303
G1 X-18.42 Y-73.58 Z0.25 E0.0304
;
; 'Pillar', 40.8 [RPM], 3.5 [mm/s]
G1 F7800
G1 X-16.3 Y-71.46 E0
G1 F210
G1 X-16.3 Y-71.46 Z0.125 E0.0303
G1 X-16.3 Y-71.46 Z0.25 E0.0303
;
; 'Pillar', 40.8 [RPM], 3.5 [mm/s]
G1 F7800
G1 X-14.18 Y-69.33 E0
G1 F210
G1 X-14.18 Y-69.33 Z0.125 E0.0304
G1 X-14.18 Y-69.33 Z0.25 E0.0303
;
; 'Pillar', 40.8 [RPM], 3.5 [mm/s]
G1 F7800
G1 X-12.06 Y-67.21 E0
G1 F210
G1 X-12.06 Y-67.21 Z0.125 E0.0303
G1 X-12.06 Y-67.21 Z0.25 E0.0304
;
; 'Pillar', 40.8 [RPM], 3.5 [mm/s]
G1 F7800
G1 X-9.94 Y-65.09 E0
G1 F210
G1 X-9.94 Y-65.09 Z0.125 E0.0303
G1 X-9.94 Y-65.09 Z0.25 E0.0304
;
; 'Pillar', 40.8 [RPM], 3.5 [mm/s]
G1 F7800
G1 X-7.82 Y-62.97 E0
G1 F210
G1 X-7.82 Y-62.97 Z0.125 E0.0303
G1 X-7.82 Y-62.97 Z0.25 E0.0303
;
; 'Pillar', 40.8 [RPM], 3.5 [mm/s]
G1 F7800
G1 X-7.82 Y-58.73 E0
G1 F210
G1 X-7.82 Y-58.73 Z0.125 E0.0304
G1 X-7.82 Y-58.73 Z0.25 E0.0303
;
; 'Pillar', 40.8 [RPM], 3.5 [mm/s]
G1 F7800
G1 X-5.69 Y-56.61 E0
G1 F210
G1 X-5.69 Y-56.61 Z0.125 E0.0303
G1 X-5.69 Y-56.61 Z0.25 E0.0304
;
; 'Pillar', 40.8 [RPM], 3.5 [mm/s]
G1 F7800
G1 X-7.82 Y-50.24 E0
G1 F210
G1 X-7.82 Y-50.24 Z0.125 E0.0303
G1 X-7.82 Y-50.24 Z0.25 E0.0303
;
; 'Pillar', 40.8 [RPM], 3.5 [mm/s]
G1 F7800
G1 X-9.94 Y-60.85 E0
G1 F210
G1 X-9.94 Y-60.85 Z0.125 E0.0304
G1 X-9.94 Y-60.85 Z0.25 E0.0303
;
; 'Pillar', 40.8 [RPM], 3.5 [mm/s]
G1 F7800
G1 X-12.06 Y-62.97 E0
G1 F210
G1 X-12.06 Y-62.97 Z0.125 E0.0303
G1 X-12.06 Y-62.97 Z0.25 E0.0304
;
; 'Pillar', 40.8 [RPM], 3.5 [mm/s]
G1 F7800
G1 X-14.18 Y-65.09 E0
G1 F210
G1 X-14.18 Y-65.09 Z0.125 E0.0303
G1 X-14.18 Y-65.09 Z0.25 E0.0303
;
; 'Pillar', 40.8 [RPM], 3.5 [mm/s]
G1 F7800
G1 X-20.54 Y-71.46 E0
G1 F210
G1 X-20.54 Y-71.46 Z0.125 E0.0304
G1 X-20.54 Y-71.46 Z0.25 E0.0303
;
; 'Pillar', 40.8 [RPM], 3.5 [mm/s]
G1 F7800
G1 X-22.67 Y-73.58 E0
G1 F210
G1 X-22.67 Y-73.58 Z0.125 E0.0303
G1 X-22.67 Y-73.58 Z0.25 E0.0304
;
; 'Pillar', 40.8 [RPM], 3.5 [mm/s]
G1 F7800
G1 X-24.79 Y-75.7 E0
G1 F210
G1 X-24.79 Y-75.7 Z0.125 E0.0303
G1 X-24.79 Y-75.7 Z0.25 E0.0303
;
; 'Pillar', 40.8 [RPM], 3.5 [mm/s]
G1 F7800
G1 X-33.27 Y-67.21 E0
G1 F210
G1 X-33.27 Y-67.21 Z0.125 E0.0304
G1 X-33.27 Y-67.21 Z0.25 E0.0303
;
; 'Pillar', 40.8 [RPM], 3.5 [mm/s]
G1 F7800
G1 X-31.15 Y-65.09 E0
G1 F210
G1 X-31.15 Y-65.09 Z0.125 E0.0303
G1 X-31.15 Y-65.09 Z0.25 E0.0304
;
; 'Pillar', 40.8 [RPM], 3.5 [mm/s]
G1 F7800
G1 X-29.03 Y-62.97 E0
G1 F210
G1 X-29.03 Y-62.97 Z0.125 E0.0303
G1 X-29.03 Y-62.97 Z0.25 E0.0303
;
; 'Pillar', 40.8 [RPM], 3.5 [mm/s]
G1 F7800
G1 X-26.91 Y-60.85 E0
G1 F210
G1 X-26.91 Y-60.85 Z0.125 E0.0304
G1 X-26.91 Y-60.85 Z0.25 E0.0303
;
; 'Pillar', 40.8 [RPM], 3.5 [mm/s]
G1 F7800
G1 X-24.79 Y-58.73 E0
G1 F210
G1 X-24.79 Y-58.73 Z0.125 E0.0303
G1 X-24.79 Y-58.73 Z0.25 E0.0304
;
; 'Pillar', 40.8 [RPM], 3.5 [mm/s]
G1 F7800
G1 X-29.03 Y-58.73 E0
G1 F210
G1 X-29.03 Y-58.73 Z0.125 E0.0303
G1 X-29.03 Y-58.73 Z0.25 E0.0303
;
; 'Pillar', 40.8 [RPM], 3.5 [mm/s]
G1 F7800
G1 X-31.15 Y-60.85 E0
G1 F210
G1 X-31.15 Y-60.85 Z0.125 E0.0304
G1 X-31.15 Y-60.85 Z0.25 E0.0303
;
; 'Pillar', 40.8 [RPM], 3.5 [mm/s]
G1 F7800
G1 X-33.27 Y-62.97 E0
G1 F210
G1 X-33.27 Y-62.97 Z0.125 E0.0303
G1 X-33.27 Y-62.97 Z0.25 E0.0304
;
; 'Pillar', 40.8 [RPM], 3.5 [mm/s]
G1 F7800
G1 X-84.18 Y-62.97 E0
G1 F210
G1 X-84.18 Y-62.97 Z0.125 E0.0303
G1 X-84.18 Y-62.97 Z0.25 E0.0304
;
; 'Pillar', 40.8 [RPM], 3.5 [mm/s]
G1 F7800
G1 X-29.03 Y-24.79 E0
G1 F210
G1 X-29.03 Y-24.79 Z0.125 E0.0303
G1 X-29.03 Y-24.79 Z0.25 E0.0303
;
; 'Pillar', 40.8 [RPM], 3.5 [mm/s]
G1 F7800
G1 X-26.91 Y-22.67 E0
G1 F210
G1 X-26.91 Y-22.67 Z0.125 E0.0304
G1 X-26.91 Y-22.67 Z0.25 E0.0303
;
; 'Pillar', 40.8 [RPM], 3.5 [mm/s]
G1 F7800
G1 X-24.79 Y-20.54 E0
G1 F210
G1 X-24.79 Y-20.54 Z0.125 E0.0303
G1 X-24.79 Y-20.54 Z0.25 E0.0304
;
; 'Pillar', 40.8 [RPM], 3.5 [mm/s]
G1 F7800
G1 X-22.67 Y-18.42 E0
G1 F210
G1 X-22.67 Y-18.42 Z0.125 E0.0303
G1 X-22.67 Y-18.42 Z0.25 E0.0303
;
; 'Pillar', 40.8 [RPM], 3.5 [mm/s]
G1 F7800
G1 X-20.54 Y-16.3 E0
G1 F210
G1 X-20.54 Y-16.3 Z0.125 E0.0304
G1 X-20.54 Y-16.3 Z0.25 E0.0303
;
; 'Pillar', 40.8 [RPM], 3.5 [mm/s]
G1 F7800
G1 X-22.67 Y-14.18 E0
G1 F210
G1 X-22.67 Y-14.18 Z0.125 E0.0303
G1 X-22.67 Y-14.18 Z0.25 E0.0304
;
; 'Pillar', 40.8 [RPM], 3.5 [mm/s]
G1 F7800
G1 X-24.79 Y-16.3 E0
G1 F210
G1 X-24.79 Y-16.3 Z0.125 E0.0303
G1 X-24.79 Y-16.3 Z0.25 E0.0303
;
; 'Pillar', 40.8 [RPM], 3.5 [mm/s]
G1 F7800
G1 X-26.91 Y-18.42 E0
G1 F210
G1 X-26.91 Y-18.42 Z0.125 E0.0304
G1 X-26.91 Y-18.42 Z0.25 E0.0303
;
; 'Pillar', 40.8 [RPM], 3.5 [mm/s]
G1 F7800
G1 X-29.03 Y-20.54 E0
G1 F210
G1 X-29.03 Y-20.54 Z0.125 E0.0303
G1 X-29.03 Y-20.54 Z0.25 E0.0304
G1 X-29.03 Y-20.54 Z0.75 E0
; END_LAYER_RAFT z=0.25
; BEGIN_LAYER_RAFT z=0.50
;
; *** Warming Extruder 1 to 206 C ***
M109 S206
;
;
; 'Raft', 75.0 [RPM], 22.5 [mm/s]
G1 F7800
G1 X-88.48 Y-45.95 E0
G1 F210
G1 X-88.48 Y-45.95 Z0.5 E0
G1 F1348.5
G1 X-45.95 Y-88.48 E4.1808
G1 X-41.76 Y-88.43 E0.2916
G1 X-88.43 Y-41.76 E4.5884
G1 X-87.79 Y-38.15 E0.2545
G1 X-72.75 Y-53.19 E1.4784
G1 X-73.53 Y-48.17 E0.3532
G1 X-86.89 Y-34.81 E1.3137
G1 X-85.83 Y-31.63 E0.2332
G1 X-73.53 Y-43.93 E1.2095
G1 X-72.99 Y-40.22 E0.2603
G1 X-84.6 Y-28.62 E1.1409
G1 X-83.11 Y-25.87 E0.2176
G1 X-72.1 Y-36.87 E1.0815
G1 X-70.35 Y-34.38 E0.2116
G1 X-81.41 Y-23.31 E1.0881
G1 X-79.59 Y-20.9 E0.2105
G1 X-66.1 Y-34.38 E1.3257
G1 X-62.69 Y-33.55 E0.2443
G1 X-77.47 Y-18.78 E1.4529
G1 X-75.34 Y-16.66 E0.2086
G1 X-60.5 Y-31.5 E1.4599
G1 X-58.45 Y-29.31 E0.2087
G1 X-73.22 Y-14.53 E1.4529
G1 X-71.1 Y-12.41 E0.2086
G1 X-57.62 Y-25.9 E1.3257
G1 X-57.62 Y-21.65 E0.2949
G1 X-68.69 Y-10.59 E1.0881
G1 X-66.13 Y-8.89 E0.2128
G1 X-55.13 Y-19.9 E1.0815
G1 X-51.78 Y-19.01 E0.2413
G1 X-63.38 Y-7.4 E1.1409
G1 X-60.37 Y-6.17 E0.226
G1 X-48.07 Y-18.47 E1.2095
G1 X-43.83 Y-18.47 E0.295
G1 X-57.19 Y-5.11 E1.3137
G1 X-53.85 Y-4.21 E0.2408
G1 X-38.58 Y-19.48 E1.5015
;
; 'Raft', 75.0 [RPM], 22.5 [mm/s]
G1 F7800
G1 X-34.38 Y-23.68 E0
G1 F1348.5
G1 X-23.68 Y-34.38 E1.0523
G1 X-28.2 Y-34.1 E0.3153
G1 X-34.1 Y-28.2 E0.5796
;
; 'Raft', 75.0 [RPM], 22.5 [mm/s]
G1 F7800
G1 X-18.47 Y-43.83 E0
G1 F1348.5
G1 X-5.11 Y-57.19 E1.3138
G1 X-6.17 Y-60.37 E0.2332
G1 X-18.47 Y-48.07 E1.2095
G1 X-19.01 Y-51.78 E0.2603
G1 X-7.4 Y-63.38 E1.1408
G1 X-8.89 Y-66.13 E0.2176
G1 X-19.9 Y-55.13 E1.0816
G1 X-21.65 Y-57.62 E0.2116
G1 X-10.59 Y-68.69 E1.088
G1 X-12.41 Y-71.1 E0.2106
G1 X-25.9 Y-57.62 E1.3257
G1 X-29.31 Y-58.45 E0.2443
G1 X-14.53 Y-73.22 E1.4529
G1 X-16.66 Y-75.34 E0.2085
G1 X-31.5 Y-60.5 E1.46
G1 X-33.55 Y-62.69 E0.2087
G1 X-18.78 Y-77.47 E1.4529
G1 X-20.9 Y-79.59 E0.2085
G1 X-34.38 Y-66.1 E1.3257
G1 X-34.38 Y-70.35 E0.295
G1 X-23.31 Y-81.41 E1.088
G1 X-25.87 Y-83.11 E0.2128
G1 X-36.87 Y-72.1 E1.0816
G1 X-40.22 Y-72.99 E0.2413
G1 X-28.62 Y-84.6 E1.1409
G1 X-31.63 Y-85.83 E0.226
G1 X-43.93 Y-73.53 E1.2095
G1 X-48.17 Y-73.53 E0.2949
G1 X-34.81 Y-86.89 E1.3138
G1 X-38.15 Y-87.79 E0.2408
G1 X-53.42 Y-72.52 E1.5014
;
; 'Raft', 75.0 [RPM], 22.5 [mm/s]
G1 F7800
G1 X-57.62 Y-68.32 E0
G1 F1348.5
G1 X-68.32 Y-57.62 E1.0524
G1 X-63.8 Y-57.9 E0.3152
G1 X-57.9 Y-63.8 E0.5797
;
; 'Raft', 75.0 [RPM], 22.5 [mm/s]
G1 F7800
G1 X-61.79 Y-85.36 E0
G1 F1348.5
G1 X-85.36 Y-61.79 E2.3177
;
; 'Raft', 75.0 [RPM], 22.5 [mm/s]
G1 F7800
G1 X-87.49 Y-55.43 E0
G1 F1348.5
G1 X-55.43 Y-87.49 E3.152
G1 X-50.24 Y-88.43 E0.3662
G1 X-88.43 Y-50.24 E3.7542
;
; 'Raft', 75.0 [RPM], 22.5 [mm/s]
G1 F7800
G1 X-50.24 Y-3.57 E0
G1 F1348.5
G1 X-3.57 Y-50.24 E4.5884
G1 X-3.52 Y-46.05 E0.2915
G1 X-46.05 Y-3.52 E4.1809
G1 X-41.76 Y-3.57 E0.2983
G1 X-3.57 Y-41.76 E3.7542
G1 X-4.51 Y-36.57 E0.3662
G1 X-36.57 Y-4.51 E3.152
;
; 'Raft', 75.0 [RPM], 22.5 [mm/s]
G1 F7800
G1 X-30.21 Y-6.64 E0
G1 F1348.5
G1 X-6.64 Y-30.21 E2.3177
;
; 'Raft', 75.0 [RPM], 22.5 [mm/s]
G1 F7800
G1 X-19.48 Y-38.58 E0
G1 F1348.5
G1 X-4.21 Y-53.85 E1.5014
G1 F210
G1 X-4.21 Y-53.85 Z1 E0
; END_LAYER_RAFT z=0.50
; BEGIN_LAYER_RAFT z=0.75
;
; 'Raft', 32.7 [RPM], 24.5 [mm/s]
G1 F7800
G1 X-86.97 Y-45.96 E0
G1 F210
G1 X-86.97 Y-45.96 Z0.75 E0
G1 F1470
G1 X-46.04 Y-5.03 E1.6099
G1 X-44.62 Y-5.03 E0.0394
G1 X-86.97 Y-47.38 E1.6655
G1 X-86.97 Y-48.79 E0.0393
G1 X-72.94 Y-34.76 E0.552
G1 X-73.73 Y-36.96 E0.065
G1 X-86.92 Y-50.15 E0.5189
G1 X-86.62 Y-51.27 E0.0322
G1 X-74.32 Y-38.97 E0.4838
G1 X-74.68 Y-40.73 E0.0501
G1 X-86.57 Y-52.63 E0.4677
G1 X-86.27 Y-53.74 E0.0322
G1 X-75.03 Y-42.5 E0.4421
G1 X-75.03 Y-43.92 E0.0393
G1 X-86.07 Y-54.95 E0.434
G1 X-85.71 Y-56.01 E0.0311
G1 X-75.03 Y-45.33 E0.4201
G1 X-75.03 Y-46.74 E0.0394
G1 X-85.36 Y-57.07 E0.4062
G1 X-85 Y-58.13 E0.0311
G1 X-75.03 Y-48.16 E0.3923
G1 X-75.03 Y-49.57 E0.0392
G1 X-84.65 Y-59.2 E0.3786
G1 X-84.3 Y-60.26 E0.031
G1 X-74.73 Y-50.69 E0.3763
G1 X-74.52 Y-51.9 E0.0341
G1 X-83.94 Y-61.32 E0.3704
G1 X-83.45 Y-62.24 E0.0291
G1 X-74.32 Y-53.1 E0.3592
G1 X-74.01 Y-54.22 E0.032
G1 X-83.02 Y-63.22 E0.3541
G1 X-82.53 Y-64.14 E0.0291
G1 X-73.66 Y-55.28 E0.3488
G1 X-73.31 Y-56.34 E0.0311
G1 X-82.04 Y-65.07 E0.3433
G1 X-81.47 Y-65.91 E0.0283
G1 X-72.9 Y-57.34 E0.3372
G1 X-72.4 Y-58.26 E0.029
G1 X-80.98 Y-66.83 E0.3372
G1 X-80.29 Y-67.57 E0.0278
G1 X-71.84 Y-59.12 E0.3324
G1 X-70.43 Y-59.12 E0.0392
G1 X-79.84 Y-68.52 E0.3699
G1 X-79.23 Y-69.33 E0.0281
G1 X-69.02 Y-59.12 E0.4017
G1 X-67.6 Y-59.12 E0.0394
G1 X-78.53 Y-70.04 E0.4295
G1 X-77.82 Y-70.75 E0.0278
G1 X-66.19 Y-59.12 E0.4574
G1 X-64.83 Y-59.17 E0.0378
G1 X-77.11 Y-71.46 E0.483
G1 X-76.41 Y-72.16 E0.0278
G1 X-63.78 Y-59.54 E0.4965
G1 X-62.97 Y-60.14 E0.0281
G1 X-75.7 Y-72.87 E0.5006
G1 X-74.99 Y-73.58 E0.0278
G1 X-62.26 Y-60.85 E0.5005
G1 X-61.56 Y-61.56 E0.0278
G1 X-74.28 Y-74.28 E0.5006
G1 X-73.58 Y-74.99 E0.0278
G1 X-60.85 Y-62.26 E0.5006
G1 X-60.14 Y-62.97 E0.0278
G1 X-72.87 Y-75.7 E0.5005
G1 X-72.16 Y-76.41 E0.0278
G1 X-59.54 Y-63.78 E0.4965
G1 X-59.17 Y-64.83 E0.0309
G1 X-71.46 Y-77.11 E0.483
G1 X-70.75 Y-77.82 E0.0278
G1 X-59.12 Y-66.19 E0.4574
G1 X-59.12 Y-67.6 E0.0393
G1 X-70.04 Y-78.53 E0.4296
G1 X-69.33 Y-79.23 E0.0278
G1 X-59.12 Y-69.02 E0.4017
G1 X-59.12 Y-70.43 E0.0393
G1 X-68.52 Y-79.84 E0.3699
G1 X-67.57 Y-80.29 E0.0295
G1 X-59.12 Y-71.84 E0.3324
G1 X-58.26 Y-72.4 E0.0284
G1 X-66.83 Y-80.98 E0.3371
G1 X-65.91 Y-81.47 E0.0291
G1 X-57.34 Y-72.9 E0.3372
G1 X-56.34 Y-73.31 E0.0301
G1 X-65.07 Y-82.04 E0.3433
G1 X-64.14 Y-82.53 E0.0291
G1 X-55.28 Y-73.66 E0.3487
G1 X-54.17 Y-73.96 E0.032
G1 X-63.22 Y-83.02 E0.3562
G1 X-62.24 Y-83.45 E0.0298
G1 X-52.96 Y-74.17 E0.365
G1 X-51.9 Y-74.52 E0.0311
G1 X-61.32 Y-83.94 E0.3704
G1 X-60.26 Y-84.3 E0.0311
G1 X-50.69 Y-74.73 E0.3763
G1 X-49.57 Y-75.03 E0.0321
G1 X-59.2 Y-84.65 E0.3786
G1 X-58.13 Y-85 E0.0311
G1 X-48.16 Y-75.03 E0.3923
G1 X-46.74 Y-75.03 E0.0393
G1 X-57.07 Y-85.36 E0.4062
G1 X-56.01 Y-85.71 E0.0311
G1 X-45.33 Y-75.03 E0.4202
G1 X-43.92 Y-75.03 E0.0393
G1 X-54.95 Y-86.07 E0.434
G1 X-53.74 Y-86.27 E0.0341
G1 X-42.26 Y-74.79 E0.4517
G1 X-40.73 Y-74.68 E0.0425
G1 X-52.63 Y-86.57 E0.4676
G1 X-51.27 Y-86.62 E0.0377
G1 X-38.72 Y-74.08 E0.4934
G1 X-36.96 Y-73.73 E0.0502
G1 X-50.15 Y-86.92 E0.5189
G1 X-48.79 Y-86.97 E0.0378
G1 X-20.94 Y-59.12 E1.0955
G1 X-22.35 Y-59.12 E0.0393
G1 X-32.88 Y-69.65 E0.4142
G1 X-32.88 Y-68.24 E0.0393
G1 X-23.76 Y-59.12 E0.3585
G1 X-25.18 Y-59.12 E0.0394
G1 X-32.88 Y-66.82 E0.3029
G1 X-32.88 Y-65.41 E0.0393
G1 X-26.59 Y-59.12 E0.2473
G1 X-29.03 Y-60.14 E0.0735
G1 X-31.86 Y-62.97 E0.1113
;
; 'Raft', 32.7 [RPM], 24.5 [mm/s]
G1 F7800
G1 X-19.34 Y-57.52 E0
G1 F1470
G1 X-5.03 Y-43.21 E0.5627
G1 X-5.03 Y-44.62 E0.0394
G1 X-47.38 Y-86.97 E1.6655
G1 X-45.96 Y-86.97 E0.0393
G1 X-5.03 Y-46.04 E1.61
G1 X-5.03 Y-47.45 E0.0393
G1 X-44.55 Y-86.97 E1.5543
G1 X-43.13 Y-86.97 E0.0393
G1 X-5.03 Y-48.87 E1.4987
G1 X-5.14 Y-50.39 E0.0425
G1 X-41.61 Y-86.86 E1.4344
G1 X-39.95 Y-86.62 E0.0466
G1 X-5.38 Y-52.05 E1.3596
G1 X-5.73 Y-53.82 E0.0502
G1 X-38.18 Y-86.27 E1.2762
G1 X-36.31 Y-85.8 E0.0538
G1 X-6.2 Y-55.69 E1.1841
G1 X-6.9 Y-57.82 E0.0622
G1 X-34.18 Y-85.1 E1.0728
G1 X-32.06 Y-84.39 E0.0622
G1 X-7.61 Y-59.94 E0.9616
G1 X-8.59 Y-62.33 E0.072
G1 X-29.67 Y-83.41 E0.8288
;
; 'Raft', 32.7 [RPM], 24.5 [mm/s]
G1 F7800
G1 X-26.55 Y-81.71 E0
G1 F1470
G1 X-10.29 Y-65.45 E0.6396
;
; 'Raft', 32.7 [RPM], 24.5 [mm/s]
G1 F7800
G1 X-12.77 Y-69.33 E0
G1 F1470
G1 X-22.67 Y-79.23 E0.3893
;
; 'Raft', 32.7 [RPM], 24.5 [mm/s]
G1 F7800
G1 X-18.27 Y-55.04 E0
G1 F1470
G1 X-5.08 Y-41.85 E0.5189
G1 X-5.38 Y-40.73 E0.0322
G1 X-17.92 Y-53.28 E0.4934
G1 X-17.32 Y-51.27 E0.0583
G1 X-5.43 Y-39.37 E0.4677
G1 X-5.73 Y-38.26 E0.0322
G1 X-17.21 Y-49.74 E0.4516
G1 X-16.97 Y-48.08 E0.0466
G1 X-5.93 Y-37.05 E0.434
G1 X-6.29 Y-35.99 E0.0311
G1 X-16.97 Y-46.67 E0.4201
G1 X-16.97 Y-45.26 E0.0394
G1 X-6.64 Y-34.93 E0.4062
G1 X-7 Y-33.87 E0.0311
G1 X-16.97 Y-43.84 E0.3923
G1 X-17.12 Y-42.58 E0.0353
G1 X-7.35 Y-32.8 E0.3844
G1 X-7.7 Y-31.74 E0.0311
G1 X-17.32 Y-41.37 E0.3784
G1 X-17.48 Y-40.1 E0.0354
G1 X-8.06 Y-30.68 E0.3704
G1 X-8.55 Y-29.76 E0.0291
G1 X-17.83 Y-39.04 E0.3649
G1 X-18.04 Y-37.83 E0.0341
G1 X-8.98 Y-28.78 E0.3561
G1 X-9.47 Y-27.86 E0.0291
G1 X-18.34 Y-36.72 E0.3488
G1 X-18.75 Y-35.72 E0.0301
G1 X-9.96 Y-26.93 E0.3456
G1 X-10.53 Y-26.09 E0.0284
G1 X-19.24 Y-34.8 E0.3426
G1 X-19.6 Y-33.74 E0.0311
G1 X-11.02 Y-25.17 E0.3372
G1 X-11.71 Y-24.43 E0.0278
G1 X-20.16 Y-32.88 E0.3324
G1 X-21.57 Y-32.88 E0.0392
G1 X-12.16 Y-23.48 E0.3699
G1 X-12.77 Y-22.67 E0.0281
G1 X-22.98 Y-32.88 E0.4017
G1 X-24.4 Y-32.88 E0.0393
G1 X-13.47 Y-21.96 E0.4296
G1 X-14.18 Y-21.25 E0.0278
G1 X-25.81 Y-32.88 E0.4573
G1 X-27.17 Y-32.83 E0.0379
G1 X-14.89 Y-20.54 E0.483
G1 X-15.59 Y-19.84 E0.0278
G1 X-28.22 Y-32.46 E0.4965
G1 X-29.03 Y-31.86 E0.0281
G1 X-16.3 Y-19.13 E0.5005
G1 X-17.01 Y-18.42 E0.0278
G1 X-29.74 Y-31.15 E0.5006
G1 X-30.44 Y-30.44 E0.0278
G1 X-17.72 Y-17.72 E0.5006
G1 X-18.42 Y-17.01 E0.0278
G1 X-31.15 Y-29.74 E0.5005
G1 X-31.86 Y-29.03 E0.0278
G1 X-19.13 Y-16.3 E0.5006
G1 X-19.84 Y-15.59 E0.0278
G1 X-32.46 Y-28.22 E0.4965
G1 X-32.83 Y-27.17 E0.0309
G1 X-20.54 Y-14.89 E0.483
G1 X-21.25 Y-14.18 E0.0278
G1 X-32.88 Y-25.81 E0.4573
G1 X-32.88 Y-24.4 E0.0394
G1 X-21.96 Y-13.47 E0.4295
G1 X-22.67 Y-12.77 E0.0278
G1 X-32.88 Y-22.98 E0.4018
G1 X-32.88 Y-21.57 E0.0393
G1 X-23.48 Y-12.16 E0.3698
G1 X-24.43 Y-11.71 E0.0295
G1 X-32.88 Y-20.16 E0.3324
G1 X-33.74 Y-19.6 E0.0284
G1 X-25.17 Y-11.02 E0.3372
G1 X-26.09 Y-10.53 E0.0291
G1 X-34.8 Y-19.24 E0.3426
G1 X-35.72 Y-18.75 E0.0291
G1 X-26.93 Y-9.96 E0.3456
G1 X-27.86 Y-9.47 E0.029
G1 X-36.72 Y-18.34 E0.3488
G1 X-37.83 Y-18.04 E0.032
G1 X-28.78 Y-8.98 E0.3561
G1 X-29.76 Y-8.55 E0.0299
G1 X-39.04 Y-17.83 E0.3649
G1 X-40.1 Y-17.48 E0.0311
G1 X-30.68 Y-8.06 E0.3705
G1 X-31.74 Y-7.7 E0.0311
G1 X-41.37 Y-17.32 E0.3784
G1 X-42.58 Y-17.12 E0.0342
G1 X-32.8 Y-7.35 E0.3843
G1 X-33.87 Y-7 E0.0311
G1 X-43.84 Y-16.97 E0.3923
G1 X-45.26 Y-16.97 E0.0393
G1 X-34.93 Y-6.64 E0.4062
G1 X-35.99 Y-6.29 E0.0311
G1 X-46.67 Y-16.97 E0.4202
G1 X-48.08 Y-16.97 E0.0393
G1 X-37.05 Y-5.93 E0.434
G1 X-38.26 Y-5.73 E0.0341
G1 X-49.5 Y-16.97 E0.4421
G1 X-51.27 Y-17.32 E0.0501
G1 X-39.37 Y-5.43 E0.4677
G1 X-40.73 Y-5.38 E0.0377
G1 X-53.28 Y-17.92 E0.4934
G1 X-55.04 Y-18.27 E0.0501
G1 X-41.85 Y-5.08 E0.5189
G1 X-43.21 Y-5.03 E0.0379
G1 X-71.06 Y-32.88 E1.0954
G1 X-69.65 Y-32.88 E0.0394
G1 X-59.12 Y-22.35 E0.4141
G1 X-59.12 Y-23.76 E0.0393
G1 X-68.24 Y-32.88 E0.3586
G1 X-66.82 Y-32.88 E0.0393
G1 X-59.12 Y-25.18 E0.303
G1 X-59.12 Y-26.59 E0.0393
G1 X-65.41 Y-32.88 E0.2473
G1 X-62.97 Y-31.86 E0.0735
G1 X-60.14 Y-29.03 E0.1112
;
; 'Raft', 32.7 [RPM], 24.5 [mm/s]
G1 F7800
G1 X-69.33 Y-12.77 E0
G1 F1470
G1 X-79.23 Y-22.67 E0.3894
;
; 'Raft', 32.7 [RPM], 24.5 [mm/s]
G1 F7800
G1 X-81.71 Y-26.55 E0
G1 F1470
G1 X-65.45 Y-10.29 E0.6396
;
; 'Raft', 32.7 [RPM], 24.5 [mm/s]
G1 F7800
G1 X-62.33 Y-8.59 E0
G1 F1470
G1 X-83.41 Y-29.67 E0.8288
G1 X-84.39 Y-32.06 E0.072
G1 X-59.94 Y-7.61 E0.9616
G1 X-57.82 Y-6.9 E0.0622
G1 X-85.1 Y-34.18 E1.0728
G1 X-85.8 Y-36.31 E0.0622
G1 X-55.69 Y-6.2 E1.1841
G1 X-53.82 Y-5.73 E0.0538
G1 X-86.27 Y-38.18 E1.2762
G1 X-86.62 Y-39.95 E0.0502
G1 X-52.05 Y-5.38 E1.3596
G1 X-50.39 Y-5.14 E0.0466
G1 X-86.86 Y-41.61 E1.4343
G1 X-86.97 Y-43.13 E0.0426
G1 X-48.87 Y-5.03 E1.4987
G1 X-47.45 Y-5.03 E0.0393
G1 X-86.97 Y-44.55 E1.5543
G1 F210
G1 X-86.97 Y-44.55 Z1.25 E0
; END_LAYER_RAFT z=0.75
; BEGIN_LAYER_OBJECT z=1.00
;
; 'Support Interface', 27.8 [RPM], 25.0 [mm/s]
G1 F7800
G1 X-84.44 Y-45.75 E0
G1 F210
G1 X-84.44 Y-45.75 Z1 E0
G1 F1500
G1 X-80.1 Y-50.08 E0.142
G1 X-80.26 Y-48.51 E0.0366
G1 X-84.44 Y-44.33 E0.1369
G1 X-84.44 Y-42.92 E0.0328
G1 X-80.33 Y-47.02 E0.1344
G1 X-80.35 Y-45.6 E0.033
G1 X-84.18 Y-41.76 E0.1258
G1 X-84.11 Y-41.33 E0.0101
G1 X-84.08 Y-40.44 E0.0205
G1 X-80.3 Y-44.23 E0.1239
G1 X-80.21 Y-42.91 E0.0306
G1 X-83.83 Y-39.28 E0.1188
G1 X-83.76 Y-38.85 E0.0101
G1 X-83.73 Y-37.97 E0.0205
G1 X-80.07 Y-41.63 E0.1199
G1 X-79.88 Y-40.4 E0.0288
G1 X-83.38 Y-36.91 E0.1145
G1 X-83.2 Y-36.58 E0.0085
G1 X-83.08 Y-36.21 E0.0091
G1 X-83.02 Y-35.85 E0.0085
G1 X-79.66 Y-39.21 E0.1103
G1 X-79.41 Y-38.04 E0.0277
G1 X-82.67 Y-34.79 E0.1066
G1 X-82.49 Y-34.46 E0.0086
G1 X-82.38 Y-34.09 E0.0091
G1 X-82.31 Y-33.73 E0.0085
G1 X-79.12 Y-36.92 E0.1047
G1 X-78.79 Y-35.83 E0.0263
G1 X-81.96 Y-32.67 E0.1038
G1 X-81.79 Y-32.34 E0.0086
G1 X-81.67 Y-31.97 E0.009
G1 X-81.61 Y-31.61 E0.0086
G1 X-78.45 Y-34.77 E0.1035
G1 X-78.06 Y-33.74 E0.0254
G1 X-81 Y-30.8 E0.0965
G1 X-80.94 Y-30.43 E0.0085
G1 X-80.83 Y-30.06 E0.0091
G1 X-80.65 Y-29.74 E0.0086
G1 X-77.66 Y-32.73 E0.098
G1 X-77.23 Y-31.74 E0.0249
G1 X-80.19 Y-28.78 E0.0971
G1 X-80.04 Y-28.49 E0.0077
G1 X-79.82 Y-28.2 E0.0082
G1 X-79.59 Y-27.97 E0.0077
G1 X-76.78 Y-30.78 E0.092
G1 X-76.29 Y-29.86 E0.0242
G1 X-79.13 Y-27.01 E0.0933
G1 X-78.98 Y-26.72 E0.0077
G1 X-78.76 Y-26.44 E0.0082
G1 X-78.53 Y-26.2 E0.0077
G1 X-75.8 Y-28.93 E0.0893
G1 X-75.26 Y-28.05 E0.0238
G1 X-77.82 Y-25.49 E0.0839
G1 X-77.76 Y-25.13 E0.0085
G1 X-77.65 Y-24.76 E0.009
G1 X-77.47 Y-24.43 E0.0086
G1 X-74.72 Y-27.18 E0.0902
G1 X-74.15 Y-26.34 E0.0236
G1 X-76.76 Y-23.73 E0.0856
G1 X-76.05 Y-23.02 E0.0231
G1 X-73.56 Y-25.51 E0.0818
G1 X-72.95 Y-24.71 E0.0234
G1 X-75.34 Y-22.31 E0.0785
G1 X-74.64 Y-21.6 E0.0232
G1 X-72.32 Y-23.93 E0.0761
G1 X-71.66 Y-23.17 E0.0233
G1 X-73.93 Y-20.9 E0.0743
G1 X-73.22 Y-20.19 E0.0232
G1 X-70.99 Y-22.43 E0.0734
G1 X-70.29 Y-21.71 E0.0231
G1 X-72.52 Y-19.48 E0.0731
G1 X-71.81 Y-18.78 E0.0231
G1 X-69.57 Y-21.02 E0.0735
G1 X-68.83 Y-20.34 E0.0232
G1 X-71.1 Y-18.07 E0.0744
G1 X-70.4 Y-17.36 E0.0232
G1 X-68.07 Y-19.69 E0.0761
G1 X-67.29 Y-19.05 E0.0233
G1 X-69.69 Y-16.66 E0.0785
G1 X-68.98 Y-15.95 E0.0231
G1 X-66.5 Y-18.43 E0.0815
G1 X-65.67 Y-17.84 E0.0235
G1 X-68.27 Y-15.24 E0.0853
G1 X-67.57 Y-14.53 E0.0232
G1 X-64.83 Y-17.27 E0.0897
G1 X-63.96 Y-16.73 E0.0238
G1 X-66.51 Y-14.18 E0.0834
G1 X-65.8 Y-13.47 E0.0232
G1 X-63.07 Y-16.2 E0.0894
G1 X-62.16 Y-15.69 E0.0241
G1 X-64.99 Y-12.87 E0.0926
G1 X-64.66 Y-12.81 E0.0079
G1 X-64.28 Y-12.65 E0.0095
G1 X-64.03 Y-12.41 E0.008
G1 X-61.23 Y-15.21 E0.0918
G1 X-60.27 Y-14.76 E0.0246
G1 X-63.22 Y-11.81 E0.0967
G1 X-62.89 Y-11.75 E0.0079
G1 X-62.51 Y-11.59 E0.0095
G1 X-62.26 Y-11.35 E0.0079
G1 X-59.29 Y-14.33 E0.0976
G1 X-58.28 Y-13.92 E0.0252
G1 X-61.2 Y-11 E0.0958
G1 X-60.97 Y-10.76 E0.0077
G1 X-60.69 Y-10.55 E0.0082
G1 X-60.39 Y-10.39 E0.0077
G1 X-57.24 Y-13.54 E0.1033
G1 X-56.18 Y-13.2 E0.026
G1 X-59.33 Y-10.04 E0.1035
G1 X-58.97 Y-9.98 E0.0085
G1 X-58.6 Y-9.86 E0.0091
G1 X-58.27 Y-9.69 E0.0085
G1 X-55.08 Y-12.88 E0.1046
G1 X-53.96 Y-12.59 E0.0269
G1 X-57.21 Y-9.33 E0.1068
G1 X-56.85 Y-9.27 E0.0085
G1 X-56.48 Y-9.15 E0.0091
G1 X-56.15 Y-8.98 E0.0085
G1 X-52.8 Y-12.33 E0.11
G1 X-51.6 Y-12.11 E0.0281
G1 X-55.09 Y-8.62 E0.1144
G1 X-54.73 Y-8.56 E0.0085
G1 X-54.36 Y-8.44 E0.0091
G1 X-54.03 Y-8.27 E0.0085
G1 X-50.37 Y-11.93 E0.12
G1 X-49.09 Y-11.79 E0.0297
G1 X-52.72 Y-8.17 E0.1188
G1 X-52.38 Y-7.98 E0.009
G1 X-51.94 Y-7.9 E0.0103
G1 X-51.56 Y-7.92 E0.009
G1 X-47.78 Y-11.7 E0.1238
G1 X-46.4 Y-11.66 E0.0319
G1 X-50.24 Y-7.82 E0.1258
G1 X-49.91 Y-7.62 E0.009
G1 X-49.47 Y-7.55 E0.0103
G1 X-49.08 Y-7.56 E0.009
G1 X-44.97 Y-11.67 E0.1346
G1 X-43.48 Y-11.75 E0.0346
G1 X-47.67 Y-7.56 E0.1371
G1 X-46.25 Y-7.56 E0.0328
G1 X-41.92 Y-11.9 E0.142
G1 X-40.26 Y-12.14 E0.0388
G1 X-44.84 Y-7.56 E0.15
G1 X-43.42 Y-7.56 E0.0327
G1 X-38.5 Y-12.49 E0.1613
G1 X-37.55 Y-12.71 E0.0227
G1 X-36.6 Y-12.97 E0.0227
G1 X-41.76 Y-7.81 E0.1689
G1 X-41 Y-7.92 E0.0178
G1 X-40.24 Y-7.92 E0.0176
G1 X-34.53 Y-13.63 E0.1871
G1 X-33.35 Y-14.07 E0.0292
G1 X-32.19 Y-14.56 E0.0292
G1 X-38.47 Y-8.27 E0.206
G1 X-38.01 Y-8.27 E0.0107
G1 X-37.64 Y-8.45 E0.0097
G1 X-36.82 Y-8.67 E0.0196
G1 X-36.46 Y-8.88 E0.0097
G1 X-29.39 Y-15.94 E0.2314
;
; 'Support Interface', 27.8 [RPM], 25.0 [mm/s]
G1 F7800
G1 X-26.56 Y-13.12 E0
G1 F1500
G1 X-13.12 Y-26.56 E0.4404
G1 X-12.89 Y-26.95 E0.0105
G1 X-12.81 Y-27.37 E0.01
G1 X-12.55 Y-27.83 E0.0121
G1 X-12.23 Y-28.15 E0.0104
G1 X-11.95 Y-28.51 E0.0108
G1 X-11.78 Y-28.94 E0.0106
G1 X-11.67 Y-29.42 E0.0114
G1 X-11.35 Y-29.74 E0.0104
G1 X-29.74 Y-11.35 E0.6026
G1 X-30.13 Y-11.13 E0.0104
G1 X-30.57 Y-11.04 E0.0105
G1 X-30.98 Y-10.82 E0.0106
G1 X-31.34 Y-10.53 E0.0107
G1 X-31.78 Y-10.36 E0.0111
G1 X-32.21 Y-10.29 E0.0101
G1 X-10.29 Y-32.21 E0.7185
G1 X-10.07 Y-32.6 E0.0103
G1 X-9.97 Y-33.06 E0.0108
G1 X-9.66 Y-33.9 E0.0208
G1 X-9.58 Y-34.33 E0.0103
G1 X-18.53 Y-25.38 E0.2933
G1 X-17.43 Y-26.94 E0.0442
G1 X-16.66 Y-28.15 E0.0333
G1 X-15.94 Y-29.39 E0.0331
G1 X-8.88 Y-36.46 E0.2316
G1 X-8.67 Y-36.82 E0.0097
G1 X-8.45 Y-37.64 E0.0196
G1 X-8.27 Y-38.01 E0.0097
G1 X-8.27 Y-38.47 E0.0107
G1 X-14.55 Y-32.19 E0.2059
G1 X-14.07 Y-33.35 E0.0291
G1 X-13.63 Y-34.53 E0.0291
G1 X-7.92 Y-40.24 E0.1872
G1 X-7.92 Y-41 E0.0176
G1 X-7.81 Y-41.76 E0.0177
G1 X-12.97 Y-36.6 E0.1689
G1 X-12.71 Y-37.55 E0.0227
G1 X-12.49 Y-38.5 E0.0226
G1 X-7.56 Y-43.42 E0.1614
G1 X-7.56 Y-44.84 E0.0328
G1 X-12.14 Y-40.26 E0.1499
G1 X-11.9 Y-41.91 E0.0387
G1 X-7.56 Y-46.25 E0.1422
G1 X-7.56 Y-47.67 E0.0328
G1 X-11.75 Y-43.48 E0.1371
G1 X-11.67 Y-44.97 E0.0346
G1 X-7.56 Y-49.08 E0.1346
G1 X-7.55 Y-49.47 E0.0089
G1 X-7.62 Y-49.91 E0.0103
G1 X-7.82 Y-50.24 E0.009
G1 X-11.66 Y-46.4 E0.126
G1 X-11.7 Y-47.77 E0.0318
G1 X-7.92 Y-51.56 E0.124
G1 X-7.9 Y-51.94 E0.009
G1 X-7.98 Y-52.38 E0.0103
G1 X-8.17 Y-52.72 E0.009
G1 X-11.8 Y-49.09 E0.1189
G1 X-11.94 Y-50.37 E0.0298
G1 X-8.27 Y-54.03 E0.1201
G1 X-8.44 Y-54.36 E0.0086
G1 X-8.56 Y-54.73 E0.009
G1 X-8.62 Y-55.09 E0.0086
G1 X-12.12 Y-51.6 E0.1144
G1 X-12.34 Y-52.79 E0.0282
G1 X-8.98 Y-56.15 E0.11
G1 X-9.15 Y-56.48 E0.0085
G1 X-9.27 Y-56.85 E0.0091
G1 X-9.33 Y-57.21 E0.0085
G1 X-12.59 Y-53.95 E0.1068
G1 X-12.88 Y-55.08 E0.0269
G1 X-9.69 Y-58.27 E0.1047
G1 X-9.86 Y-58.6 E0.0086
G1 X-9.98 Y-58.97 E0.009
G1 X-10.04 Y-59.33 E0.0086
G1 X-13.2 Y-56.17 E0.1035
G1 X-13.55 Y-57.24 E0.026
G1 X-10.39 Y-60.39 E0.1035
G1 X-10.55 Y-60.69 E0.0076
G1 X-10.76 Y-60.97 E0.0082
G1 X-11 Y-61.2 E0.0077
G1 X-13.93 Y-58.27 E0.096
G1 X-14.33 Y-59.28 E0.0252
G1 X-11.35 Y-62.26 E0.0977
G1 X-11.59 Y-62.51 E0.008
G1 X-11.75 Y-62.89 E0.0095
G1 X-11.81 Y-63.22 E0.0079
G1 X-14.76 Y-60.27 E0.0969
G1 X-15.22 Y-61.23 E0.0246
G1 X-12.41 Y-64.03 E0.0919
G1 X-12.65 Y-64.28 E0.008
G1 X-12.81 Y-64.65 E0.0095
G1 X-12.87 Y-64.99 E0.0079
G1 X-15.7 Y-62.16 E0.0927
G1 X-16.2 Y-63.07 E0.0241
G1 X-13.47 Y-65.8 E0.0893
G1 X-14.18 Y-66.51 E0.0232
G1 X-16.73 Y-63.96 E0.0834
G1 X-17.27 Y-64.83 E0.0237
G1 X-14.53 Y-67.57 E0.0899
G1 X-15.24 Y-68.27 E0.0232
G1 X-17.85 Y-65.67 E0.0854
G1 X-18.44 Y-66.49 E0.0235
G1 X-15.95 Y-68.98 E0.0816
G1 X-16.66 Y-69.69 E0.0232
G1 X-19.05 Y-67.29 E0.0786
G1 X-19.69 Y-68.07 E0.0233
G1 X-17.36 Y-70.4 E0.0762
G1 X-18.07 Y-71.1 E0.0231
G1 X-20.34 Y-68.83 E0.0745
G1 X-21.02 Y-69.57 E0.0232
G1 X-18.78 Y-71.81 E0.0734
G1 X-19.48 Y-72.52 E0.0232
G1 X-21.71 Y-70.29 E0.0731
G1 X-22.43 Y-70.98 E0.0232
G1 X-20.19 Y-73.22 E0.0735
G1 X-20.9 Y-73.93 E0.0231
G1 X-23.17 Y-71.66 E0.0746
G1 X-23.93 Y-72.31 E0.0232
G1 X-21.6 Y-74.64 E0.0762
G1 X-22.31 Y-75.34 E0.0232
G1 X-24.71 Y-72.95 E0.0785
G1 X-25.51 Y-73.56 E0.0234
G1 X-23.02 Y-76.05 E0.0815
G1 X-23.73 Y-76.76 E0.0232
G1 X-26.33 Y-74.15 E0.0854
G1 X-27.17 Y-74.73 E0.0236
G1 X-24.43 Y-77.47 E0.0898
G1 X-24.76 Y-77.65 E0.0086
G1 X-25.13 Y-77.76 E0.0091
G1 X-25.49 Y-77.82 E0.0085
G1 X-28.04 Y-75.27 E0.0835
G1 X-28.93 Y-75.8 E0.0239
G1 X-26.2 Y-78.53 E0.0894
G1 X-26.44 Y-78.76 E0.0077
G1 X-26.72 Y-78.98 E0.0082
G1 X-27.01 Y-79.13 E0.0077
G1 X-29.84 Y-76.3 E0.0927
G1 X-30.77 Y-76.78 E0.0243
G1 X-27.97 Y-79.59 E0.0919
G1 X-28.2 Y-79.82 E0.0077
G1 X-28.49 Y-80.04 E0.0082
G1 X-28.78 Y-80.19 E0.0077
G1 X-31.73 Y-77.24 E0.0967
G1 X-32.71 Y-77.67 E0.0249
G1 X-29.74 Y-80.65 E0.0976
G1 X-30.06 Y-80.83 E0.0086
G1 X-30.43 Y-80.94 E0.009
G1 X-30.8 Y-81 E0.0086
G1 X-33.72 Y-78.08 E0.0959
G1 X-34.76 Y-78.45 E0.0255
G1 X-31.61 Y-81.61 E0.1034
G1 X-31.97 Y-81.67 E0.0085
G1 X-32.34 Y-81.79 E0.0091
G1 X-32.67 Y-81.96 E0.0085
G1 X-35.82 Y-78.8 E0.1035
G1 X-36.92 Y-79.12 E0.0265
G1 X-33.73 Y-82.31 E0.1046
G1 X-34.09 Y-82.38 E0.0086
G1 X-34.46 Y-82.49 E0.009
G1 X-34.79 Y-82.67 E0.0086
G1 X-38.04 Y-79.41 E0.1067
G1 X-39.2 Y-79.67 E0.0275
G1 X-35.85 Y-83.02 E0.11
G1 X-36.21 Y-83.08 E0.0085
G1 X-36.58 Y-83.2 E0.0091
G1 X-36.91 Y-83.38 E0.0085
G1 X-40.4 Y-79.89 E0.1144
G1 X-41.63 Y-80.07 E0.0289
G1 X-37.97 Y-83.73 E0.12
G1 X-38.85 Y-83.76 E0.0204
G1 X-39.28 Y-83.83 E0.0102
G1 X-42.91 Y-80.21 E0.1188
G1 X-44.22 Y-80.3 E0.0306
G1 X-40.44 Y-84.08 E0.1238
G1 X-41.33 Y-84.11 E0.0205
G1 X-41.76 Y-84.18 E0.0101
G1 X-45.6 Y-80.34 E0.1259
G1 X-47.03 Y-80.33 E0.0331
G1 X-42.92 Y-84.44 E0.1345
G1 X-44.33 Y-84.44 E0.0328
G1 X-48.52 Y-80.25 E0.1371
G1 X-50.08 Y-80.1 E0.0364
G1 X-45.75 Y-84.44 E0.142
G1 X-47.16 Y-84.44 E0.0328
G1 X-51.74 Y-79.86 E0.1499
G1 X-53.5 Y-79.52 E0.0416
G1 X-48.58 Y-84.44 E0.1612
G1 X-49.41 Y-84.45 E0.0193
G1 X-49.89 Y-84.38 E0.0113
G1 X-50.24 Y-84.19 E0.0093
G1 X-55.39 Y-79.03 E0.1689
G1 X-56.23 Y-78.79 E0.0201
G1 X-57.46 Y-78.38 E0.0302
G1 X-51.76 Y-84.08 E0.187
G1 X-52.24 Y-84.09 E0.0112
G1 X-52.63 Y-83.88 E0.0102
G1 X-53.08 Y-83.77 E0.0107
G1 X-53.53 Y-83.73 E0.0104
G1 X-59.81 Y-77.45 E0.2059
G1 X-61.42 Y-76.69 E0.0412
G1 X-62.6 Y-76.07 E0.031
G1 X-55.54 Y-83.12 E0.2312
G1 X-55.98 Y-83.05 E0.0103
G1 X-56.82 Y-82.73 E0.0208
G1 X-57.28 Y-82.64 E0.0108
G1 X-57.67 Y-82.42 E0.0103
G1 X-66.59 Y-73.5 E0.2924
;
; 'Support Interface', 27.8 [RPM], 25.0 [mm/s]
G1 F7800
G1 X-62.26 Y-80.65 E0
G1 F1500
G1 X-80.65 Y-62.26 E0.6026
G1 X-80.33 Y-62.58 E0.0105
G1 X-80.22 Y-63.06 E0.0113
G1 X-80.05 Y-63.49 E0.0107
G1 X-79.77 Y-63.85 E0.0108
G1 X-79.45 Y-64.17 E0.0104
G1 X-79.19 Y-64.63 E0.0121
G1 X-79.11 Y-65.05 E0.0099
G1 X-78.88 Y-65.44 E0.0106
G1 X-65.44 Y-78.88 E0.4404
;
; 'Support Interface', 27.8 [RPM], 25.0 [mm/s]
G1 F7800
G1 X-73.49 Y-66.6 E0
G1 F1500
G1 X-82.42 Y-57.67 E0.2927
G1 X-82.64 Y-57.28 E0.0103
G1 X-82.73 Y-56.82 E0.0108
G1 X-83.05 Y-55.98 E0.0208
G1 X-83.12 Y-55.54 E0.0103
G1 X-76.07 Y-62.6 E0.2313
G1 X-76.89 Y-61.01 E0.0414
G1 X-77.46 Y-59.8 E0.0311
G1 X-83.73 Y-53.53 E0.2055
G1 X-83.77 Y-53.08 E0.0105
G1 X-83.88 Y-52.63 E0.0106
G1 X-84.09 Y-52.24 E0.0102
G1 X-84.08 Y-51.76 E0.0112
G1 X-78.38 Y-57.46 E0.1869
G1 X-78.66 Y-56.64 E0.0201
G1 X-79.04 Y-55.39 E0.0303
G1 X-84.19 Y-50.24 E0.1687
G1 X-84.38 Y-49.89 E0.0093
G1 X-84.45 Y-49.41 E0.0113
G1 X-84.44 Y-48.58 E0.0193
G1 X-79.52 Y-53.49 E0.1611
G1 X-79.87 Y-51.73 E0.0417
G1 X-84.44 Y-47.16 E0.1497
;
; 'Support Interface', 27.8 [RPM], 25.0 [mm/s]
G1 F7800
G1 X-81.71 Y-59.79 E0
G1 F1500
G1 X-59.79 Y-81.71 E0.7185
;
; 'Wipe', 0.0 [RPM], 25.0 [mm/s]
G1 F900
G1 E-1.25
G1 F1500
G1 X-66.86 Y-74.64 E0
;
; 'Support Interface', 27.8 [RPM], 25.0 [mm/s]
G1 F7800
G1 X-25.39 Y-18.52 E0
G1 F900
G1 E1.25
G1 F1500
G1 X-34.33 Y-9.58 E0.293
;
; 'Wipe', 0.0 [RPM], 25.0 [mm/s]
G1 F900
G1 E-1.25
G1 F1500
G1 X-27.26 Y-16.66 E0
;
; 'Loop', 22.2 [RPM], 25.0 [mm/s]
G1 F7800
G1 X-63.31 Y-65.79 E0
G1 F900
G1 E1.25
G1 F1500
G1 X-65.79 Y-63.31 E0.0649
G1 X-65.93 Y-63.27 E0.0026
G1 X-73.53 Y-63.27 E0.1409
G1 X-73.7 Y-63.38 E0.0038
G1 X-73.76 Y-63.51 E0.0027
G1 X-73.35 Y-64.16 E0.0142
G1 X-72.7 Y-65.1 E0.0212
G1 X-72.03 Y-66.02 E0.0211
G1 X-70.67 Y-67.66 E0.0396
G1 X-69.82 Y-68.59 E0.0232
G1 X-68.22 Y-70.16 E0.0417
G1 X-67.28 Y-70.99 E0.0232
G1 X-66.51 Y-71.64 E0.0186
G1 X-64.68 Y-72.99 E0.0422
G1 X-63.51 Y-73.76 E0.026
G1 X-63.38 Y-73.69 E0.0027
G1 X-63.28 Y-73.53 E0.0037
G1 X-63.28 Y-65.93 E0.1409
G1 X-63.31 Y-65.79 E0.0027
;
; 'Wipe', 0.0 [RPM], 25.0 [mm/s]
G1 F900
G1 E-1.25
G1 F1500
G1 X-63.28 Y-65.93 E0
G1 X-63.28 Y-73.53 E0
G1 X-63.38 Y-73.69 E0
G1 X-63.51 Y-73.76 E0
G1 X-64.58 Y-73.06 E0
G1 X-65.09 Y-72.7 E0
;
; 'Loop', 22.2 [RPM], 25.0 [mm/s]
G1 F7800
G1 X-67.84 Y-63.77 E0
G1 F900
G1 E1.25
G1 F1500
G1 X-72.95 Y-63.78 E0.0947
G1 X-72.92 Y-63.9 E0.0024
G1 X-72.27 Y-64.84 E0.0212
G1 X-70.96 Y-66.54 E0.0397
G1 X-69.47 Y-68.23 E0.0418
G1 X-68.59 Y-69.12 E0.0232
G1 X-67.02 Y-70.56 E0.0394
G1 X-66.15 Y-71.28 E0.021
G1 X-65.25 Y-71.97 E0.021
G1 X-63.9 Y-72.91 E0.0306
G1 X-63.78 Y-72.94 E0.0023
G1 X-63.78 Y-72.77 E0.0032
G1 X-63.78 Y-67.84 E0.0914
G1 X-64.03 Y-67.75 E0.005
G1 X-64.3 Y-68.18 E0.0095
G1 X-64.55 Y-68.46 E0.0069
G1 X-64.93 Y-68.78 E0.0093
G1 X-65.39 Y-69.04 E0.0097
G1 X-65.83 Y-69.19 E0.0086
G1 X-66.4 Y-69.27 E0.0106
G1 X-66.94 Y-69.24 E0.0101
G1 X-67.23 Y-69.18 E0.0055
G1 X-67.74 Y-68.98 E0.0102
G1 X-68.18 Y-68.71 E0.0095
G1 X-68.55 Y-68.37 E0.0093
G1 X-68.85 Y-67.97 E0.0093
G1 X-69.09 Y-67.5 E0.0098
G1 X-69.24 Y-66.94 E0.0107
G1 X-69.27 Y-66.39 E0.0101
G1 X-69.21 Y-65.92 E0.0088
G1 X-69.04 Y-65.56 E0.0074
G1 X-69.03 Y-65.49 E0.0013
G1 X-69.01 Y-65.42 E0.0015
G1 X-68.93 Y-65.31 E0.0023
G1 X-68.89 Y-65.18 E0.0027
G1 X-68.78 Y-64.94 E0.0049
G1 X-68.47 Y-64.55 E0.0093
G1 X-68.08 Y-64.22 E0.0093
G1 X-67.75 Y-64.03 E0.0072
G1 X-67.84 Y-63.77 E0.0049
;
; 'Wipe', 0.0 [RPM], 25.0 [mm/s]
G1 F900
G1 E-1.25
G1 F1500
G1 X-67.75 Y-64.03 E0
G1 X-68.18 Y-64.3 E0
G1 X-68.47 Y-64.55 E0
G1 X-68.78 Y-64.94 E0
G1 X-68.89 Y-65.18 E0
G1 X-68.93 Y-65.31 E0
G1 X-69.01 Y-65.42 E0
G1 X-69.04 Y-65.56 E0
G1 X-69.17 Y-65.79 E0
G1 X-69.24 Y-66.07 E0
G1 X-69.27 Y-66.62 E0
G1 X-69.24 Y-66.96 E0
G1 X-69.09 Y-67.5 E0
G1 X-68.85 Y-67.97 E0
G1 X-68.55 Y-68.37 E0
G1 X-68.18 Y-68.71 E0
G1 X-67.74 Y-68.98 E0
G1 X-67.23 Y-69.18 E0
G1 X-66.76 Y-69.26 E0
G1 X-66.4 Y-69.27 E0
G1 X-65.83 Y-69.19 E0
G1 X-65.39 Y-69.04 E0
G1 X-64.93 Y-68.78 E0
G1 X-64.55 Y-68.46 E0
G1 X-64.38 Y-68.28 E0
;
; 'Loop', 22.2 [RPM], 25.0 [mm/s]
G1 F7800
G1 X-63.78 Y-19.06 E0
G1 F900
G1 E1.25
G1 F1500
G1 X-63.9 Y-19.09 E0.0023
G1 X-65.25 Y-20.03 E0.0306
G1 X-66.15 Y-20.72 E0.021
G1 X-67.77 Y-22.11 E0.0396
G1 X-68.68 Y-22.97 E0.0231
G1 X-70.15 Y-24.51 E0.0394
G1 X-70.96 Y-25.46 E0.0233
G1 X-72.27 Y-27.16 E0.0397
G1 X-72.92 Y-28.1 E0.0212
G1 X-72.95 Y-28.22 E0.0024
G1 X-67.84 Y-28.23 E0.0947
G1 X-67.75 Y-27.97 E0.005
G1 X-68.18 Y-27.7 E0.0095
G1 X-68.55 Y-27.36 E0.0093
G1 X-68.86 Y-26.96 E0.0093
G1 X-69.09 Y-26.49 E0.0098
G1 X-69.24 Y-25.93 E0.0107
G1 X-69.27 Y-25.38 E0.0102
G1 X-69.21 Y-24.91 E0.0088
G1 X-69.04 Y-24.55 E0.0074
G1 X-69.02 Y-24.48 E0.0014
G1 X-69.01 Y-24.41 E0.0013
G1 X-68.93 Y-24.31 E0.0024
G1 X-68.89 Y-24.17 E0.0026
G1 X-68.78 Y-23.93 E0.0049
G1 X-68.46 Y-23.54 E0.0093
G1 X-68.07 Y-23.22 E0.0093
G1 X-67.74 Y-23.02 E0.0072
G1 X-67.23 Y-22.82 E0.0101
G1 X-66.76 Y-22.74 E0.0089
G1 X-66.4 Y-22.73 E0.0068
G1 X-65.83 Y-22.81 E0.0105
G1 X-65.39 Y-22.96 E0.0087
G1 X-64.93 Y-23.21 E0.0096
G1 X-64.55 Y-23.54 E0.0093
G1 X-64.23 Y-23.92 E0.0094
G1 X-64.03 Y-24.25 E0.0071
G1 X-63.78 Y-24.16 E0.005
G1 X-63.78 Y-19.23 E0.0914
G1 X-63.78 Y-19.06 E0.0032
;
; 'Loop', 22.2 [RPM], 25.0 [mm/s]
G1 F7800
G1 X-63.38 Y-18.31 E0
G1 F1500
G1 X-63.51 Y-18.24 E0.0027
G1 X-64.68 Y-19.01 E0.026
G1 X-66.51 Y-20.36 E0.0422
G1 X-67.38 Y-21.09 E0.0209
G1 X-68.94 Y-22.53 E0.0395
G1 X-69.82 Y-23.41 E0.0231
G1 X-70.67 Y-24.34 E0.0232
G1 X-72.03 Y-25.98 E0.0396
G1 X-72.7 Y-26.9 E0.0211
G1 X-73.35 Y-27.84 E0.0212
G1 X-73.76 Y-28.49 E0.0142
G1 X-73.7 Y-28.62 E0.0027
G1 X-73.53 Y-28.73 E0.0038
G1 X-65.93 Y-28.73 E0.1409
G1 X-65.79 Y-28.69 E0.0026
G1 X-63.31 Y-26.21 E0.0649
G1 X-63.28 Y-26.07 E0.0027
G1 X-63.28 Y-18.47 E0.1409
G1 X-63.38 Y-18.31 E0.0037
;
; 'Wipe', 0.0 [RPM], 25.0 [mm/s]
G1 F900
G1 E-1.25
G1 F1500
G1 X-63.28 Y-18.47 E0
G1 X-63.28 Y-26.07 E0
G1 X-63.31 Y-26.21 E0
G1 X-64.81 Y-27.72 E0
;
; 'Loop', 22.2 [RPM], 25.0 [mm/s]
G1 F7800
G1 X-18.55 Y-63.27 E0
G1 F900
G1 E1.25
G1 F1500
G1 X-26.07 Y-63.27 E0.1395
G1 X-26.22 Y-63.31 E0.0027
G1 X-28.69 Y-65.78 E0.0649
G1 X-28.73 Y-65.92 E0.0027
G1 X-28.73 Y-73.52 E0.1409
G1 X-28.62 Y-73.69 E0.0038
G1 X-28.49 Y-73.76 E0.0026
G1 X-27.32 Y-72.99 E0.026
G1 X-25.49 Y-71.63 E0.0422
G1 X-24.63 Y-70.91 E0.0209
G1 X-23.06 Y-69.47 E0.0395
G1 X-22.18 Y-68.58 E0.0231
G1 X-20.68 Y-66.9 E0.0418
G1 X-19.9 Y-65.91 E0.0234
G1 X-19.22 Y-65 E0.021
G1 X-18.3 Y-63.63 E0.0307
G1 X-18.38 Y-63.46 E0.0035
G1 X-18.55 Y-63.27 E0.0046
;
; 'Loop', 22.2 [RPM], 25.0 [mm/s]
G1 F7800
G1 X-19.05 Y-63.77 E0
G1 F1500
G1 X-24.16 Y-63.77 E0.0948
G1 X-24.25 Y-64.03 E0.005
G1 X-23.82 Y-64.3 E0.0095
G1 X-23.45 Y-64.64 E0.0092
G1 X-23.15 Y-65.04 E0.0094
G1 X-22.91 Y-65.51 E0.0098
G1 X-22.76 Y-66.07 E0.0107
G1 X-22.73 Y-66.61 E0.01
G1 X-22.77 Y-66.96 E0.0066
G1 X-22.92 Y-67.49 E0.0101
G1 X-23.15 Y-67.96 E0.0098
G1 X-23.46 Y-68.37 E0.0094
G1 X-23.83 Y-68.7 E0.0092
G1 X-24.26 Y-68.98 E0.0095
G1 X-24.77 Y-69.17 E0.0102
G1 X-25.24 Y-69.26 E0.0088
G1 X-25.6 Y-69.27 E0.0068
G1 X-26.17 Y-69.19 E0.0105
G1 X-26.61 Y-69.04 E0.0087
G1 X-27.07 Y-68.79 E0.0097
G1 X-27.45 Y-68.47 E0.0093
G1 X-27.78 Y-68.08 E0.0093
G1 X-27.98 Y-67.75 E0.0072
G1 X-28.23 Y-67.84 E0.0049
G1 X-28.23 Y-72.78 E0.0916
G1 X-28.23 Y-72.95 E0.0032
G1 X-27.57 Y-72.56 E0.0141
G1 X-26.75 Y-71.97 E0.0188
G1 X-25.85 Y-71.28 E0.021
G1 X-24.23 Y-69.89 E0.0396
G1 X-23.32 Y-69.03 E0.0231
G1 X-21.77 Y-67.4 E0.0418
G1 X-20.96 Y-66.45 E0.0232
G1 X-20.25 Y-65.56 E0.021
G1 X-19.07 Y-63.91 E0.0376
G1 X-19.05 Y-63.77 E0.0026
;
; 'Loop', 22.2 [RPM], 25.0 [mm/s]
G1 F7800
G1 X-23.89 Y-64.9 E0
G1 F1500
G1 X-24.18 Y-64.66 E0.0069
G1 X-24.51 Y-64.46 E0.0072
G1 X-24.89 Y-64.31 E0.0076
G1 X-25.34 Y-64.23 E0.0085
G1 X-25.8 Y-64.25 E0.0086
G1 X-26.1 Y-64.31 E0.0056
G1 X-26.49 Y-64.45 E0.0077
G1 X-26.92 Y-64.72 E0.0095
G1 X-27.28 Y-65.07 E0.0092
G1 X-27.4 Y-65.31 E0.0049
G1 X-27.48 Y-65.4 E0.0023
G1 X-27.64 Y-65.77 E0.0075
G1 X-27.68 Y-65.91 E0.0027
G1 X-27.75 Y-66.19 E0.0054
G1 X-27.77 Y-66.66 E0.0086
G1 X-27.69 Y-67.11 E0.0085
G1 X-27.54 Y-67.5 E0.0076
G1 X-27.35 Y-67.83 E0.0072
G1 X-27.1 Y-68.11 E0.007
G1 X-26.81 Y-68.36 E0.007
G1 X-26.48 Y-68.55 E0.0071
G1 X-26.09 Y-68.69 E0.0077
G1 X-25.63 Y-68.77 E0.0086
G1 X-25.2 Y-68.75 E0.0081
G1 X-24.9 Y-68.69 E0.0056
G1 X-24.51 Y-68.55 E0.0076
G1 X-24.08 Y-68.27 E0.0095
G1 X-23.73 Y-67.92 E0.0093
G1 X-23.52 Y-67.6 E0.0071
G1 X-23.35 Y-67.23 E0.0074
G1 X-23.25 Y-66.8 E0.0082
G1 X-23.24 Y-66.37 E0.008
G1 X-23.33 Y-65.84 E0.01
G1 X-23.51 Y-65.41 E0.0087
G1 X-23.65 Y-65.19 E0.0047
G1 X-23.89 Y-64.9 E0.007
;
; 'Perimeter', 21.8 [RPM], 24.5 [mm/s]
G1 F7800
G1 X-23.98 Y-65.17 E0
G1 F1470
G1 X-24.24 Y-65.26 E0.0051
G1 X-24.54 Y-65.02 E0.007
G1 X-24.84 Y-64.86 E0.0064
G1 X-25.17 Y-64.77 E0.0063
G1 X-25.67 Y-64.74 E0.0092
G1 X-25.97 Y-64.79 E0.0057
G1 X-26.23 Y-64.89 E0.0051
G1 X-26.56 Y-65.08 E0.0072
G1 X-26.84 Y-65.34 E0.007
G1 X-26.99 Y-65.54 E0.0047
G1 X-27.17 Y-65.89 E0.0073
G1 X-27.24 Y-66.17 E0.0053
G1 X-27.26 Y-66.68 E0.0094
G1 X-27.2 Y-66.98 E0.0057
G1 X-27.11 Y-67.24 E0.0051
G1 X-26.91 Y-67.57 E0.0071
G1 X-26.65 Y-67.84 E0.007
G1 X-26.22 Y-68.12 E0.0095
G1 X-25.96 Y-68.21 E0.0051
G1 X-25.48 Y-68.26 E0.009
G1 X-25.03 Y-68.21 E0.0084
G1 X-24.77 Y-68.11 E0.0051
G1 X-24.34 Y-67.84 E0.0095
G1 X-24.09 Y-67.56 E0.0069
G1 X-23.87 Y-67.18 E0.0081
G1 X-23.76 Y-66.82 E0.007
G1 X-23.74 Y-66.49 E0.0061
G1 X-23.76 Y-66.19 E0.0056
G1 X-23.86 Y-65.84 E0.0067
G1 X-24.01 Y-65.56 E0.006
G1 X-24.24 Y-65.26 E0.007
G1 X-24.16 Y-64.99 E0.0051
;
; 'Wipe', 0.0 [RPM], 25.0 [mm/s]
G1 F900
G1 E-1.25
G1 F1500
G1 X-24.24 Y-65.26 E0
G1 X-24.01 Y-65.56 E0
G1 X-23.83 Y-65.91 E0
G1 X-23.76 Y-66.19 E0
G1 X-23.74 Y-66.52 E0
G1 X-23.76 Y-66.82 E0
G1 X-23.89 Y-67.23 E0
G1 X-24.09 Y-67.56 E0
G1 X-24.34 Y-67.84 E0
G1 X-24.77 Y-68.11 E0
G1 X-25.03 Y-68.21 E0
G1 X-25.48 Y-68.26 E0
G1 X-25.96 Y-68.21 E0
G1 X-26.22 Y-68.12 E0
G1 X-26.65 Y-67.84 E0
G1 X-26.91 Y-67.57 E0
G1 X-27.15 Y-67.15 E0
G1 X-27.24 Y-66.84 E0
G1 X-27.26 Y-66.33 E0
G1 X-27.21 Y-66.03 E0
G1 X-27.11 Y-65.77 E0
G1 X-26.92 Y-65.44 E0
G1 X-26.66 Y-65.16 E0
G1 X-26.34 Y-64.95 E0
G1 X-25.97 Y-64.79 E0
G1 X-25.67 Y-64.74 E0
G1 X-25.32 Y-64.74 E0
;
; 'Perimeter', 21.8 [RPM], 24.5 [mm/s]
G1 F7800
G1 X-17.58 Y-29.23 E0
G1 F900
G1 E1.25
G1 F1470
G1 X-17.82 Y-29.31 E0.0048
G1 X-18.04 Y-29.23 E0.0043
G1 X-18.22 Y-29.23 E0.0034
G1 X-26.22 Y-29.23 E0.1483
G1 X-26.39 Y-29.22 E0.0032
G1 X-29.22 Y-26.39 E0.0741
G1 X-29.23 Y-26.23 E0.0031
G1 X-29.23 Y-18.1 E0.1507
G1 X-29.25 Y-17.93 E0.0031
G1 X-29.31 Y-17.82 E0.0024
G1 X-29.52 Y-17.67 E0.0047
G1 X-30.1 Y-17.35 E0.0123
G1 X-30.42 Y-17.16 E0.0069
G1 X-30.5 Y-17.13 E0.0016
G1 X-30.77 Y-16.98 E0.0057
G1 X-32.19 Y-16.28 E0.0293
G1 X-32.55 Y-16.11 E0.0075
G1 X-33.05 Y-15.9 E0.01
G1 X-33.16 Y-15.84 E0.0024
G1 X-33.21 Y-15.83 E0.001
G1 X-34.04 Y-15.48 E0.0166
G1 X-34.11 Y-15.47 E0.0013
G1 X-34.3 Y-15.38 E0.0038
G1 X-34.4 Y-15.35 E0.002
G1 X-35.73 Y-14.87 E0.0262
G1 X-35.87 Y-14.83 E0.0027
G1 X-36.95 Y-14.5 E0.021
G1 X-37.22 Y-14.42 E0.0053
G1 X-37.28 Y-14.41 E0.0011
G1 X-37.5 Y-14.35 E0.0042
G1 X-38.63 Y-14.06 E0.0216
G1 X-38.7 Y-14.05 E0.0013
G1 X-39.51 Y-13.88 E0.0153
G1 X-40.4 Y-13.7 E0.0168
G1 X-40.56 Y-13.69 E0.003
G1 X-41.47 Y-13.54 E0.0171
G1 X-42.25 Y-13.44 E0.0147
G1 X-43.06 Y-13.36 E0.015
G1 X-44.38 Y-13.27 E0.0246
G1 X-45.94 Y-13.23 E0.0288
G1 X-47.11 Y-13.25 E0.0217
G1 X-47.62 Y-13.27 E0.0095
G1 X-48.94 Y-13.36 E0.0246
G1 X-49.75 Y-13.44 E0.015
G1 X-50.53 Y-13.54 E0.0146
G1 X-51.75 Y-13.74 E0.0229
G1 X-53.07 Y-14 E0.0249
G1 X-53.3 Y-14.05 E0.0044
G1 X-53.37 Y-14.06 E0.0013
G1 X-53.5 Y-14.1 E0.0027
G1 X-54.08 Y-14.24 E0.0109
G1 X-54.78 Y-14.42 E0.0134
G1 X-54.91 Y-14.46 E0.0026
G1 X-55.06 Y-14.49 E0.0028
G1 X-56.13 Y-14.83 E0.0209
G1 X-56.27 Y-14.87 E0.0026
G1 X-56.4 Y-14.92 E0.0026
G1 X-57.7 Y-15.38 E0.0257
G1 X-57.82 Y-15.44 E0.0024
G1 X-57.96 Y-15.48 E0.0027
G1 X-58.08 Y-15.54 E0.0024
G1 X-58.59 Y-15.73 E0.0101
G1 X-59.45 Y-16.11 E0.0175
G1 X-59.73 Y-16.25 E0.0058
G1 X-59.82 Y-16.27 E0.0016
G1 X-59.93 Y-16.34 E0.0024
G1 X-61.58 Y-17.16 E0.0343
G1 X-62.03 Y-17.41 E0.0096
G1 X-62.14 Y-17.48 E0.0023
G1 X-62.37 Y-17.6 E0.0049
G1 X-62.69 Y-17.82 E0.0071
G1 X-62.77 Y-18.04 E0.0045
G1 X-62.77 Y-26.22 E0.1516
G1 X-62.78 Y-26.36 E0.0025
G1 X-62.78 Y-26.39 E0.0006
G1 X-65.61 Y-29.22 E0.0741
G1 X-65.78 Y-29.23 E0.0031
G1 X-73.91 Y-29.23 E0.1508
G1 X-74.07 Y-29.24 E0.003
G1 X-74.18 Y-29.31 E0.0024
G1 X-74.39 Y-29.63 E0.0071
G1 X-74.45 Y-29.75 E0.0025
G1 X-74.7 Y-30.2 E0.0096
G1 X-74.84 Y-30.42 E0.0047
G1 X-74.89 Y-30.55 E0.0026
G1 X-75.02 Y-30.77 E0.0048
G1 X-75.44 Y-31.59 E0.0171
G1 X-75.6 Y-31.96 E0.0074
G1 X-75.73 Y-32.18 E0.0048
G1 X-75.77 Y-32.32 E0.0027
G1 X-75.9 Y-32.54 E0.0048
G1 X-76 Y-32.79 E0.005
G1 X-76.03 Y-32.94 E0.0027
G1 X-76.16 Y-33.16 E0.0048
G1 X-76.18 Y-33.22 E0.0011
G1 X-76.52 Y-34.04 E0.0165
G1 X-76.54 Y-34.11 E0.0014
G1 X-76.62 Y-34.3 E0.0037
G1 X-77.08 Y-35.6 E0.0257
G1 X-77.13 Y-35.73 E0.0025
G1 X-77.17 Y-35.87 E0.0027
G1 X-77.22 Y-36 E0.0026
G1 X-77.5 Y-36.95 E0.0184
G1 X-77.58 Y-37.22 E0.0052
G1 X-77.61 Y-37.37 E0.0028
G1 X-77.77 Y-37.92 E0.0106
G1 X-78.04 Y-39.06 E0.0219
G1 X-78.1 Y-39.36 E0.0055
G1 X-78.21 Y-39.95 E0.0112
G1 X-78.27 Y-40.25 E0.0056
G1 X-78.31 Y-40.56 E0.0058
G1 X-78.46 Y-41.47 E0.0171
G1 X-78.56 Y-42.26 E0.0148
G1 X-78.64 Y-43.06 E0.0149
G1 X-78.73 Y-44.38 E0.0246
G1 X-78.77 Y-45.93 E0.0287
G1 X-78.75 Y-47.19 E0.0234
G1 X-78.64 Y-48.94 E0.0325
G1 X-78.56 Y-49.74 E0.0149
G1 X-78.46 Y-50.53 E0.0148
G1 X-78.37 Y-51.14 E0.0115
G1 X-78.27 Y-51.75 E0.0114
G1 X-78.19 Y-52.2 E0.0084
G1 X-78.15 Y-52.34 E0.0027
G1 X-78.04 Y-52.94 E0.0112
G1 X-77.84 Y-53.8 E0.0165
G1 X-77.77 Y-54.08 E0.0054
G1 X-77.73 Y-54.22 E0.0026
G1 X-77.58 Y-54.78 E0.0108
G1 X-77.54 Y-54.91 E0.0025
G1 X-77.5 Y-55.05 E0.0028
G1 X-77.13 Y-56.27 E0.0236
G1 X-77.08 Y-56.4 E0.0025
G1 X-76.76 Y-57.32 E0.018
G1 X-76.62 Y-57.7 E0.0077
G1 X-76.56 Y-57.82 E0.0024
G1 X-76.52 Y-57.96 E0.0027
G1 X-76.46 Y-58.08 E0.0024
G1 X-76.27 Y-58.59 E0.0102
G1 X-75.94 Y-59.32 E0.0149
G1 X-75.9 Y-59.46 E0.0026
G1 X-75.83 Y-59.57 E0.0024
G1 X-75.38 Y-60.53 E0.0196
G1 X-74.84 Y-61.58 E0.022
G1 X-74.59 Y-62.04 E0.0096
G1 X-74.52 Y-62.14 E0.0024
