; generated by Slic3r 0.8.2 on 2012-06-23 at 16:46:31

; layer_height = 0.4
; perimeters = 3
; solid_layers = 3
; fill_density = 0.4
; nozzle_diameter = 0.5
; filament_diameter = 3
; extrusion_multiplier = 1
; perimeter_speed = 30
; infill_speed = 60
; travel_speed = 130
; extrusion_width_ratio = 0
; scale = 1
; single wall width = 0.53mm

M104 S200 ; set temperature
G28 ; home all axes
M109 S200 ; wait for temperature to be reached
G90 ; use absolute coordinates
G21 ; set units to millimeters
G92 E0 ; reset extrusion distance
M82 ; use absolute distances for extrusion
G1 Z0.400 F7800.000
G1 X94.930 Y95.110
G1 F1800.000 E1.00000
G1 X95.110 Y94.930 F540.000 E1.00749
G1 X95.490 Y94.590 E1.02248
G1 X96.110 Y94.150 E1.04483
G1 X96.330 Y94.020 E1.05235
G1 X96.790 Y93.790 E1.06747
G1 X97.260 Y93.600 E1.08238
G1 X97.750 Y93.450 E1.09745
G1 X98.000 Y93.390 E1.10501
G1 X98.750 Y93.280 E1.12730
G1 X99.260 Y93.260 E1.14231
G1 X101.240 Y93.280 E1.20053
G1 X101.990 Y93.390 E1.22282
G1 X102.490 Y93.520 E1.23801
G1 X102.970 Y93.690 E1.25299
G1 X103.430 Y93.900 E1.26786
G1 X103.660 Y94.020 E1.27548
G1 X103.880 Y94.150 E1.28300
G1 X104.500 Y94.590 E1.30535
G1 X104.880 Y94.930 E1.32035
G1 X105.060 Y95.110 E1.32783
G1 X105.400 Y95.490 E1.34283
G1 X105.840 Y96.110 E1.36518
G1 X105.970 Y96.330 E1.37270
G1 X106.200 Y96.790 E1.38782
G1 X106.390 Y97.260 E1.40273
G1 X106.540 Y97.750 E1.41780
G1 X106.600 Y98.000 E1.42536
G1 X106.710 Y98.750 E1.44765
G1 X106.710 Y101.240 E1.52087
G1 X106.600 Y101.990 E1.54316
G1 X106.470 Y102.490 E1.55835
G1 X106.300 Y102.970 E1.57332
G1 X106.090 Y103.430 E1.58819
G1 X105.970 Y103.660 E1.59582
G1 X105.840 Y103.880 E1.60333
G1 X105.400 Y104.500 E1.62569
G1 X105.060 Y104.880 E1.64068
G1 X104.880 Y105.060 E1.64817
G1 X104.500 Y105.400 E1.66316
G1 X103.880 Y105.840 E1.68552
G1 X103.660 Y105.970 E1.69303
G1 X103.200 Y106.200 E1.70815
G1 X102.730 Y106.390 E1.72306
G1 X102.240 Y106.540 E1.73813
G1 X101.990 Y106.600 E1.74569
G1 X101.240 Y106.710 E1.76798
G1 X100.730 Y106.730 E1.78299
G1 X98.750 Y106.710 E1.84121
G1 X98.000 Y106.600 E1.86350
G1 X97.500 Y106.470 E1.87870
G1 X97.020 Y106.300 E1.89367
G1 X96.560 Y106.090 E1.90854
G1 X96.330 Y105.970 E1.91617
G1 X96.110 Y105.840 E1.92368
G1 X95.490 Y105.400 E1.94604
G1 X95.110 Y105.060 E1.96103
G1 X94.930 Y104.880 E1.96852
G1 X94.590 Y104.500 E1.98351
G1 X94.150 Y103.880 E2.00587
G1 X94.020 Y103.660 E2.01338
G1 X93.790 Y103.200 E2.02850
G1 X93.600 Y102.730 E2.04341
G1 X93.450 Y102.240 E2.05848
G1 X93.390 Y101.990 E2.06604
G1 X93.280 Y101.240 E2.08833
G1 X93.280 Y98.750 E2.16155
G1 X93.390 Y98.000 E2.18384
G1 X93.520 Y97.500 E2.19903
G1 X93.690 Y97.020 E2.21400
G1 X93.900 Y96.560 E2.22887
G1 X94.020 Y96.330 E2.23650
G1 X94.150 Y96.110 E2.24401
G1 X94.590 Y95.490 E2.26637
G1 X94.877 Y95.169 E2.27905
G1 F1800.000 E1.27905
G92 E0
G1 X99.778 Y99.778 F7800.000
G1 F1800.000 E1.00000
G1 X100.222 Y99.778 F540.000 E1.01307
G1 X100.222 Y100.222 E1.02615
G1 X99.778 Y100.222 E1.03922
G1 X99.778 Y99.856 E1.04998
G1 X99.262 Y99.262 F7800.000
G1 X100.737 Y99.262 F540.000 E1.09336
G1 X100.737 Y100.737 E1.13673
G1 X99.262 Y100.737 E1.18010
G1 X99.262 Y99.341 E1.22116
G1 F1800.000 E0.22116
G92 E0
G1 Z0.800 F7800.000
G1 X99.778 Y99.778
G1 F1800.000 E1.00000
G1 X100.222 Y99.778 F1800.000 E1.01307
G1 X100.222 Y100.222 E1.02615
G1 X99.778 Y100.222 E1.03922
G1 X99.778 Y99.856 E1.04998
G1 X99.262 Y99.262 F7800.000
G1 X100.737 Y99.262 F1800.000 E1.09336
G1 X100.737 Y100.737 E1.13673
G1 X99.262 Y100.737 E1.18010
G1 X99.262 Y99.341 E1.22116
G1 F1800.000 E0.22116
G92 E0
G1 Z1.200 F7800.000
G1 X99.778 Y99.778
G1 F1800.000 E1.00000
G1 X100.222 Y99.778 F1800.000 E1.01307
G1 X100.222 Y100.222 E1.02615
G1 X99.778 Y100.222 E1.03922
G1 X99.778 Y99.856 E1.04998
G1 X99.262 Y99.262 F7800.000
G1 X100.737 Y99.262 F1800.000 E1.09336
G1 X100.737 Y100.737 E1.13673
G1 X99.262 Y100.737 E1.18010
G1 X99.262 Y99.341 E1.22116
G1 F1800.000 E0.22116
G92 E0
G1 Z1.600 F7800.000
G1 X99.778 Y99.778
G1 F1800.000 E1.00000
G1 X100.222 Y99.778 F1800.000 E1.01307
G1 X100.222 Y100.222 E1.02615
G1 X99.778 Y100.222 E1.03922
G1 X99.778 Y99.856 E1.04998
G1 X99.262 Y99.262 F7800.000
G1 X100.737 Y99.262 F1800.000 E1.09336
G1 X100.737 Y100.737 E1.13673
G1 X99.262 Y100.737 E1.18010
G1 X99.262 Y99.341 E1.22116
G1 F1800.000 E0.22116
G92 E0
G1 Z2.000 F7800.000
G1 X99.778 Y99.778
G1 F1800.000 E1.00000
G1 X100.222 Y99.778 F1800.000 E1.01307
G1 X100.222 Y100.222 E1.02615
G1 X99.778 Y100.222 E1.03922
G1 X99.778 Y99.856 E1.04998
G1 X99.262 Y99.262 F7800.000
G1 X100.737 Y99.262 F1800.000 E1.09336
G1 X100.737 Y100.737 E1.13673
G1 X99.262 Y100.737 E1.18010
G1 X99.262 Y99.341 E1.22116
G1 F1800.000 E0.22116
G92 E0
M104 S0 ; turn off temperature
G28 X0  ; home X axis
M84     ; disable motors

; filament used = 3.4mm (0.0cm3)
