;Generated with Cura_SteamEngine 13.06.4
M109 T0 S196.000000
T0
;Sliced at: Sun 21 Jul 2013 18:18:56
;Basic settings: Layer height: 0.25 Walls: 1.4 Fill: 100
;Print time: #P_TIME#
;Filament used: #F_AMNT#m #F_WGHT#g
;Filament cost: #F_COST#
G21        ;metric values
G90        ;absolute positioning
M107       ;start with the fan off
G28 X0 Y0  ;move X/Y to min endstops
G28 Z0     ;move Z to min endstops
G1 Z15.0 F10800 ;move the platform down 15mm
G92 E0                  ;zero the extruded length
G1 F200 E3              ;extrude 3mm of feed stock
G92 E0                  ;zero the extruded length again
G1 F10800
M117 Printing...

;total_layers=32
;LAYER:-2
;RAFT
G0 F10800 X46.22 Y10.88 Z0.40
;TYPE:SUPPORT
G1 F3600 X47.75 Y8.78 E0.07715
G1 X50.37 Y7.93 E0.15906
G1 X50.46 Y7.91 E0.16159
G1 X53.28 Y7.12 E0.24869
G1 X53.40 Y7.09 E0.25205
G1 X56.28 Y6.47 E0.33959
G1 X56.39 Y6.44 E0.34297
G1 X59.29 Y5.99 E0.43009
G1 X59.38 Y5.97 E0.43263
G1 X60.86 Y5.80 E0.47700
G1 X60.92 Y5.80 E0.47867
G1 X62.36 Y5.68 E0.52163
G1 X62.42 Y5.67 E0.52329
G1 X63.90 Y5.59 E0.56720
G1 X63.98 Y5.58 E0.56979
G1 X66.90 Y5.54 E0.65644
G1 X67.02 Y5.54 E0.65985
G1 X69.82 Y5.66 E0.74307
G1 X69.84 Y5.66 E0.74370
G1 X70.01 Y5.67 E0.74880
G1 X71.55 Y5.80 E0.79438
G1 X71.60 Y5.81 E0.79605
G1 X73.08 Y5.98 E0.84027
G1 X73.17 Y5.99 E0.84284
G1 X76.06 Y6.45 E0.92961
G1 X76.14 Y6.46 E0.93214
G1 X77.60 Y6.76 E0.97633
G1 X77.66 Y6.77 E0.97803
G1 X79.12 Y7.11 E1.02268
G1 X79.23 Y7.14 E1.02600
G1 X84.62 Y8.72 E1.19255
G1 X86.22 Y10.85 E1.27157
G1 X86.22 Y33.21 E1.93464
G1 X124.06 Y106.06 E4.36973
G1 X124.01 Y108.11 E4.43053
G1 X112.47 Y128.09 E5.11483
G1 X111.18 Y129.07 E5.16308
G1 X107.80 Y129.91 E5.26639
G1 X107.75 Y129.92 E5.26773
G1 X102.53 Y131.10 E5.42653
G1 X102.46 Y131.12 E5.42878
G1 X94.57 Y132.59 E5.66674
G1 X94.48 Y132.60 E5.66947
G1 X86.52 Y133.70 E5.90767
G1 X86.43 Y133.71 E5.91041
G1 X78.44 Y134.45 E6.14839
G1 X78.37 Y134.46 E6.15065
G1 X73.01 Y134.74 E6.30966
G1 X72.95 Y134.75 E6.31147
G1 X67.60 Y134.87 E6.47030
G1 X67.54 Y134.87 E6.47210
G1 X62.06 Y134.82 E6.63460
G1 X62.01 Y134.82 E6.63599
G1 X59.46 Y134.74 E6.71191
G1 X59.41 Y134.74 E6.71324
G1 X54.07 Y134.46 E6.87202
G1 X53.99 Y134.45 E6.87434
G1 X45.87 Y133.70 E7.11623
G1 X45.78 Y133.69 E7.11894
G1 X37.95 Y132.60 E7.35322
G1 X37.86 Y132.59 E7.35593
G1 X29.97 Y131.12 E7.59413
G1 X29.88 Y131.10 E7.59683
G1 X21.30 Y129.09 E7.85826
G1 X19.97 Y128.10 E7.90744
G1 X8.42 Y108.11 E8.59220
G1 X8.38 Y106.06 E8.65299
G1 X46.22 Y33.21 E11.08812
G1 X46.22 Y10.88 E11.75027
G0 F10800 X46.80 Y9.95
G1 F3600 X46.80 Y133.86 E15.42567
G0 F10800 X45.80 Y133.77
G1 F3600 X45.80 Y33.84 E18.38961
G0 F10800 X44.80 Y35.77
G1 F3600 X44.80 Y133.63 E21.29234
G0 F10800 X43.80 Y133.49
G1 F3600 X43.80 Y37.69 E24.13381
G0 F10800 X42.80 Y39.62
G1 F3600 X42.80 Y133.35 E26.91405
G0 F10800 X41.80 Y133.21
G1 F3600 X41.80 Y41.54 E29.63308
G0 F10800 X40.80 Y43.47
G1 F3600 X40.80 Y133.07 E32.29085
G0 F10800 X39.80 Y132.93
G1 F3600 X39.80 Y45.40 E34.88737
G0 F10800 X38.80 Y47.32
G1 F3600 X38.80 Y132.79 E37.42267
G0 F10800 X37.80 Y132.65
G1 F3600 X37.80 Y49.24 E39.89668
G0 F10800 X36.80 Y51.17
G1 F3600 X36.80 Y132.46 E42.30802
G0 F10800 X35.80 Y132.28
G1 F3600 X35.80 Y53.10 E44.65674
G0 F10800 X34.80 Y55.02
G1 F3600 X34.80 Y132.09 E46.94284
G0 F10800 X33.80 Y131.91
G1 F3600 X33.80 Y56.95 E49.16633
G0 F10800 X32.80 Y58.87
G1 F3600 X32.80 Y131.72 E51.32717
G0 F10800 X31.80 Y131.53
G1 F3600 X31.80 Y60.80 E53.42539
G0 F10800 X30.80 Y62.72
G1 F3600 X30.80 Y131.35 E55.46097
G0 F10800 X29.80 Y131.16
G1 F3600 X29.80 Y64.65 E57.43375
G0 F10800 X28.80 Y66.57
G1 F3600 X28.80 Y130.92 E59.34249
G0 F10800 X27.80 Y130.69
G1 F3600 X27.80 Y68.50 E61.18719
G0 F10800 X26.80 Y70.42
G1 F3600 X26.80 Y130.46 E62.96787
G0 F10800 X25.80 Y130.22
G1 F3600 X25.80 Y72.35 E64.68449
G0 F10800 X24.80 Y74.27
G1 F3600 X24.80 Y129.99 E66.33707
G0 F10800 X23.80 Y129.75
G1 F3600 X23.80 Y76.20 E67.92560
G0 F10800 X22.80 Y78.12
G1 F3600 X22.80 Y129.52 E69.45006
G0 F10800 X21.80 Y129.29
G1 F3600 X21.80 Y80.05 E70.91049
G0 F10800 X20.80 Y81.97
G1 F3600 X20.80 Y128.82 E72.29987
G0 F10800 X19.80 Y127.97
G1 F3600 X19.80 Y83.90 E73.60700
G0 F10800 X18.80 Y85.83
G1 F3600 X18.80 Y126.24 E74.80562
G0 F10800 X17.80 Y124.50
G1 F3600 X17.80 Y87.75 E75.89577
G0 F10800 X16.80 Y89.68
G1 F3600 X16.80 Y122.77 E76.87745
G0 F10800 X15.80 Y121.04
G1 F3600 X15.80 Y91.60 E77.75062
G0 F10800 X14.80 Y93.53
G1 F3600 X14.80 Y119.31 E78.51531
G0 F10800 X13.80 Y117.57
G1 F3600 X13.80 Y95.45 E79.17153
G0 F10800 X12.80 Y97.38
G1 F3600 X12.80 Y115.84 E79.71927
G0 F10800 X11.80 Y114.11
G1 F3600 X11.80 Y99.30 E80.15851
G0 F10800 X10.80 Y101.23
G1 F3600 X10.80 Y112.38 E80.48928
G0 F10800 X9.80 Y110.65
G1 F3600 X9.80 Y103.15 E80.71157
G0 F10800 X8.80 Y105.08
G1 F3600 X8.80 Y108.91 E80.82532
G0 F10800 X47.80 Y133.95
G1 F3600 X47.80 Y8.68 E84.54112
G0 F10800 X48.80 Y8.36
G1 F3600 X48.80 Y134.04 E88.26928
G0 F10800 X49.80 Y134.14
G1 F3600 X49.80 Y8.03 E92.00979
G0 F10800 X50.80 Y7.73
G1 F3600 X50.80 Y134.23 E95.76207
G0 F10800 X51.80 Y134.32
G1 F3600 X51.80 Y7.45 E99.52536
G0 F10800 X52.80 Y7.17
G1 F3600 X52.80 Y134.42 E103.29965
G0 F10800 X53.80 Y134.51
G1 F3600 X53.80 Y6.93 E107.08405
G0 F10800 X54.80 Y6.71
G1 F3600 X54.80 Y134.57 E110.87668
G0 F10800 X55.80 Y134.62
G1 F3600 X55.80 Y6.49 E114.67737
G0 F10800 X56.80 Y6.30
G1 F3600 X56.80 Y134.68 E118.48526
G0 F10800 X57.80 Y134.73
G1 F3600 X57.80 Y6.14 E122.29945
G0 F10800 X58.80 Y5.99
G1 F3600 X58.80 Y134.79 E126.11993
G0 F10800 X59.80 Y134.83
G1 F3600 X59.80 Y5.85 E129.94580
G0 F10800 X60.80 Y5.73
G1 F3600 X60.80 Y134.86 E133.77603
G0 F10800 X61.80 Y134.89
G1 F3600 X61.80 Y5.65 E137.60977
G0 F10800 X62.80 Y5.57
G1 F3600 X62.80 Y134.90 E141.44605
G0 F10800 X63.80 Y134.91
G1 F3600 X63.80 Y5.51 E145.28429
G0 F10800 X64.80 Y5.49
G1 F3600 X64.80 Y134.92 E149.12343
G0 F10800 X65.80 Y134.93
G1 F3600 X65.80 Y5.48 E152.96321
G0 F10800 X66.80 Y5.47
G1 F3600 X66.80 Y134.94 E156.80368
G0 F10800 X67.80 Y134.94
G1 F3600 X67.80 Y5.50 E160.64317
G0 F10800 X68.80 Y5.54
G1 F3600 X68.80 Y134.92 E164.48067
G0 F10800 X69.80 Y134.89
G1 F3600 X69.80 Y5.59 E168.31621
G0 F10800 X70.80 Y5.66
G1 F3600 X70.80 Y134.87 E172.14882
G0 F10800 X71.80 Y134.85
G1 F3600 X71.80 Y5.75 E175.97802
G0 F10800 X72.80 Y5.87
G1 F3600 X72.80 Y134.82 E179.80315
G0 F10800 X73.80 Y134.78
G1 F3600 X73.80 Y6.01 E183.62258
G0 F10800 X74.80 Y6.17
G1 F3600 X74.80 Y134.72 E187.43570
G0 F10800 X75.80 Y134.67
G1 F3600 X75.80 Y6.33 E191.24253
G0 F10800 X76.80 Y6.52
G1 F3600 X76.80 Y134.62 E195.04216
G0 F10800 X77.80 Y134.56
G1 F3600 X77.80 Y6.73 E198.83404
G0 F10800 X78.80 Y6.96
G1 F3600 X78.80 Y134.49 E202.61702
G0 F10800 X79.80 Y134.40
G1 F3600 X79.80 Y7.23 E206.38923
G0 F10800 X80.80 Y7.52
G1 F3600 X80.80 Y134.31 E210.15000
G0 F10800 X81.80 Y134.22
G1 F3600 X81.80 Y7.82 E213.89934
G0 F10800 X82.80 Y8.11
G1 F3600 X82.80 Y134.12 E217.63721
G0 F10800 X83.80 Y134.03
G1 F3600 X83.80 Y8.40 E221.36365
G0 F10800 X84.80 Y8.84
G1 F3600 X84.80 Y133.94 E225.07441
G0 F10800 X85.80 Y133.85
G1 F3600 X85.80 Y10.17 E228.74283
G0 F10800 X86.80 Y34.17
G1 F3600 X86.80 Y133.74 E231.69637
G0 F10800 X87.80 Y133.60
G1 F3600 X87.80 Y36.10 E234.58865
G0 F10800 X88.80 Y38.02
G1 F3600 X88.80 Y133.46 E237.41971
G0 F10800 X89.80 Y133.32
G1 F3600 X89.80 Y39.95 E240.18952
G0 F10800 X90.80 Y41.87
G1 F3600 X90.80 Y133.19 E242.89813
G0 F10800 X91.80 Y133.05
G1 F3600 X91.80 Y43.80 E245.54549
G0 F10800 X92.80 Y45.72
G1 F3600 X92.80 Y132.91 E248.13163
G0 F10800 X93.80 Y132.77
G1 F3600 X93.80 Y47.65 E250.65651
G0 F10800 X94.80 Y49.57
G1 F3600 X94.80 Y132.62 E253.11988
G0 F10800 X95.80 Y132.43
G1 F3600 X95.80 Y51.50 E255.52060
G0 F10800 X96.80 Y53.42
G1 F3600 X96.80 Y132.25 E257.85867
G0 F10800 X97.80 Y132.06
G1 F3600 X97.80 Y55.35 E260.13412
G0 F10800 X98.80 Y57.28
G1 F3600 X98.80 Y131.88 E262.34693
G0 F10800 X99.80 Y131.69
G1 F3600 X99.80 Y59.20 E264.49712
G0 F10800 X100.80 Y61.13
G1 F3600 X100.80 Y131.50 E266.58467
G0 F10800 X101.80 Y131.32
G1 F3600 X101.80 Y63.05 E268.60959
G0 F10800 X102.80 Y64.98
G1 F3600 X102.80 Y131.12 E270.57155
G0 F10800 X103.80 Y130.89
G1 F3600 X103.80 Y66.90 E272.46964
G0 F10800 X104.80 Y68.83
G1 F3600 X104.80 Y130.67 E274.30392
G0 F10800 X105.80 Y130.44
G1 F3600 X105.80 Y70.75 E276.07438
G0 F10800 X106.80 Y72.68
G1 F3600 X106.80 Y130.21 E277.78103
G0 F10800 X107.80 Y129.99
G1 F3600 X107.80 Y74.60 E279.42385
G0 F10800 X108.80 Y76.53
G1 F3600 X108.80 Y129.74 E281.00218
G0 F10800 X109.80 Y129.49
G1 F3600 X109.80 Y78.46 E282.51596
G0 F10800 X110.80 Y80.38
G1 F3600 X110.80 Y129.24 E283.96523
G0 F10800 X111.80 Y128.69
G1 F3600 X111.80 Y82.31 E285.34109
G0 F10800 X112.80 Y84.23
G1 F3600 X112.80 Y127.67 E286.62962
G0 F10800 X113.80 Y125.94
G1 F3600 X113.80 Y86.16 E287.80968
G0 F10800 X114.80 Y88.08
G1 F3600 X114.80 Y124.21 E288.88123
G0 F10800 X115.80 Y122.47
G1 F3600 X115.80 Y90.01 E289.84430
G0 F10800 X116.80 Y91.93
G1 F3600 X116.80 Y120.74 E290.69884
G0 F10800 X117.80 Y119.01
G1 F3600 X117.80 Y93.86 E291.44491
G0 F10800 X118.80 Y95.78
G1 F3600 X118.80 Y117.28 E292.08250
G0 F10800 X119.80 Y115.55
G1 F3600 X119.80 Y97.71 E292.61159
G0 F10800 X120.80 Y99.63
G1 F3600 X120.80 Y113.81 E293.03220
G0 F10800 X121.80 Y112.08
G1 F3600 X121.80 Y101.56 E293.34431
G0 F10800 X122.80 Y103.49
G1 F3600 X122.80 Y110.35 E293.54794
G0 F10800 X123.80 Y108.62
G1 F3600 X123.80 Y105.41 E293.64306
;LAYER:-1
;RAFT
G0 F10800 X123.78 Y105.42 Z0.70
;TYPE:SUPPORT
G1 F3600 X8.65 Y105.42 E295.43600
G0 F10800 X8.33 Y106.42
G1 F3600 X124.10 Y106.42 E297.23879
G0 F10800 X124.07 Y107.42
G1 F3600 X8.35 Y107.42 E299.04086
G0 F10800 X8.54 Y108.42
G1 F3600 X123.89 Y108.42 E300.83710
G0 F10800 X123.31 Y109.42
G1 F3600 X9.12 Y109.42 E302.61536
G0 F10800 X9.70 Y110.42
G1 F3600 X122.73 Y110.42 E304.37564
G0 F10800 X122.15 Y111.42
G1 F3600 X10.27 Y111.42 E306.11793
G0 F10800 X10.85 Y112.42
G1 F3600 X121.58 Y112.42 E307.84223
G0 F10800 X121.00 Y113.42
G1 F3600 X11.43 Y113.42 E309.54856
G0 F10800 X12.01 Y114.42
G1 F3600 X120.42 Y114.42 E311.23691
G0 F10800 X119.85 Y115.42
G1 F3600 X12.58 Y115.42 E312.90727
G0 F10800 X13.16 Y116.42
G1 F3600 X119.27 Y116.42 E314.55966
G0 F10800 X118.69 Y117.42
G1 F3600 X13.74 Y117.42 E316.19404
G0 F10800 X14.32 Y118.42
G1 F3600 X118.11 Y118.42 E317.81046
G0 F10800 X117.54 Y119.42
G1 F3600 X14.89 Y119.42 E319.40889
G0 F10800 X15.47 Y120.42
G1 F3600 X116.96 Y120.42 E320.98932
G0 F10800 X116.38 Y121.42
G1 F3600 X16.05 Y121.42 E322.55177
G0 F10800 X16.63 Y122.42
G1 F3600 X115.80 Y122.42 E324.09624
G0 F10800 X115.23 Y123.42
G1 F3600 X17.20 Y123.42 E325.62273
G0 F10800 X17.78 Y124.42
G1 F3600 X114.65 Y124.42 E327.13124
G0 F10800 X114.07 Y125.42
G1 F3600 X18.36 Y125.42 E328.62177
G0 F10800 X18.93 Y126.42
G1 F3600 X113.49 Y126.42 E330.09431
G0 F10800 X112.92 Y127.42
G1 F3600 X19.51 Y127.42 E331.54886
G0 F10800 X20.31 Y128.42
G1 F3600 X112.12 Y128.42 E332.97854
G0 F10800 X109.97 Y129.42
G1 F3600 X22.48 Y129.42 E334.34092
G0 F10800 X26.76 Y130.42
G1 F3600 X105.78 Y130.42 E335.57143
G0 F10800 X101.11 Y131.42
G1 F3600 X31.33 Y131.42 E336.65808
G0 F10800 X36.70 Y132.42
G1 F3600 X95.73 Y132.42 E337.57740
G0 F10800 X88.93 Y133.42
G1 F3600 X43.48 Y133.42 E338.28516
G0 F10800 X53.11 Y134.42
G1 F3600 X79.32 Y134.42 E338.69337
G0 F10800 X123.26 Y104.42
G1 F3600 X9.17 Y104.42 E340.47014
G0 F10800 X9.69 Y103.42
G1 F3600 X122.74 Y103.42 E342.23073
G0 F10800 X122.22 Y102.42
G1 F3600 X10.21 Y102.42 E343.97514
G0 F10800 X10.73 Y101.42
G1 F3600 X121.71 Y101.42 E345.70338
G0 F10800 X121.19 Y100.42
G1 F3600 X11.25 Y100.42 E347.41543
G0 F10800 X11.77 Y99.42
G1 F3600 X120.67 Y99.42 E349.11131
G0 F10800 X120.15 Y98.42
G1 F3600 X12.28 Y98.42 E350.79101
G0 F10800 X12.81 Y97.42
G1 F3600 X119.63 Y97.42 E352.45454
G0 F10800 X119.11 Y96.42
G1 F3600 X13.32 Y96.42 E354.10190
G0 F10800 X13.84 Y95.42
G1 F3600 X118.59 Y95.42 E355.73306
G0 F10800 X118.07 Y94.42
G1 F3600 X14.36 Y94.42 E357.34806
G0 F10800 X14.88 Y93.42
G1 F3600 X117.55 Y93.42 E358.94686
G0 F10800 X117.03 Y92.42
G1 F3600 X15.40 Y92.42 E360.52950
G0 F10800 X15.92 Y91.42
G1 F3600 X116.51 Y91.42 E362.09598
G0 F10800 X115.99 Y90.42
G1 F3600 X16.44 Y90.42 E363.64625
G0 F10800 X16.96 Y89.42
G1 F3600 X115.47 Y89.42 E365.18037
G0 F10800 X114.95 Y88.42
G1 F3600 X17.48 Y88.42 E366.69830
G0 F10800 X18.00 Y87.42
G1 F3600 X114.43 Y87.42 E368.20006
G0 F10800 X113.92 Y86.42
G1 F3600 X18.52 Y86.42 E369.68565
G0 F10800 X19.04 Y85.42
G1 F3600 X113.39 Y85.42 E371.15504
G0 F10800 X112.88 Y84.42
G1 F3600 X19.56 Y84.42 E372.60827
G0 F10800 X20.08 Y83.42
G1 F3600 X112.36 Y83.42 E374.04532
G0 F10800 X111.84 Y82.42
G1 F3600 X20.60 Y82.42 E375.46619
G0 F10800 X21.12 Y81.42
G1 F3600 X111.32 Y81.42 E376.87088
G0 F10800 X110.80 Y80.42
G1 F3600 X21.64 Y80.42 E378.25940
G0 F10800 X22.15 Y79.42
G1 F3600 X110.28 Y79.42 E379.63175
G0 F10800 X109.76 Y78.42
G1 F3600 X22.67 Y78.42 E380.98791
G0 F10800 X23.19 Y77.42
G1 F3600 X109.24 Y77.42 E382.32790
G0 F10800 X108.72 Y76.42
G1 F3600 X23.71 Y76.42 E383.65170
G0 F10800 X24.23 Y75.42
G1 F3600 X108.20 Y75.42 E384.95934
G0 F10800 X107.68 Y74.42
G1 F3600 X24.75 Y74.42 E386.25081
G0 F10800 X25.27 Y73.42
G1 F3600 X107.16 Y73.42 E387.52609
G0 F10800 X106.64 Y72.42
G1 F3600 X25.79 Y72.42 E388.78520
G0 F10800 X26.31 Y71.42
G1 F3600 X106.12 Y71.42 E390.02812
G0 F10800 X105.61 Y70.42
G1 F3600 X26.83 Y70.42 E391.25488
G0 F10800 X27.35 Y69.42
G1 F3600 X105.08 Y69.42 E392.46544
G0 F10800 X104.57 Y68.42
G1 F3600 X27.87 Y68.42 E393.65983
G0 F10800 X28.39 Y67.42
G1 F3600 X104.05 Y67.42 E394.83806
G0 F10800 X103.53 Y66.42
G1 F3600 X28.91 Y66.42 E396.00010
G0 F10800 X29.43 Y65.42
G1 F3600 X103.01 Y65.42 E397.14597
G0 F10800 X102.49 Y64.42
G1 F3600 X29.95 Y64.42 E398.27566
G0 F10800 X30.47 Y63.42
G1 F3600 X101.97 Y63.42 E399.38917
G0 F10800 X101.45 Y62.42
G1 F3600 X30.98 Y62.42 E400.48652
G0 F10800 X31.50 Y61.42
G1 F3600 X100.93 Y61.42 E401.56767
G0 F10800 X100.41 Y60.42
G1 F3600 X32.02 Y60.42 E402.63266
G0 F10800 X32.54 Y59.42
G1 F3600 X99.89 Y59.42 E403.68146
G0 F10800 X99.37 Y58.42
G1 F3600 X33.06 Y58.42 E404.71407
G0 F10800 X33.58 Y57.42
G1 F3600 X98.85 Y57.42 E405.73050
G0 F10800 X98.33 Y56.42
G1 F3600 X34.10 Y56.42 E406.73077
G0 F10800 X34.62 Y55.42
G1 F3600 X97.81 Y55.42 E407.71486
G0 F10800 X97.29 Y54.42
G1 F3600 X35.14 Y54.42 E408.68276
G0 F10800 X35.66 Y53.42
G1 F3600 X96.78 Y53.42 E409.63449
G0 F10800 X96.26 Y52.42
G1 F3600 X36.18 Y52.42 E410.57004
G0 F10800 X36.70 Y51.42
G1 F3600 X95.74 Y51.42 E411.48942
G0 F10800 X95.22 Y50.42
G1 F3600 X37.22 Y50.42 E412.39262
G0 F10800 X37.74 Y49.42
G1 F3600 X94.70 Y49.42 E413.27964
G0 F10800 X94.18 Y48.42
G1 F3600 X38.26 Y48.42 E414.15050
G0 F10800 X38.78 Y47.42
G1 F3600 X93.66 Y47.42 E415.00516
G0 F10800 X93.14 Y46.42
G1 F3600 X39.30 Y46.42 E415.84366
G0 F10800 X39.82 Y45.42
G1 F3600 X92.62 Y45.42 E416.66596
G0 F10800 X92.10 Y44.42
G1 F3600 X40.33 Y44.42 E417.47209
G0 F10800 X40.85 Y43.42
G1 F3600 X91.58 Y43.42 E418.26207
G0 F10800 X91.06 Y42.42
G1 F3600 X41.37 Y42.42 E419.03584
G0 F10800 X41.89 Y41.42
G1 F3600 X90.54 Y41.42 E419.79346
G0 F10800 X90.02 Y40.42
G1 F3600 X42.41 Y40.42 E420.53489
G0 F10800 X42.93 Y39.42
G1 F3600 X89.50 Y39.42 E421.26014
G0 F10800 X88.99 Y38.42
G1 F3600 X43.45 Y38.42 E421.96921
G0 F10800 X43.97 Y37.42
G1 F3600 X88.46 Y37.42 E422.66210
G0 F10800 X87.95 Y36.42
G1 F3600 X44.49 Y36.42 E423.33883
G0 F10800 X45.01 Y35.42
G1 F3600 X87.43 Y35.42 E423.99938
G0 F10800 X86.91 Y34.42
G1 F3600 X45.53 Y34.42 E424.64375
G0 F10800 X46.05 Y33.42
G1 F3600 X86.39 Y33.42 E425.27193
G0 F10800 X86.27 Y32.42
G1 F3600 X46.17 Y32.42 E425.89645
G0 F10800 X46.17 Y31.42
G1 F3600 X86.27 Y31.42 E426.52096
G0 F10800 X86.27 Y30.42
G1 F3600 X46.17 Y30.42 E427.14547
G0 F10800 X46.17 Y29.42
G1 F3600 X86.27 Y29.42 E427.76998
G0 F10800 X86.27 Y28.42
G1 F3600 X46.17 Y28.42 E428.39450
G0 F10800 X46.17 Y27.42
G1 F3600 X86.27 Y27.42 E429.01901
G0 F10800 X86.27 Y26.42
G1 F3600 X46.17 Y26.42 E429.64352
G0 F10800 X46.17 Y25.42
G1 F3600 X86.27 Y25.42 E430.26803
G0 F10800 X86.27 Y24.42
G1 F3600 X46.17 Y24.42 E430.89255
G0 F10800 X46.17 Y23.42
