;Generated with Cura_SteamEngine 13.06.4
M109 T0 S196.000000
T0
;Sliced at: Sun 21 Jul 2013 15:37:16
;Basic settings: Layer height: 0.33 Walls: 1.7 Fill: 90
;Print time: #P_TIME#
;Filament used: #F_AMNT#m #F_WGHT#g
;Filament cost: #F_COST#
G21        ;metric values
G90        ;absolute positioning
M107       ;start with the fan off
G28 X0 Y0  ;move X/Y to min endstops
G28 Z0     ;move Z to min endstops
G1 Z15.0 F10800 ;move the platform down 15mm
G92 E0                  ;zero the extruded length
G1 F200 E3              ;extrude 3mm of feed stock
G92 E0                  ;zero the extruded length again
G1 F10800
M117 Printing...

;total_layers=24
;LAYER:-2
;RAFT
G0 F10800 X50.89 Y9.57 Z0.35
;TYPE:SUPPORT
G1 F2100 X51.87 Y8.24 E0.05123
G1 X55.39 Y7.16 E0.16604
G1 X55.44 Y7.14 E0.16775
G1 X56.87 Y6.77 E0.21359
G1 X56.92 Y6.76 E0.21526
G1 X59.75 Y6.14 E0.30555
G1 X59.82 Y6.13 E0.30776
G1 X62.68 Y5.68 E0.39807
G1 X62.74 Y5.67 E0.39974
G1 X64.20 Y5.50 E0.44548
G1 X64.23 Y5.50 E0.44657
G1 X65.65 Y5.38 E0.49102
G1 X65.69 Y5.37 E0.49212
G1 X67.14 Y5.29 E0.53738
G1 X67.19 Y5.29 E0.53910
G1 X70.08 Y5.24 E0.62890
G1 X70.15 Y5.25 E0.63114
G1 X72.98 Y5.37 E0.71930
G1 X72.98 Y5.37 E0.71952
G1 X73.09 Y5.37 E0.72286
G1 X74.58 Y5.50 E0.76940
G1 X74.61 Y5.50 E0.77047
G1 X76.07 Y5.67 E0.81611
G1 X76.12 Y5.68 E0.81781
G1 X78.98 Y6.13 E0.90788
G1 X79.03 Y6.14 E0.90952
G1 X80.47 Y6.43 E0.95509
G1 X80.50 Y6.44 E0.95620
G1 X81.93 Y6.77 E1.00207
G1 X82.00 Y6.79 E1.00429
G1 X86.89 Y8.23 E1.16294
G1 X87.89 Y9.56 E1.21478
G1 X87.89 Y31.78 E1.90690
G1 X125.72 Y104.62 E4.46322
G1 X125.69 Y105.90 E4.50306
G1 X114.50 Y125.28 E5.20029
G1 X113.68 Y125.90 E5.23226
G1 X108.01 Y127.27 E5.41383
G1 X107.96 Y127.28 E5.41530
G1 X100.13 Y128.86 E5.66434
G1 X100.06 Y128.88 E5.66646
G1 X89.39 Y130.43 E6.00230
G1 X89.32 Y130.44 E6.00438
G1 X81.36 Y131.17 E6.25342
G1 X81.31 Y131.17 E6.25492
G1 X76.12 Y131.45 E6.41692
G1 X76.08 Y131.45 E6.41810
G1 X70.75 Y131.57 E6.58412
G1 X70.71 Y131.57 E6.58534
G1 X65.25 Y131.53 E6.75562
G1 X65.20 Y131.53 E6.75714
G1 X57.35 Y131.16 E7.00186
G1 X57.29 Y131.16 E7.00368
G1 X49.20 Y130.41 E7.25682
G1 X49.14 Y130.40 E7.25860
G1 X41.22 Y129.30 E7.50763
G1 X41.16 Y129.29 E7.50940
G1 X33.44 Y127.85 E7.75401
G1 X33.40 Y127.84 E7.75525
G1 X30.66 Y127.24 E7.84267
G1 X30.64 Y127.24 E7.84327
G1 X28.05 Y126.63 E7.92627
G1 X28.03 Y126.63 E7.92681
G1 X25.09 Y125.89 E8.02126
G1 X24.28 Y125.28 E8.05289
G1 X13.09 Y105.90 E8.74998
G1 X13.06 Y104.62 E8.78982
G1 X50.89 Y31.78 E11.34616
G1 X50.89 Y9.57 E12.03796
G0 F10800 X51.47 Y8.63
G1 F2100 X51.47 Y130.71 E15.84019
G0 F10800 X50.47 Y130.62
G1 F2100 X50.47 Y32.40 E18.89936
G0 F10800 X49.47 Y34.32
G1 F2100 X49.47 Y130.53 E21.89570
G0 F10800 X48.47 Y130.40
G1 F2100 X48.47 Y36.25 E24.82820
G0 F10800 X47.47 Y38.17
G1 F2100 X47.47 Y130.26 E27.69635
G0 F10800 X46.47 Y130.12
G1 F2100 X46.47 Y40.10 E30.50022
G0 F10800 X45.47 Y42.02
G1 F2100 X45.47 Y129.98 E33.23977
G0 F10800 X44.47 Y129.84
G1 F2100 X44.47 Y43.95 E35.91497
G0 F10800 X43.47 Y45.87
G1 F2100 X43.47 Y129.70 E38.52589
G0 F10800 X42.47 Y129.56
G1 F2100 X42.47 Y47.80 E41.07250
G0 F10800 X41.47 Y49.72
G1 F2100 X41.47 Y129.42 E43.55479
G0 F10800 X40.47 Y129.25
G1 F2100 X40.47 Y51.65 E45.97176
G0 F10800 X39.47 Y53.58
G1 F2100 X39.47 Y129.07 E48.32293
G0 F10800 X38.47 Y128.88
G1 F2100 X38.47 Y55.50 E50.60835
G0 F10800 X37.47 Y57.42
G1 F2100 X37.47 Y128.69 E52.82799
G0 F10800 X36.47 Y128.51
G1 F2100 X36.47 Y59.35 E54.98185
G0 F10800 X35.47 Y61.28
G1 F2100 X35.47 Y128.32 E57.06994
G0 F10800 X34.47 Y128.13
G1 F2100 X34.47 Y63.20 E59.09227
G0 F10800 X33.47 Y65.13
G1 F2100 X33.47 Y127.95 E61.04879
G0 F10800 X32.47 Y127.73
G1 F2100 X32.47 Y67.05 E62.93867
G0 F10800 X31.47 Y68.98
G1 F2100 X31.47 Y127.51 E64.76176
G0 F10800 X30.47 Y127.29
G1 F2100 X30.47 Y70.90 E66.51802
G0 F10800 X29.47 Y72.83
G1 F2100 X29.47 Y127.06 E68.20701
G0 F10800 X28.47 Y126.82
G1 F2100 X28.47 Y74.75 E69.82869
G0 F10800 X27.47 Y76.68
G1 F2100 X27.47 Y126.58 E71.38281
G0 F10800 X26.47 Y126.33
G1 F2100 X26.47 Y78.60 E72.86917
G0 F10800 X25.47 Y80.53
G1 F2100 X25.47 Y126.08 E74.28778
G0 F10800 X24.47 Y125.54
G1 F2100 X24.47 Y82.46 E75.62952
G0 F10800 X23.47 Y84.38
G1 F2100 X23.47 Y124.06 E76.86522
G0 F10800 X22.47 Y122.32
G1 F2100 X22.47 Y86.31 E77.98701
G0 F10800 X21.47 Y88.23
G1 F2100 X21.47 Y120.59 E78.99488
G0 F10800 X20.47 Y118.86
G1 F2100 X20.47 Y90.16 E79.88885
G0 F10800 X19.47 Y92.08
G1 F2100 X19.47 Y117.13 E80.66891
G0 F10800 X18.47 Y115.39
G1 F2100 X18.47 Y94.01 E81.33505
G0 F10800 X17.47 Y95.93
G1 F2100 X17.47 Y113.66 E81.88729
G0 F10800 X16.47 Y111.93
G1 F2100 X16.47 Y97.86 E82.32563
G0 F10800 X15.47 Y99.78
G1 F2100 X15.47 Y110.20 E82.65004
G0 F10800 X14.47 Y108.47
G1 F2100 X14.47 Y101.71 E82.86055
G0 F10800 X13.47 Y103.63
G1 F2100 X13.47 Y106.74 E82.95717
G0 F10800 X52.47 Y130.80
G1 F2100 X52.47 Y7.96 E86.78313
G0 F10800 X53.47 Y7.65
G1 F2100 X53.47 Y130.90 E90.62162
G0 F10800 X54.47 Y130.99
G1 F2100 X54.47 Y7.34 E94.47259
G0 F10800 X55.47 Y7.04
G1 F2100 X55.47 Y131.08 E98.33597
G0 F10800 X56.47 Y131.18
G1 F2100 X56.47 Y6.78 E102.21039
G0 F10800 X57.47 Y6.54
G1 F2100 X57.47 Y131.26 E106.09473
G0 F10800 X58.47 Y131.31
G1 F2100 X58.47 Y6.33 E109.98728
G0 F10800 X59.47 Y6.11
G1 F2100 X59.47 Y131.35 E113.88803
G0 F10800 X60.47 Y131.40
G1 F2100 X60.47 Y5.93 E117.79572
G0 F10800 X61.47 Y5.78
G1 F2100 X61.47 Y131.45 E121.70976
G0 F10800 X62.47 Y131.49
G1 F2100 X62.47 Y5.62 E125.63019
G0 F10800 X63.47 Y5.49
G1 F2100 X63.47 Y131.54 E129.55591
G0 F10800 X64.47 Y131.59
G1 F2100 X64.47 Y5.39 E133.48647
G0 F10800 X65.47 Y5.30
G1 F2100 X65.47 Y131.62 E137.42079
G0 F10800 X66.47 Y131.63
G1 F2100 X66.47 Y5.24 E141.35732
G0 F10800 X67.47 Y5.19
G1 F2100 X67.47 Y131.64 E145.29550
G0 F10800 X68.47 Y131.65
G1 F2100 X68.47 Y5.18 E149.23443
G0 F10800 X69.47 Y5.16
G1 F2100 X69.47 Y131.65 E153.17405
G0 F10800 X70.47 Y131.66
G1 F2100 X70.47 Y5.17 E157.11372
G0 F10800 X71.47 Y5.21
G1 F2100 X71.47 Y131.65 E161.05159
G0 F10800 X72.47 Y131.62
G1 F2100 X72.47 Y5.26 E164.98741
G0 F10800 X73.47 Y5.31
G1 F2100 X73.47 Y131.60 E168.92067
G0 F10800 X74.47 Y131.58
G1 F2100 X74.47 Y5.40 E172.85054
G0 F10800 X75.47 Y5.51
G1 F2100 X75.47 Y131.55 E176.77620
G0 F10800 X76.47 Y131.52
G1 F2100 X76.47 Y5.64 E180.69685
G0 F10800 X77.47 Y5.80
G1 F2100 X77.47 Y131.47 E184.61086
G0 F10800 X78.47 Y131.41
G1 F2100 X78.47 Y5.96 E188.51824
G0 F10800 X79.47 Y6.14
G1 F2100 X79.47 Y131.36 E192.41840
G0 F10800 X80.47 Y131.31
G1 F2100 X80.47 Y6.34 E196.31058
G0 F10800 X81.47 Y6.57
G1 F2100 X81.47 Y131.25 E200.19379
G0 F10800 X82.47 Y131.16
G1 F2100 X82.47 Y6.83 E204.06597
G0 F10800 X83.47 Y7.13
G1 F2100 X83.47 Y131.07 E207.92617
G0 F10800 X84.47 Y130.98
G1 F2100 X84.47 Y7.42 E211.77434
G0 F10800 X85.47 Y7.71
G1 F2100 X85.47 Y130.88 E215.61055
G0 F10800 X86.47 Y130.79
G1 F2100 X86.47 Y8.01 E219.43474
G0 F10800 X87.47 Y8.84
G1 F2100 X87.47 Y130.70 E223.23003
G0 F10800 X88.47 Y130.61
G1 F2100 X88.47 Y32.70 E226.27957
G0 F10800 X89.47 Y34.62
G1 F2100 X89.47 Y130.51 E229.26610
G0 F10800 X90.47 Y130.37
G1 F2100 X90.47 Y36.55 E232.18814
G0 F10800 X91.47 Y38.47
G1 F2100 X91.47 Y130.22 E235.04567
G0 F10800 X92.47 Y130.07
G1 F2100 X92.47 Y40.40 E237.83863
G0 F10800 X93.47 Y42.32
G1 F2100 X93.47 Y129.93 E240.56709
G0 F10800 X94.47 Y129.78
G1 F2100 X94.47 Y44.25 E243.23102
G0 F10800 X95.47 Y46.17
G1 F2100 X95.47 Y129.64 E245.83045
G0 F10800 X96.47 Y129.49
G1 F2100 X96.47 Y48.10 E248.36535
G0 F10800 X97.47 Y50.03
G1 F2100 X97.47 Y129.34 E250.83574
G0 F10800 X98.47 Y129.20
G1 F2100 X98.47 Y51.95 E253.24160
G0 F10800 X99.47 Y53.88
G1 F2100 X99.47 Y129.05 E255.58295
G0 F10800 X100.47 Y128.89
G1 F2100 X100.47 Y55.80 E257.85919
G0 F10800 X101.47 Y57.73
G1 F2100 X101.47 Y128.68 E260.06914
G0 F10800 X102.47 Y128.48
G1 F2100 X102.47 Y59.65 E262.21285
G0 F10800 X103.47 Y61.58
G1 F2100 X103.47 Y128.28 E264.29028
G0 F10800 X104.47 Y128.08
G1 F2100 X104.47 Y63.50 E266.30146
G0 F10800 X105.47 Y65.43
G1 F2100 X105.47 Y127.88 E268.24637
G0 F10800 X106.47 Y127.67
G1 F2100 X106.47 Y67.36 E270.12503
G0 F10800 X107.47 Y69.28
G1 F2100 X107.47 Y127.47 E271.93741
G0 F10800 X108.47 Y127.25
G1 F2100 X108.47 Y71.21 E273.68296
G0 F10800 X109.47 Y73.13
G1 F2100 X109.47 Y127.01 E275.36101
G0 F10800 X110.47 Y126.77
G1 F2100 X110.47 Y75.06 E276.97154
G0 F10800 X111.47 Y76.98
G1 F2100 X111.47 Y126.53 E278.51458
G0 F10800 X112.47 Y126.28
G1 F2100 X112.47 Y78.91 E279.99009
G0 F10800 X113.47 Y80.83
G1 F2100 X113.47 Y126.04 E281.39812
G0 F10800 X114.47 Y125.42
G1 F2100 X114.47 Y82.76 E282.72678
G0 F10800 X115.47 Y84.68
G1 F2100 X115.47 Y123.78 E283.94453
G0 F10800 X116.47 Y122.05
G1 F2100 X116.47 Y86.61 E285.04836
G0 F10800 X117.47 Y88.54
G1 F2100 X117.47 Y120.32 E286.03828
G0 F10800 X118.47 Y118.59
G1 F2100 X118.47 Y90.46 E286.91428
G0 F10800 X119.47 Y92.39
G1 F2100 X119.47 Y116.86 E287.67638
G0 F10800 X120.47 Y115.12
G1 F2100 X120.47 Y94.31 E288.32458
G0 F10800 X121.47 Y96.24
G1 F2100 X121.47 Y113.39 E288.85884
G0 F10800 X122.47 Y111.66
G1 F2100 X122.47 Y98.16 E289.27921
G0 F10800 X123.47 Y100.09
G1 F2100 X123.47 Y109.93 E289.58565
G0 F10800 X124.47 Y108.19
G1 F2100 X124.47 Y102.01 E289.77820
G0 F10800 X125.47 Y103.94
G1 F2100 X125.47 Y106.46 E289.85681
;LAYER:-1
;RAFT
G0 F10800 X125.62 Y106.13 Z0.60
;TYPE:SUPPORT
G1 F2100 X13.16 Y106.13 E291.31620
G0 F10800 X13.02 Y105.13
G1 F2100 X125.76 Y105.13 E292.77931
G0 F10800 X125.53 Y104.13
G1 F2100 X13.25 Y104.13 E294.23628
G0 F10800 X13.77 Y103.13
G1 F2100 X125.01 Y103.13 E295.67978
G0 F10800 X124.49 Y102.13
G1 F2100 X14.29 Y102.13 E297.10980
G0 F10800 X14.81 Y101.13
G1 F2100 X123.97 Y101.13 E298.52633
G0 F10800 X123.45 Y100.13
G1 F2100 X15.33 Y100.13 E299.92938
G0 F10800 X15.85 Y99.13
G1 F2100 X122.93 Y99.13 E301.31894
G0 F10800 X122.41 Y98.13
G1 F2100 X16.37 Y98.13 E302.69504
G0 F10800 X16.89 Y97.13
G1 F2100 X121.89 Y97.13 E304.05765
G0 F10800 X121.37 Y96.13
G1 F2100 X17.41 Y96.13 E305.40678
G0 F10800 X17.93 Y95.13
G1 F2100 X120.85 Y95.13 E306.74244
G0 F10800 X120.33 Y94.13
G1 F2100 X18.45 Y94.13 E308.06460
G0 F10800 X18.97 Y93.13
G1 F2100 X119.81 Y93.13 E309.37329
G0 F10800 X119.29 Y92.13
G1 F2100 X19.49 Y92.13 E310.66850
G0 F10800 X20.01 Y91.13
G1 F2100 X118.77 Y91.13 E311.95022
G0 F10800 X118.25 Y90.13
G1 F2100 X20.52 Y90.13 E313.21848
G0 F10800 X21.05 Y89.13
G1 F2100 X117.73 Y89.13 E314.47324
G0 F10800 X117.21 Y88.13
G1 F2100 X21.56 Y88.13 E315.71452
G0 F10800 X22.08 Y87.13
G1 F2100 X116.70 Y87.13 E316.94234
G0 F10800 X116.18 Y86.13
G1 F2100 X22.60 Y86.13 E318.15666
G0 F10800 X23.12 Y85.13
G1 F2100 X115.66 Y85.13 E319.35751
G0 F10800 X115.14 Y84.13
G1 F2100 X23.64 Y84.13 E320.54487
G0 F10800 X24.16 Y83.13
G1 F2100 X114.62 Y83.13 E321.71875
G0 F10800 X114.10 Y82.13
G1 F2100 X24.68 Y82.13 E322.87916
G0 F10800 X25.20 Y81.13
G1 F2100 X113.58 Y81.13 E324.02608
G0 F10800 X113.06 Y80.13
G1 F2100 X25.72 Y80.13 E325.15953
G0 F10800 X26.24 Y79.13
G1 F2100 X112.54 Y79.13 E326.27950
G0 F10800 X112.02 Y78.13
G1 F2100 X26.76 Y78.13 E327.38598
G0 F10800 X27.28 Y77.13
G1 F2100 X111.50 Y77.13 E328.47899
G0 F10800 X110.98 Y76.13
G1 F2100 X27.80 Y76.13 E329.55851
G0 F10800 X28.32 Y75.13
G1 F2100 X110.46 Y75.13 E330.62455
G0 F10800 X109.94 Y74.13
G1 F2100 X28.83 Y74.13 E331.67712
G0 F10800 X29.35 Y73.13
G1 F2100 X109.42 Y73.13 E332.71620
G0 F10800 X108.90 Y72.13
G1 F2100 X29.87 Y72.13 E333.74180
G0 F10800 X30.39 Y71.13
G1 F2100 X108.39 Y71.13 E334.75393
G0 F10800 X107.87 Y70.13
G1 F2100 X30.91 Y70.13 E335.75257
G0 F10800 X31.43 Y69.13
G1 F2100 X107.35 Y69.13 E336.73773
G0 F10800 X106.83 Y68.13
G1 F2100 X31.95 Y68.13 E337.70941
G0 F10800 X32.47 Y67.13
G1 F2100 X106.31 Y67.13 E338.66761
G0 F10800 X105.79 Y66.13
G1 F2100 X32.99 Y66.13 E339.61233
G0 F10800 X33.51 Y65.13
G1 F2100 X105.27 Y65.13 E340.54356
G0 F10800 X104.75 Y64.13
G1 F2100 X34.03 Y64.13 E341.46133
G0 F10800 X34.55 Y63.13
G1 F2100 X104.23 Y63.13 E342.36561
G0 F10800 X103.71 Y62.13
G1 F2100 X35.07 Y62.13 E343.25641
G0 F10800 X35.59 Y61.13
G1 F2100 X103.19 Y61.13 E344.13372
G0 F10800 X102.67 Y60.13
G1 F2100 X36.11 Y60.13 E344.99755
G0 F10800 X36.63 Y59.13
G1 F2100 X102.15 Y59.13 E345.84790
G0 F10800 X101.63 Y58.13
G1 F2100 X37.15 Y58.13 E346.68476
G0 F10800 X37.67 Y57.13
G1 F2100 X101.11 Y57.13 E347.50814
G0 F10800 X100.60 Y56.13
G1 F2100 X38.19 Y56.13 E348.31804
G0 F10800 X38.71 Y55.13
G1 F2100 X100.08 Y55.13 E349.11447
G0 F10800 X99.56 Y54.13
G1 F2100 X39.22 Y54.13 E349.89741
G0 F10800 X39.74 Y53.13
G1 F2100 X99.04 Y53.13 E350.66687
G0 F10800 X98.52 Y52.13
G1 F2100 X40.26 Y52.13 E351.42285
G0 F10800 X40.78 Y51.13
G1 F2100 X98.00 Y51.13 E352.16534
G0 F10800 X97.48 Y50.13
G1 F2100 X41.30 Y50.13 E352.89437
G0 F10800 X41.82 Y49.13
G1 F2100 X96.96 Y49.13 E353.60991
G0 F10800 X96.44 Y48.13
G1 F2100 X42.34 Y48.13 E354.31196
G0 F10800 X42.86 Y47.13
G1 F2100 X95.92 Y47.13 E355.00055
G0 F10800 X95.40 Y46.13
G1 F2100 X43.38 Y46.13 E355.67565
G0 F10800 X43.90 Y45.13
G1 F2100 X94.88 Y45.13 E356.33727
G0 F10800 X94.36 Y44.13
G1 F2100 X44.42 Y44.13 E356.98541
G0 F10800 X44.94 Y43.13
G1 F2100 X93.84 Y43.13 E357.62006
G0 F10800 X93.32 Y42.13
G1 F2100 X45.46 Y42.13 E358.24124
G0 F10800 X45.98 Y41.13
G1 F2100 X92.80 Y41.13 E358.84894
G0 F10800 X92.29 Y40.13
G1 F2100 X46.50 Y40.13 E359.44316
G0 F10800 X47.01 Y39.13
G1 F2100 X91.77 Y39.13 E360.02390
G0 F10800 X91.25 Y38.13
G1 F2100 X47.53 Y38.13 E360.59115
G0 F10800 X48.05 Y37.13
G1 F2100 X90.73 Y37.13 E361.14493
G0 F10800 X90.21 Y36.13
G1 F2100 X48.57 Y36.13 E361.68523
G0 F10800 X49.09 Y35.13
G1 F2100 X89.69 Y35.13 E362.21204
G0 F10800 X89.17 Y34.13
G1 F2100 X49.61 Y34.13 E362.72538
G0 F10800 X50.13 Y33.13
G1 F2100 X88.65 Y33.13 E363.22523
G0 F10800 X88.13 Y32.13
G1 F2100 X50.65 Y32.13 E363.71160
G0 F10800 X50.84 Y31.13
G1 F2100 X87.94 Y31.13 E364.19311
G0 F10800 X87.94 Y30.13
G1 F2100 X50.84 Y30.13 E364.67462
G0 F10800 X50.84 Y29.13
G1 F2100 X87.94 Y29.13 E365.15612
G0 F10800 X87.94 Y28.13
G1 F2100 X50.84 Y28.13 E365.63763
G0 F10800 X50.84 Y27.13
G1 F2100 X87.94 Y27.13 E366.11914
G0 F10800 X87.94 Y26.13
G1 F2100 X50.84 Y26.13 E366.60065
G0 F10800 X50.84 Y25.13
G1 F2100 X87.94 Y25.13 E367.08216
G0 F10800 X87.94 Y24.13
G1 F2100 X50.84 Y24.13 E367.56367
G0 F10800 X50.84 Y23.13
G1 F2100 X87.94 Y23.13 E368.04517
G0 F10800 X87.94 Y22.13
G1 F2100 X50.84 Y22.13 E368.52668
G0 F10800 X50.84 Y21.13
G1 F2100 X87.94 Y21.13 E369.00819
G0 F10800 X87.94 Y20.13
G1 F2100 X50.84 Y20.13 E369.48970
G0 F10800 X50.84 Y19.13
G1 F2100 X87.94 Y19.13 E369.97121
G0 F10800 X87.94 Y18.13
G1 F2100 X50.84 Y18.13 E370.45271
G0 F10800 X50.84 Y17.13
G1 F2100 X87.94 Y17.13 E370.93422
G0 F10800 X87.94 Y16.13
G1 F2100 X50.84 Y16.13 E371.41573
G0 F10800 X50.84 Y15.13
G1 F2100 X87.94 Y15.13 E371.89724
G0 F10800 X87.94 Y14.13
G1 F2100 X50.84 Y14.13 E372.37875
G0 F10800 X50.84 Y13.13
G1 F2100 X87.94 Y13.13 E372.86026
G0 F10800 X87.94 Y12.13
G1 F2100 X50.84 Y12.13 E373.34176
G0 F10800 X50.84 Y11.13
G1 F2100 X87.94 Y11.13 E373.82327
G0 F10800 X87.94 Y10.13
G1 F2100 X50.84 Y10.13 E374.30478
G0 F10800 X51.15 Y9.13
G1 F2100 X87.63 Y9.13 E374.77825
G0 F10800 X86.75 Y8.13
G1 F2100 X52.06 Y8.13 E375.22842
G0 F10800 X55.30 Y7.13
G1 F2100 X83.34 Y7.13 E375.59237
G0 F10800 X79.24 Y6.13
G1 F2100 X59.56 Y6.13 E375.84774
G0 F10800 X13.74 Y107.13
G1 F2100 X125.04 Y107.13 E377.29214
G0 F10800 X124.46 Y108.13
G1 F2100 X14.31 Y108.13 E378.72158
G0 F10800 X14.89 Y109.13
G1 F2100 X123.89 Y109.13 E380.13602
G0 F10800 X123.31 Y110.13
G1 F2100 X15.47 Y110.13 E381.53547
G0 F10800 X16.05 Y111.13
G1 F2100 X122.73 Y111.13 E382.91994
G0 F10800 X122.15 Y112.13
G1 F2100 X16.62 Y112.13 E384.28943
G0 F10800 X17.20 Y113.13
G1 F2100 X121.57 Y113.13 E385.64393
G0 F10800 X121.00 Y114.13
G1 F2100 X17.78 Y114.13 E386.98344
G0 F10800 X18.35 Y115.13
G1 F2100 X120.42 Y115.13 E388.30798
G0 F10800 X119.84 Y116.13
G1 F2100 X18.93 Y116.13 E389.61753
G0 F10800 X19.51 Y117.13
G1 F2100 X119.27 Y117.13 E390.91209
G0 F10800 X118.69 Y118.13
G1 F2100 X20.09 Y118.13 E392.19167
G0 F10800 X20.67 Y119.13
G1 F2100 X118.11 Y119.13 E393.45624
G0 F10800 X117.53 Y120.13
G1 F2100 X21.24 Y120.13 E394.70583
G0 F10800 X21.82 Y121.13
