; generated by Slic3r 0.9.2-dev on 2012-08-22 at 21:32:56

; layer_height = .4
; perimeters = 3
; solid_layers = 3
; fill_density = .4
; perimeter_speed = 25
; infill_speed = 25
; travel_speed = 130
; scale = 1
; nozzle_diameter = 0.5
; filament_diameter = 2.96
; extrusion_multiplier = 1
; single wall width = 0.40mm
; first layer single wall width = 1.00mm

M104 S191 ; set temperature
G28 ; home all axes
M109 S191 ; wait for temperature to be reached
G90 ; use absolute coordinates
G21 ; set units to millimeters
G92 E0
M82 ; use absolute distances for extrusion
G1 Z0.500 F7800.000
G1 X11.962 Y12.492
G1 F1800.000 E1.00000
G1 X14.912 Y9.572 F600.000 E1.26923
G1 X15.362 Y9.222 E1.30621
G1 X15.842 Y8.902 E1.34363
G1 X16.352 Y8.632 E1.38106
G1 X16.872 Y8.402 E1.41794
G1 X17.422 Y8.212 E1.45569
G1 X17.972 Y8.072 E1.49250
G1 X18.822 Y7.952 E1.54818
G1 X49.102 Y7.912 E3.51226
G1 X58.872 Y7.922 E4.14597
G1 X59.442 Y7.972 E4.18309
G1 X60.012 Y8.062 E4.22052
G1 X60.562 Y8.202 E4.25733
G1 X61.112 Y8.392 E4.29508
G1 X61.892 Y8.752 E4.35080
G1 X62.382 Y9.042 E4.38773
G1 X62.852 Y9.382 E4.42536
G1 X63.492 Y9.952 E4.48095
G1 X66.422 Y12.912 E4.75110
G1 X66.942 Y13.602 E4.80714
G1 X67.232 Y14.092 E4.84407
G1 X67.592 Y14.872 E4.89980
G1 X67.782 Y15.422 E4.93754
G1 X67.922 Y15.972 E4.97435
G1 X68.012 Y16.542 E5.01178
G1 X68.062 Y17.112 E5.04890
G1 X68.062 Y56.872 E7.62788
G1 X68.012 Y57.442 E7.66499
G1 X67.922 Y58.012 E7.70242
G1 X67.782 Y58.562 E7.73924
G1 X67.592 Y59.112 E7.77698
G1 X67.232 Y59.892 E7.83270
G1 X66.942 Y60.382 E7.86963
G1 X66.602 Y60.852 E7.90726
G1 X66.032 Y61.492 E7.96285
G1 X63.072 Y64.422 E8.23300
G1 X62.382 Y64.942 E8.28904
G1 X61.892 Y65.232 E8.32598
G1 X61.112 Y65.592 E8.38170
G1 X60.562 Y65.782 E8.41944
G1 X60.012 Y65.922 E8.45626
G1 X59.442 Y66.012 E8.49369
G1 X58.872 Y66.062 E8.53080
G1 X58.582 Y66.072 E8.54962
G1 X19.112 Y66.062 E11.10979
G1 X18.252 Y65.972 E11.16588
G1 X17.972 Y65.922 E11.18433
G1 X17.412 Y65.782 E11.22177
G1 X16.602 Y65.482 E11.27780
G1 X16.092 Y65.232 E11.31464
G1 X15.352 Y64.772 E11.37116
G1 X14.902 Y64.412 E11.40854
G1 X11.752 Y61.282 E11.69657
G1 X11.382 Y60.842 E11.73386
G1 X11.052 Y60.372 E11.77111
G1 X10.762 Y59.882 E11.80805
G1 X10.402 Y59.102 E11.86377
G1 X10.212 Y58.562 E11.90090
G1 X10.072 Y58.002 E11.93834
G1 X9.982 Y57.442 E11.97513
G1 X9.932 Y56.872 E12.01225
G1 X9.932 Y17.112 E14.59123
G1 X9.982 Y16.542 E14.62834
G1 X10.072 Y15.972 E14.66577
G1 X10.212 Y15.422 E14.70258
G1 X10.402 Y14.872 E14.74033
G1 X10.762 Y14.092 E14.79605
G1 X11.052 Y13.602 E14.83298
G1 X11.392 Y13.132 E14.87061
G1 X11.859 Y12.601 E14.91648
G1 F1800.000 E13.91648
G92 E0
G1 X13.663 Y15.264 F7800.000
G1 F1800.000 E1.00000
G1 X17.264 Y11.664 F600.000 E1.33027
G1 X18.655 Y11.087 E1.42795
G1 X29.646 Y11.087 E2.14088
G1 X31.038 Y11.664 E2.23856
G1 X32.583 Y13.209 E2.38028
G1 X45.418 Y13.208 E3.21280
G1 X46.963 Y11.663 E3.35453
G1 X48.354 Y11.087 E3.45221
G1 X59.345 Y11.087 E4.16514
G1 X60.736 Y11.663 E4.26282
G1 X64.337 Y15.264 E4.59309
G1 X64.913 Y16.655 E4.69077
G1 X64.913 Y27.646 E5.40370
G1 X64.337 Y29.037 E5.50138
G1 X62.792 Y30.582 E5.64311
G1 X62.791 Y43.417 E6.47563
G1 X64.336 Y44.962 E6.61736
G1 X64.913 Y46.354 E6.71504
G1 X64.913 Y57.345 E7.42797
G1 X64.336 Y58.736 E7.52565
G1 X60.736 Y62.337 E7.85591
G1 X59.345 Y62.913 E7.95359
G1 X48.354 Y62.913 E8.66652
G1 X46.962 Y62.337 E8.76420
G1 X45.417 Y60.792 E8.90593
G1 X32.582 Y60.792 E9.73845
G1 X31.037 Y62.337 E9.88017
G1 X29.646 Y62.913 E9.97786
G1 X18.655 Y62.913 E10.69078
G1 X17.264 Y62.337 E10.78846
G1 X13.663 Y58.736 E11.11873
G1 X13.087 Y57.345 E11.21641
G1 X13.087 Y46.354 E11.92934
G1 X13.663 Y44.963 E12.02702
G1 X15.208 Y43.418 E12.16874
G1 X15.208 Y30.583 E13.00126
G1 X13.663 Y29.038 E13.14299
G1 X13.087 Y27.646 E13.24067
G1 X13.087 Y16.655 E13.95360
G1 X13.606 Y15.403 E14.04155
G1 X14.466 Y15.800 F7800.000
G1 X17.800 Y12.466 F600.000 E14.34740
G1 X18.843 Y12.034 E14.42065
G1 X29.458 Y12.034 E15.10917
G1 X30.502 Y12.466 E15.18243
G1 X32.191 Y14.155 E15.33737
G1 X45.810 Y14.155 E16.22074
G1 X47.499 Y12.466 E16.37568
G1 X48.542 Y12.033 E16.44894
G1 X59.157 Y12.033 E17.13745
G1 X60.200 Y12.466 E17.21071
G1 X63.534 Y15.800 E17.51656
G1 X63.967 Y16.843 E17.58982
G1 X63.967 Y27.458 E18.27833
G1 X63.534 Y28.501 E18.35159
G1 X61.845 Y30.190 E18.50654
G1 X61.845 Y43.809 E19.38991
G1 X63.534 Y45.498 E19.54485
G1 X63.966 Y46.542 E19.61811
G1 X63.966 Y57.157 E20.30662
G1 X63.534 Y58.200 E20.37988
G1 X60.200 Y61.534 E20.68573
G1 X59.157 Y61.967 E20.75899
G1 X48.542 Y61.967 E21.44750
G1 X47.498 Y61.534 E21.52076
G1 X45.809 Y59.845 E21.67570
G1 X32.190 Y59.845 E22.55907
G1 X30.501 Y61.534 E22.71402
G1 X29.458 Y61.967 E22.78728
G1 X18.843 Y61.967 E23.47578
G1 X17.800 Y61.534 E23.54904
G1 X14.466 Y58.200 E23.85489
G1 X14.033 Y57.157 E23.92815
G1 X14.033 Y46.542 E24.61666
G1 X14.466 Y45.499 E24.68992
G1 X16.155 Y43.810 E24.84486
G1 X16.155 Y30.191 E25.72823
G1 X14.466 Y28.502 E25.88317
G1 X14.033 Y27.458 E25.95643
G1 X14.033 Y16.843 E26.64494
G1 X14.408 Y15.939 E26.70847
G1 X15.268 Y16.336 F7800.000
G1 X18.336 Y13.268 F600.000 E26.98990
G1 X19.032 Y12.980 E27.03874
G1 X29.270 Y12.980 E27.70283
G1 X29.965 Y13.268 E27.75167
G1 X31.799 Y15.101 E27.91983
G1 X46.202 Y15.101 E28.85405
G1 X48.035 Y13.268 E29.02221
G1 X48.730 Y12.980 E29.07105
G1 X58.969 Y12.980 E29.73514
G1 X59.664 Y13.268 E29.78398
G1 X62.732 Y16.336 E30.06541
G1 X63.020 Y17.031 E30.11425
G1 X63.020 Y27.270 E30.77834
G1 X62.732 Y27.965 E30.82718
G1 X60.899 Y29.798 E30.99534
G1 X60.899 Y44.201 E31.92957
G1 X62.732 Y46.035 E32.09772
G1 X63.020 Y46.730 E32.14656
G1 X63.020 Y56.968 E32.81066
G1 X62.732 Y57.664 E32.85950
G1 X59.664 Y60.732 E33.14092
G1 X58.968 Y61.020 E33.18976
G1 X48.730 Y61.020 E33.85385
G1 X48.034 Y60.732 E33.90269
G1 X46.201 Y58.899 E34.07085
G1 X31.798 Y58.899 E35.00508
G1 X29.965 Y60.732 E35.17323
G1 X29.270 Y61.020 E35.22207
G1 X19.031 Y61.020 E35.88616
G1 X18.336 Y60.732 E35.93500
G1 X15.268 Y57.664 E36.21643
G1 X14.980 Y56.969 E36.26527
G1 X14.980 Y46.730 E36.92935
G1 X15.268 Y46.035 E36.97819
G1 X17.101 Y44.202 E37.14635
G1 X17.101 Y29.799 E38.08057
G1 X15.268 Y27.966 E38.24873
G1 X14.980 Y27.270 E38.29757
G1 X14.980 Y17.032 E38.96166
G1 X15.211 Y16.475 E39.00077
G1 X16.070 Y16.872 F7800.000
G1 X18.872 Y14.070 F600.000 E39.25778
G1 X19.220 Y13.926 E39.28220
G1 X29.082 Y13.926 E39.92187
G1 X29.429 Y14.070 E39.94629
G1 X31.407 Y16.048 E40.12767
G1 X46.594 Y16.047 E41.11274
G1 X48.571 Y14.070 E41.29412
G1 X48.919 Y13.926 E41.31854
G1 X58.780 Y13.926 E41.95821
G1 X59.128 Y14.070 E41.98263
G1 X61.930 Y16.872 E42.23964
G1 X62.074 Y17.220 E42.26406
G1 X62.074 Y27.081 E42.90373
G1 X61.930 Y27.429 E42.92815
G1 X59.953 Y29.406 E43.10952
G1 X59.952 Y44.593 E44.09460
G1 X61.930 Y46.571 E44.27597
G1 X62.074 Y46.918 E44.30039
G1 X62.074 Y56.780 E44.94007
G1 X61.930 Y57.128 E44.96448
G1 X59.128 Y59.930 E45.22149
G1 X58.780 Y60.074 E45.24591
G1 X48.918 Y60.074 E45.88558
G1 X48.570 Y59.930 E45.91000
G1 X46.593 Y57.953 E46.09138
G1 X31.406 Y57.953 E47.07645
G1 X29.429 Y59.930 E47.25783
G1 X29.081 Y60.074 E47.28225
G1 X19.220 Y60.074 E47.92191
G1 X18.872 Y59.930 E47.94633
G1 X16.070 Y57.128 E48.20334
G1 X15.926 Y56.780 E48.22776
G1 X15.926 Y46.919 E48.86742
G1 X16.070 Y46.571 E48.89184
G1 X18.047 Y44.594 E49.07322
G1 X18.047 Y29.407 E50.05830
G1 X16.070 Y27.430 E50.23967
G1 X15.926 Y27.082 E50.26409
G1 X15.926 Y17.220 E50.90376
G1 X16.013 Y17.011 E50.91845
G1 F1800.000 E49.91845
G92 E0
G1 X19.514 Y18.396 F7800.000
G1 F1800.000 E1.00000
G1 X19.665 Y18.094 F360.000 E1.02194
G1 X19.695 Y18.052 E1.02525
G1 X19.695 Y18.052 E1.02525
G1 X19.863 Y17.819 E1.04388
G1 X20.102 Y17.580 E1.06582
G1 X20.376 Y17.382 E1.08775
G1 X20.679 Y17.231 E1.10969
G1 X21.002 Y17.131 E1.13163
G1 X21.337 Y17.083 E1.15357
G1 X21.675 Y17.090 E1.17551
G1 X22.008 Y17.151 E1.19745
G1 X22.278 Y17.247 E1.21607
G1 X22.278 Y17.247 E1.21607
G1 X22.326 Y17.265 E1.21939
G1 X22.622 Y17.428 E1.24132
G1 X22.889 Y17.636 E1.26326
G1 X23.118 Y17.885 E1.28520
G1 X23.305 Y18.167 E1.30714
G1 X23.443 Y18.475 E1.32908
G1 X23.531 Y18.801 E1.35094
G1 X23.531 Y18.801 E1.35094
G1 X23.686 Y19.382 E1.38997
G1 X23.566 Y19.382 E1.39779
G1 X23.470 Y19.806 E1.42598
G1 X23.344 Y20.120 E1.44793
G1 X23.195 Y20.366 E1.46656
G1 X23.195 Y20.366 E1.46656
G1 X23.169 Y20.409 E1.46987
G1 X22.950 Y20.667 E1.49180
G1 X22.692 Y20.886 E1.51374
G1 X22.403 Y21.061 E1.53567
G1 X22.136 Y21.168 E1.55430
G1 X22.136 Y21.168 E1.55430
G1 X22.089 Y21.187 E1.55762
G1 X21.759 Y21.262 E1.57956
G1 X21.421 Y21.282 E1.60149
G1 X21.084 Y21.248 E1.62346
G1 X21.084 Y21.248 E1.62347
G1 X20.686 Y21.208 E1.64944
G1 X20.686 Y21.178 E1.65138
G1 X20.168 Y20.835 E1.69168
G1 X19.919 Y20.606 E1.71362
G1 X19.710 Y20.340 E1.73556
G1 X19.547 Y20.044 E1.75750
G1 X19.434 Y19.725 E1.77943
G1 X19.373 Y19.392 E1.80137
G1 X19.366 Y19.054 E1.82331
G1 X19.413 Y18.719 E1.84525
G1 X19.469 Y18.540 E1.85746
G1 F1800.000 E0.85746
G92 E0
G1 X54.650 Y19.278 F7800.000
G1 F1800.000 E1.00000
G1 X54.695 Y18.943 F360.000 E1.02197
G1 X54.794 Y18.619 E1.04393
G1 X54.944 Y18.315 E1.06590
G1 X55.140 Y18.039 E1.08786
G1 X55.379 Y17.798 E1.10983
G1 X55.653 Y17.599 E1.13180
G1 X55.955 Y17.446 E1.15377
G1 X56.278 Y17.344 E1.17573
G1 X56.613 Y17.295 E1.19770
G1 X56.952 Y17.301 E1.21967
G1 X57.285 Y17.361 E1.24164
G1 X57.604 Y17.474 E1.26361
G1 X57.901 Y17.636 E1.28558
G1 X58.169 Y17.844 E1.30755
G1 X58.399 Y18.093 E1.32952
G1 X58.586 Y18.375 E1.35149
G1 X58.726 Y18.684 E1.37346
G1 X58.814 Y19.011 E1.39543
G1 X58.849 Y19.348 E1.41740
G1 X58.829 Y19.686 E1.43937
G1 X58.754 Y20.016 E1.46135
G1 X58.628 Y20.331 E1.48332
G1 X58.453 Y20.621 E1.50529
G1 X58.234 Y20.878 E1.52725
G1 X57.973 Y21.099 E1.54941
G1 X57.679 Y21.276 E1.57168
G1 X57.359 Y21.402 E1.59395
G1 X57.024 Y21.475 E1.61621
G1 X56.745 Y21.492 E1.63435
G1 X56.681 Y21.492 E1.63847
G1 X56.403 Y21.463 E1.65661
G1 X56.340 Y21.452 E1.66074
G1 X56.070 Y21.380 E1.67888
G1 X56.010 Y21.358 E1.68300
G1 X55.755 Y21.243 E1.70114
G1 X55.700 Y21.212 E1.70526
G1 X55.467 Y21.057 E1.72341
G1 X55.214 Y20.828 E1.74557
G1 X55.003 Y20.563 E1.76753
G1 X54.838 Y20.268 E1.78950
G1 X54.722 Y19.949 E1.81146
G1 X54.659 Y19.617 E1.83343
G1 X54.653 Y19.428 E1.84566
G1 F1800.000 E0.84566
G92 E0
G1 X56.692 Y52.439 F7800.000
G1 F1800.000 E1.00000
G1 X57.030 Y52.445 F360.000 E1.02193
G1 X57.080 Y52.455 E1.02524
G1 X57.080 Y52.455 E1.02524
G1 X57.363 Y52.506 E1.04387
G1 X57.682 Y52.620 E1.06581
G1 X57.978 Y52.783 E1.08775
G1 X58.244 Y52.992 E1.10969
G1 X58.473 Y53.240 E1.13162
G1 X58.660 Y53.522 E1.15356
G1 X58.799 Y53.831 E1.17550
G1 X58.886 Y54.158 E1.19744
G1 X58.920 Y54.494 E1.21938
G1 X58.900 Y54.831 E1.24129
G1 X58.900 Y54.831 E1.24129
G1 X58.874 Y55.250 E1.26853
G1 X58.805 Y55.250 E1.27301
G1 X58.749 Y55.502 E1.28973
G1 X58.683 Y55.502 E1.29398
G1 X58.524 Y55.765 E1.31392
G1 X58.305 Y56.022 E1.33584
G1 X58.048 Y56.241 E1.35773
G1 X58.048 Y56.241 E1.35774
G1 X58.047 Y56.242 E1.35779
G1 X57.758 Y56.416 E1.37972
G1 X57.444 Y56.543 E1.40166
G1 X57.114 Y56.617 E1.42360
G1 X56.777 Y56.638 E1.44554
G1 X56.440 Y56.604 E1.46747
G1 X56.113 Y56.516 E1.48942
G1 X55.805 Y56.377 E1.51135
G1 X55.523 Y56.191 E1.53329
G1 X55.274 Y55.961 E1.55523
G1 X55.066 Y55.695 E1.57717
G1 X54.927 Y55.444 E1.59579
G1 X54.927 Y55.444 E1.59579
G1 X54.903 Y55.399 E1.59911
G1 X54.806 Y55.128 E1.61773
G1 X54.806 Y55.128 E1.61773
G1 X54.789 Y55.080 E1.62105
G1 X54.728 Y54.748 E1.64297
G1 X54.721 Y54.409 E1.66493
G1 X54.769 Y54.075 E1.68686
G1 X54.869 Y53.751 E1.70882
G1 X54.869 Y53.751 E1.70883
G1 X54.964 Y53.449 E1.72935
G1 X55.020 Y53.449 E1.73303
G1 X55.218 Y53.175 E1.75498
G1 X55.457 Y52.935 E1.77692
G1 X55.732 Y52.738 E1.79885
G1 X56.034 Y52.587 E1.82079
G1 X56.357 Y52.486 E1.84274
G1 X56.544 Y52.460 E1.85494
G1 F1800.000 E0.85494
G92 E0
G1 X51.703 Y48.978 F7800.000
G1 F1800.000 E1.00000
G1 X51.678 Y48.978 F600.000 E1.00164
G1 X50.701 Y49.941 E1.09061
G1 X49.341 Y51.052 E1.20451
G1 X49.341 Y51.052 E1.20451
G1 X48.391 Y51.789 E1.28251
G1 X48.335 Y51.733 E1.28763
G1 X47.115 Y52.445 E1.37924
G1 X46.392 Y52.802 E1.43158
G1 X46.392 Y52.802 E1.43158
G1 X44.266 Y53.725 E1.58190
G1 X44.266 Y53.649 E1.58686
G1 X42.161 Y54.158 E1.72732
G1 X41.364 Y54.284 E1.77967
G1 X41.364 Y54.284 E1.77967
G1 X40.775 Y54.351 E1.81815
G1 X40.775 Y54.369 E1.81931
G1 X39.446 Y54.494 E1.90590
G1 X39.446 Y54.439 E1.90944
G1 X38.671 Y54.444 E1.95969
G1 X36.922 Y54.323 E2.07340
G1 X36.123 Y54.206 E2.12575
G1 X36.123 Y54.206 E2.12575
G1 X35.194 Y54.027 E2.18716
G1 X33.504 Y53.559 E2.30087
G1 X31.870 Y52.924 E2.41459
G1 X30.308 Y52.128 E2.52831
G1 X30.049 Y51.970 E2.54802
G1 X29.947 Y52.020 E2.55538
G1 X27.542 Y50.154 E2.75281
G1 X27.539 Y50.158 E2.75315
G1 X26.207 Y48.863 E2.87364
G1 X25.271 Y47.759 E2.96752
G1 X25.260 Y47.770 E2.96853
G1 X24.096 Y46.070 E3.10217
G1 X23.261 Y44.528 E3.21595
G1 X22.585 Y42.910 E3.32967
G1 X22.259 Y41.899 E3.39853
G1 X22.259 Y41.899 E3.39853
G1 X21.641 Y39.292 E3.57233
G1 X21.697 Y39.292 E3.57601
G1 X21.657 Y39.060 E3.59131
G1 X21.659 Y39.060 E3.59145
G1 X21.540 Y37.329 E3.70396
G1 X21.653 Y35.140 E3.84615
G1 X21.725 Y34.595 E3.88182
G1 X21.708 Y34.595 E3.88290
G1 X22.004 Y32.991 E3.98872
G1 X22.002 Y32.991 E3.98882
G1 X22.660 Y30.884 E4.13194
G1 X23.356 Y29.275 E4.24566
G1 X24.211 Y27.744 E4.35938
G1 X25.214 Y26.307 E4.47310
G1 X26.357 Y24.977 E4.58682
G1 X27.628 Y23.769 E4.70054
G1 X29.013 Y22.695 E4.81426
G1 X30.439 Y21.800 E4.92345
G1 X30.439 Y21.800 E4.92345
G1 X31.275 Y21.357 E4.98485
G1 X32.885 Y20.660 E5.09861
G1 X34.555 Y20.129 E5.21229
G1 X35.340 Y19.943 E5.26464
G1 X35.340 Y19.943 E5.26464
G1 X38.006 Y19.448 E5.44052
G1 X41.949 Y19.787 E5.69717
G1 X44.373 Y20.390 E5.85921
G1 X44.373 Y20.376 E5.86014
G1 X44.953 Y20.599 E5.90043
G1 X44.953 Y20.599 E5.90043
G1 X45.834 Y20.892 E5.96068
G1 X45.834 Y20.950 E5.96450
G1 X47.309 Y21.659 E6.07061
G1 X48.808 Y22.571 E6.18446
G1 X48.808 Y22.571 E6.18446
G1 X48.953 Y22.664 E6.19559
G1 X48.953 Y22.675 E6.19629
G1 X50.205 Y23.627 E6.29835
G1 X51.491 Y24.819 E6.41207
G1 X52.650 Y26.134 E6.52579
G1 X54.050 Y27.987 E6.67641
G1 X53.997 Y28.094 E6.68415
G1 X55.386 Y30.631 E6.87177
G1 X56.196 Y34.054 E7.09995
G1 X56.405 Y35.795 E7.21368
G1 X56.484 Y37.589 E7.33017
G1 X56.436 Y37.589 E7.33330
G1 X56.295 Y39.295 E7.44434
G1 X56.157 Y40.166 E7.50149
G1 X56.157 Y40.166 E7.50150
G1 X55.976 Y41.313 E7.57681
G1 X55.900 Y41.313 E7.58170
G1 X55.488 Y42.703 E7.67577
G1 X54.658 Y44.732 E7.81793
G1 X53.552 Y46.625 E7.96015
G1 X52.513 Y48.036 E8.07387
G1 X51.801 Y48.864 E8.14466
G1 X51.239 Y48.067 F7800.000
G1 X50.066 Y49.239 F540.000 E8.25221
G1 X48.781 Y50.288 E8.35982
G1 X48.781 Y50.288 E8.35983
G1 X48.470 Y50.530 E8.38536
G1 X48.456 Y50.515 E8.38667
G1 X47.399 Y51.202 E8.46843
G1 X45.931 Y51.974 E8.57598
G1 X45.213 Y52.285 E8.62678
G1 X45.213 Y52.285 E8.62678
G1 X44.394 Y52.594 E8.68356
G1 X42.801 Y53.056 E8.79111
G1 X41.171 Y53.357 E8.89866
G1 X40.392 Y53.440 E8.94946
G1 X40.392 Y53.440 E8.94946
G1 X39.828 Y53.474 E8.98608
G1 X39.828 Y53.475 E8.98608
G1 X38.689 Y53.497 E9.06001
G1 X37.035 Y53.383 E9.16756
G1 X35.400 Y53.103 E9.27511
G1 X33.803 Y52.660 E9.38266
G1 X32.257 Y52.060 E9.49021
G1 X30.780 Y51.307 E9.59776
G1 X29.385 Y50.410 E9.70531
G1 X29.349 Y50.382 E9.70829
G1 X29.349 Y50.382 E9.70829
G1 X28.088 Y49.377 E9.81286
G1 X27.514 Y48.844 E9.86366
G1 X27.514 Y48.844 E9.86366
G1 X26.901 Y48.219 E9.92044
G1 X25.836 Y46.949 E10.02799
G1 X25.380 Y46.312 E10.07879
G1 X25.380 Y46.312 E10.07879
G1 X24.905 Y45.578 E10.13550
G1 X24.115 Y44.119 E10.24311
G1 X23.475 Y42.589 E10.35066
G1 X22.993 Y41.003 E10.45821
G1 X22.822 Y40.239 E10.50902
G1 X22.822 Y40.239 E10.50902
G1 X22.780 Y40.006 E10.52434
G1 X22.780 Y40.006 E10.52435
G1 X22.573 Y38.553 E10.61956
G1 X22.556 Y38.306 E10.63560
G1 X22.556 Y38.306 E10.63561
G1 X22.500 Y36.896 E10.72711
G1 X22.594 Y35.241 E10.83466
G1 X22.845 Y33.649 E10.93922
G1 X22.845 Y33.649 E10.93922
G1 X23.044 Y32.796 E10.99600
G1 X23.263 Y32.044 E11.04680
G1 X23.263 Y32.044 E11.04680
G1 X23.547 Y31.216 E11.10358
G1 X24.205 Y29.694 E11.21113
