; generated by Slic3r 0.9.2-dev on 2012-08-22 at 10:56:06

; layer_height = 0.3
; perimeters = 1
; solid_layers = 2
; fill_density = 0.99
; perimeter_speed = 30
; infill_speed = 50
; travel_speed = 130
; scale = 1
; nozzle_diameter = 0.5
; filament_diameter = 2.93
; extrusion_multiplier = 1
; single wall width = 0.70mm
; first layer single wall width = 1.00mm

M104 S185 ; set temperature
G28 ; home all axes
M109 S185 ; wait for temperature to be reached
G90 ; use absolute coordinates
G21 ; set units to millimeters
M83 ; use relative distances for extrusion
G1 Z0.500 F7800.000
G1 X19.810 Y23.800
G1 F1800.000 E1.00000
G1 X30.050 Y16.640 F540.000 E0.82715
G1 X30.790 Y16.230 E0.05600
G1 X31.310 Y16.000 E0.03764
G1 X31.850 Y15.820 E0.03768
G1 X32.670 Y15.640 E0.05558
G1 X33.520 Y15.550 E0.05658
G1 X33.800 Y15.540 E0.01855
G1 X54.480 Y15.550 E1.36899
G1 X55.050 Y15.600 E0.03788
G1 X55.880 Y15.750 E0.05584
G1 X56.150 Y15.820 E0.01846
G1 X56.690 Y16.000 E0.03768
G1 X57.210 Y16.230 E0.03764
G1 X57.710 Y16.490 E0.03731
G1 X68.410 Y23.960 E0.86386
G1 X68.840 Y24.320 E0.03712
G1 X69.230 Y24.700 E0.03605
G1 X69.600 Y25.120 E0.03705
G1 X70.090 Y25.800 E0.05548
G1 X70.360 Y26.280 E0.03646
G1 X70.600 Y26.780 E0.03671
G1 X70.880 Y27.570 E0.05548
G1 X71.010 Y28.110 E0.03677
G1 X71.100 Y28.660 E0.03689
G1 X71.150 Y29.490 E0.05504
G1 X71.140 Y154.770 E8.29338
G1 X71.100 Y155.320 E0.03651
G1 X71.010 Y155.870 E0.03689
G1 X70.880 Y156.410 E0.03677
G1 X70.600 Y157.200 E0.05548
G1 X70.230 Y157.940 E0.05477
G1 X70.090 Y158.180 E0.01839
G1 X69.600 Y158.860 E0.05548
G1 X69.230 Y159.280 E0.03705
G1 X68.840 Y159.660 E0.03605
G1 X68.410 Y160.020 E0.03712
G1 X57.710 Y167.490 E0.86386
G1 X56.950 Y167.870 E0.05625
G1 X56.690 Y167.980 E0.01869
G1 X56.150 Y168.160 E0.03768
G1 X55.330 Y168.340 E0.05558
G1 X54.770 Y168.410 E0.03736
G1 X54.200 Y168.440 E0.03779
G1 X33.520 Y168.430 E1.36899
G1 X32.950 Y168.380 E0.03788
G1 X32.120 Y168.230 E0.05584
G1 X31.850 Y168.160 E0.01846
G1 X31.310 Y167.980 E0.03768
G1 X30.790 Y167.750 E0.03764
G1 X30.300 Y167.490 E0.03672
G1 X30.050 Y167.340 E0.01930
G1 X19.580 Y160.020 E0.84570
G1 X19.370 Y159.850 E0.01789
G1 X18.950 Y159.480 E0.03705
G1 X18.390 Y158.860 E0.05531
G1 X18.060 Y158.410 E0.03694
G1 X17.760 Y157.940 E0.03691
G1 X17.390 Y157.200 E0.05477
G1 X17.110 Y156.410 E0.05548
G1 X16.980 Y155.870 E0.03677
G1 X16.890 Y155.320 E0.03689
G1 X16.840 Y154.490 E0.05504
G1 X16.850 Y29.210 E8.29338
G1 X16.890 Y28.660 E0.03651
G1 X16.980 Y28.110 E0.03689
G1 X17.110 Y27.570 E0.03677
G1 X17.390 Y26.780 E0.05548
G1 X17.760 Y26.040 E0.05477
G1 X18.220 Y25.340 E0.05545
G1 X18.760 Y24.700 E0.05543
G1 X18.950 Y24.500 E0.01826
G1 X19.580 Y23.960 E0.05493
G1 X19.687 Y23.886 E0.00862
G1 F1800.000 E-1.00000
G1 X22.232 Y25.715 F7800.000
G1 F1800.000 E1.00000
G1 X30.015 Y25.715 F540.000 E0.51520
G1 X30.015 Y20.932 E0.31660
G1 X32.232 Y18.715 E0.20759
G1 X55.768 Y18.715 E1.55805
G1 X57.985 Y20.932 E0.20759
G1 X57.985 Y25.715 E0.31660
G1 X65.768 Y25.715 E0.51520
G1 X67.985 Y27.932 E0.20759
G1 X67.985 Y40.068 E0.80338
G1 X65.768 Y42.285 E0.20759
G1 X57.985 Y42.285 E0.51520
G1 X57.985 Y47.068 E0.31660
G1 X55.768 Y49.285 E0.20759
G1 X51.285 Y49.285 E0.29674
G1 X51.285 Y134.715 E5.65531
G1 X55.768 Y134.715 E0.29674
G1 X57.985 Y136.932 E0.20759
G1 X57.985 Y141.715 E0.31660
G1 X65.768 Y141.715 E0.51520
G1 X67.985 Y143.932 E0.20759
G1 X67.985 Y156.068 E0.80338
G1 X65.768 Y158.285 E0.20759
G1 X57.985 Y158.285 E0.51520
G1 X57.985 Y163.068 E0.31660
G1 X55.768 Y165.285 E0.20759
G1 X32.232 Y165.285 E1.55805
G1 X30.015 Y163.068 E0.20759
G1 X30.015 Y158.285 E0.31660
G1 X22.232 Y158.285 E0.51520
G1 X20.015 Y156.068 E0.20759
G1 X20.015 Y143.932 E0.80338
G1 X22.232 Y141.715 E0.20759
G1 X30.015 Y141.715 E0.51520
G1 X30.015 Y136.932 E0.31660
G1 X32.232 Y134.715 E0.20759
G1 X36.715 Y134.715 E0.29674
G1 X36.715 Y49.285 E5.65531
G1 X32.232 Y49.285 E0.29674
G1 X30.015 Y47.068 E0.20759
G1 X30.015 Y42.285 E0.31660
G1 X22.232 Y42.285 E0.51520
G1 X20.015 Y40.068 E0.20759
G1 X20.015 Y27.932 E0.80338
G1 X22.126 Y25.821 E0.19766
G1 X22.624 Y26.661 F7800.000
G1 X30.961 Y26.661 F540.000 E0.55189
G1 X30.961 Y21.324 E0.35330
G1 X32.624 Y19.661 E0.15570
G1 X55.376 Y19.661 E1.50615
G1 X57.039 Y21.324 E0.15570
G1 X57.039 Y26.661 E0.35330
G1 X65.376 Y26.661 E0.55189
G1 X67.039 Y28.324 E0.15570
G1 X67.039 Y39.676 E0.75148
G1 X65.376 Y41.339 E0.15570
G1 X57.039 Y41.339 E0.55189
G1 X57.039 Y46.676 E0.35330
G1 X55.376 Y48.339 E0.15570
G1 X50.339 Y48.339 E0.33344
G1 X50.339 Y135.661 E5.78060
G1 X55.376 Y135.661 E0.33344
G1 X57.039 Y137.324 E0.15570
G1 X57.039 Y142.661 E0.35330
G1 X65.376 Y142.661 E0.55189
G1 X67.039 Y144.324 E0.15570
G1 X67.039 Y155.676 E0.75148
G1 X65.376 Y157.339 E0.15570
G1 X57.039 Y157.339 E0.55189
G1 X57.039 Y162.676 E0.35330
G1 X55.376 Y164.339 E0.15570
G1 X32.624 Y164.339 E1.50615
G1 X30.961 Y162.676 E0.15570
G1 X30.961 Y157.339 E0.35330
G1 X22.624 Y157.339 E0.55189
G1 X20.961 Y155.676 E0.15570
G1 X20.961 Y144.324 E0.75148
G1 X22.624 Y142.661 E0.15570
G1 X30.961 Y142.661 E0.55189
G1 X30.961 Y137.324 E0.35330
G1 X32.624 Y135.661 E0.15570
G1 X37.661 Y135.661 E0.33344
G1 X37.661 Y48.339 E5.78060
G1 X32.624 Y48.339 E0.33344
G1 X30.961 Y46.676 E0.15570
G1 X30.961 Y41.339 E0.35330
G1 X22.624 Y41.339 E0.55189
G1 X20.961 Y39.676 E0.15570
G1 X20.961 Y28.324 E0.75148
G1 X22.518 Y26.767 E0.14577
G1 X23.016 Y27.607 F7800.000
G1 X31.907 Y27.607 F540.000 E0.58859
G1 X31.907 Y21.716 E0.39000
G1 X33.016 Y20.607 E0.10380
G1 X54.984 Y20.607 E1.45425
G1 X56.093 Y21.716 E0.10380
G1 X56.093 Y27.607 E0.39000
G1 X64.984 Y27.607 E0.58859
G1 X66.093 Y28.716 E0.10380
G1 X66.093 Y39.284 E0.69959
G1 X64.984 Y40.393 E0.10380
G1 X56.093 Y40.393 E0.58859
G1 X56.093 Y46.284 E0.39000
G1 X54.984 Y47.393 E0.10380
G1 X49.393 Y47.393 E0.37014
G1 X49.393 Y136.607 E5.90590
G1 X54.984 Y136.607 E0.37014
G1 X56.093 Y137.716 E0.10380
G1 X56.093 Y143.607 E0.39000
G1 X64.984 Y143.607 E0.58859
G1 X66.093 Y144.716 E0.10380
G1 X66.093 Y155.284 E0.69959
G1 X64.984 Y156.393 E0.10380
G1 X56.093 Y156.393 E0.58859
G1 X56.093 Y162.284 E0.39000
G1 X54.984 Y163.393 E0.10380
G1 X33.016 Y163.393 E1.45425
G1 X31.907 Y162.284 E0.10380
G1 X31.907 Y156.393 E0.39000
G1 X23.016 Y156.393 E0.58859
G1 X21.907 Y155.284 E0.10380
G1 X21.907 Y144.716 E0.69959
G1 X23.016 Y143.607 E0.10380
G1 X31.907 Y143.607 E0.58859
G1 X31.907 Y137.716 E0.39000
G1 X33.016 Y136.607 E0.10380
G1 X38.607 Y136.607 E0.37014
G1 X38.607 Y47.393 E5.90590
G1 X33.016 Y47.393 E0.37014
G1 X31.907 Y46.284 E0.10380
G1 X31.907 Y40.393 E0.39000
G1 X23.016 Y40.393 E0.58859
G1 X21.907 Y39.284 E0.10380
G1 X21.907 Y28.716 E0.69959
G1 X22.910 Y27.713 E0.09387
G1 X23.408 Y28.554 F7800.000
G1 X32.854 Y28.554 F540.000 E0.62529
G1 X32.854 Y22.108 E0.42669
G1 X33.408 Y21.554 E0.05190
G1 X54.592 Y21.554 E1.40235
G1 X55.146 Y22.108 E0.05190
G1 X55.146 Y28.554 E0.42669
G1 X64.592 Y28.554 E0.62529
G1 X65.146 Y29.108 E0.05190
G1 X65.146 Y38.892 E0.64769
G1 X64.592 Y39.446 E0.05190
G1 X55.146 Y39.446 E0.62529
G1 X55.146 Y45.892 E0.42669
G1 X54.592 Y46.446 E0.05190
G1 X48.446 Y46.446 E0.40683
G1 X48.446 Y137.554 E6.03119
G1 X54.592 Y137.554 E0.40683
G1 X55.146 Y138.108 E0.05190
G1 X55.146 Y144.554 E0.42669
G1 X64.592 Y144.554 E0.62529
G1 X65.146 Y145.108 E0.05190
G1 X65.146 Y154.892 E0.64769
G1 X64.592 Y155.446 E0.05190
G1 X55.146 Y155.446 E0.62529
G1 X55.146 Y161.892 E0.42669
G1 X54.592 Y162.446 E0.05190
G1 X33.408 Y162.446 E1.40235
G1 X32.854 Y161.892 E0.05190
G1 X32.854 Y155.446 E0.42669
G1 X23.408 Y155.446 E0.62529
G1 X22.854 Y154.892 E0.05190
G1 X22.854 Y145.108 E0.64769
G1 X23.408 Y144.554 E0.05190
G1 X32.854 Y144.554 E0.62529
G1 X32.854 Y138.108 E0.42669
G1 X33.408 Y137.554 E0.05190
G1 X39.554 Y137.554 E0.40683
G1 X39.554 Y46.446 E6.03119
G1 X33.408 Y46.446 E0.40683
G1 X32.854 Y45.892 E0.05190
G1 X32.854 Y39.446 E0.42669
G1 X23.408 Y39.446 E0.62529
G1 X22.854 Y38.892 E0.05190
G1 X22.854 Y29.108 E0.64769
G1 X23.302 Y28.660 E0.04197
G1 F1800.000 E-1.00000
G1 X57.444 Y34.000 F7800.000
G1 F1800.000 E1.00000
G1 X57.554 Y33.303 F540.000 E0.04673
G1 X57.875 Y32.674 E0.04671
G1 X58.285 Y32.263 E0.03845
G1 X58.285 Y32.263 E0.00000
G1 X58.373 Y32.175 E0.00827
G1 X59.007 Y31.852 E0.04704
G1 X59.007 Y31.852 E0.00000
G1 X59.618 Y31.541 E0.04544
G1 X59.618 Y31.731 E0.01259
G1 X60.397 Y31.854 E0.05221
G1 X61.027 Y32.175 E0.04674
G1 X61.526 Y32.674 E0.04674
G1 X61.845 Y33.303 E0.04670
G1 X61.956 Y34.000 E0.04673
G1 X61.845 Y34.697 E0.04673
G1 X61.526 Y35.326 E0.04670
G1 X61.027 Y35.825 E0.04674
G1 X60.397 Y36.146 E0.04674
G1 X59.618 Y36.269 E0.05221
G1 X59.618 Y36.459 E0.01259
G1 X59.007 Y36.148 E0.04544
G1 X59.007 Y36.148 E0.00000
G1 X58.373 Y35.825 E0.04704
G1 X58.285 Y35.737 E0.00827
G1 X58.285 Y35.737 E0.00000
G1 X57.875 Y35.326 E0.03845
G1 X57.554 Y34.697 E0.04671
G1 X57.467 Y34.148 E0.03680
G1 F1800.000 E-1.00000
G1 X30.627 Y33.554 F7800.000
G1 F1800.000 E1.00000
G1 X30.558 Y33.988 F540.000 E0.02910
G1 X30.558 Y33.988 E0.00000
G1 X30.446 Y34.697 E0.04752
G1 X30.125 Y35.326 E0.04672
G1 X30.031 Y35.421 E0.00887
G1 X30.031 Y35.421 E0.00000
G1 X29.626 Y35.825 E0.03787
G1 X28.746 Y36.274 E0.06539
G1 X28.746 Y36.327 E0.00352
G1 X28.308 Y36.258 E0.02933
G1 X28.308 Y36.258 E0.00000
G1 X27.603 Y36.146 E0.04729
G1 X26.974 Y35.825 E0.04672
G1 X26.475 Y35.326 E0.04674
G1 X26.154 Y34.697 E0.04672
G1 X26.042 Y33.992 E0.04729
G1 X26.042 Y33.992 E0.00000
G1 X26.042 Y33.987 E0.00033
G1 X26.046 Y33.987 E0.00028
G1 X26.135 Y33.426 E0.03758
G1 X26.135 Y33.426 E0.00000
G1 X26.154 Y33.303 E0.00826
G1 X26.475 Y32.674 E0.04672
G1 X26.974 Y32.175 E0.04674
G1 X27.603 Y31.854 E0.04672
G1 X28.306 Y31.743 E0.04715
G1 X28.306 Y31.743 E0.00000
G1 X28.755 Y31.672 E0.03007
G1 X28.755 Y31.731 E0.00392
G1 X29.626 Y32.175 E0.06473
G1 X30.125 Y32.674 E0.04674
G1 X30.530 Y33.468 E0.05898
G1 F1800.000 E-1.00000
G1 X28.300 Y147.744 F7800.000
G1 F1800.000 E1.00000
G1 X28.997 Y147.854 F540.000 E0.04673
G1 X29.626 Y148.175 E0.04672
G1 X30.125 Y148.674 E0.04674
G1 X30.574 Y149.554 E0.06539
G1 X30.627 Y149.554 E0.00352
G1 X30.558 Y149.988 E0.02910
G1 X30.558 Y149.988 E0.00000
G1 X30.446 Y150.697 E0.04752
G1 X30.385 Y150.817 E0.00887
G1 X30.385 Y150.817 E0.00000
G1 X30.125 Y151.326 E0.03786
G1 X29.626 Y151.825 E0.04673
G1 X28.997 Y152.146 E0.04673
G1 X28.300 Y152.256 E0.04673
G1 X27.603 Y152.146 E0.04673
G1 X26.974 Y151.825 E0.04672
G1 X26.475 Y151.326 E0.04674
G1 X26.154 Y150.697 E0.04672
G1 X26.044 Y150.000 E0.04673
G1 X26.154 Y149.303 E0.04673
G1 X26.475 Y148.674 E0.04672
G1 X26.974 Y148.175 E0.04674
G1 X27.603 Y147.854 E0.04672
G1 X28.152 Y147.767 E0.03681
G1 F1800.000 E-1.00000
G1 X57.444 Y150.000 F7800.000
G1 F1800.000 E1.00000
G1 X57.535 Y149.426 F540.000 E0.03847
G1 X57.535 Y149.426 E0.00000
G1 X57.554 Y149.303 E0.00826
G1 X57.875 Y148.674 E0.04671
G1 X58.285 Y148.263 E0.03845
G1 X58.285 Y148.263 E0.00000
G1 X58.373 Y148.175 E0.00827
G1 X59.003 Y147.854 E0.04675
G1 X59.698 Y147.744 E0.04660
G1 X59.698 Y147.744 E0.00000
G1 X60.155 Y147.672 E0.03063
G1 X60.155 Y147.731 E0.00391
G1 X61.027 Y148.175 E0.06475
G1 X61.526 Y148.674 E0.04674
G1 X61.845 Y149.303 E0.04670
G1 X61.956 Y150.000 E0.04673
G1 X61.845 Y150.697 E0.04673
G1 X61.526 Y151.326 E0.04670
G1 X61.027 Y151.825 E0.04674
G1 X60.155 Y152.269 E0.06475
G1 X60.155 Y152.328 E0.00391
G1 X59.698 Y152.256 E0.03063
G1 X59.698 Y152.256 E0.00000
G1 X59.003 Y152.146 E0.04660
G1 X58.373 Y151.825 E0.04675
G1 X58.285 Y151.737 E0.00827
G1 X58.285 Y151.737 E0.00000
G1 X57.875 Y151.326 E0.03845
G1 X57.554 Y150.697 E0.04671
G1 X57.535 Y150.574 E0.00826
G1 X57.535 Y150.574 E0.00000
G1 X57.467 Y150.148 E0.02854
G1 F1800.000 E-1.00000
G1 X29.410 Y152.998 F7800.000
G1 F1800.000 E1.00000
G1 X30.189 Y152.600 F540.000 E0.05790
G1 X30.901 Y151.889 E0.06658
G1 X31.929 Y149.870 E0.15001
G1 X31.535 Y149.870 E0.02609
G1 X31.735 Y148.608 E0.08462
G1 X31.154 Y148.608 E0.03848
G1 X30.901 Y148.111 E0.03692
G1 X30.189 Y147.399 E0.06658
G1 X29.410 Y147.002 E0.05790
G1 X29.544 Y146.446 E0.03786
G1 X34.746 Y146.446 E0.34442
G1 X34.746 Y139.446 E0.46339
G1 X41.446 Y139.446 E0.44353
G1 X41.446 Y44.554 E6.28178
G1 X34.746 Y44.554 E0.44353
G1 X34.746 Y37.554 E0.46339
G1 X29.544 Y37.554 E0.34442
G1 X29.410 Y36.997 E0.03786
G1 X30.189 Y36.601 E0.05789
G1 X31.818 Y34.972 E0.15244
G1 X31.487 Y34.174 E0.05721
G1 X31.504 Y34.063 E0.00743
G1 X31.504 Y34.063 E0.00000
G1 X31.735 Y32.608 E0.09753
G1 X31.154 Y32.608 E0.03848
G1 X30.901 Y32.111 E0.03693
G1 X30.189 Y31.399 E0.06659
G1 X29.410 Y31.002 E0.05789
G1 X29.544 Y30.446 E0.03786
G1 X34.746 Y30.446 E0.34442
G1 X34.746 Y23.446 E0.46339
G1 X53.254 Y23.446 E1.22516
G1 X53.254 Y30.446 E0.46339
G1 X58.456 Y30.446 E0.34439
G1 X58.590 Y31.003 E0.03787
G1 X57.810 Y31.400 E0.05791
G1 X56.947 Y32.263 E0.08084
G1 X56.996 Y32.313 E0.00463
G1 X56.643 Y33.007 E0.05155
G1 X56.486 Y34.000 E0.06658
G1 X56.643 Y34.993 E0.06658
G1 X56.996 Y35.687 E0.05155
G1 X56.947 Y35.737 E0.00463
G1 X57.810 Y36.600 E0.08084
G1 X58.590 Y36.997 E0.05791
G1 X58.456 Y37.554 E0.03787
G1 X53.254 Y37.554 E0.34439
G1 X53.254 Y44.554 E0.46339
G1 X46.554 Y44.554 E0.44353
G1 X46.554 Y139.446 E6.28178
G1 X53.254 Y139.446 E0.44353
G1 X53.254 Y146.446 E0.46339
G1 X58.456 Y146.446 E0.34439
G1 X58.590 Y147.003 E0.03787
G1 X57.810 Y147.400 E0.05790
G1 X56.731 Y148.480 E0.10108
G1 X56.727 Y148.480 E0.00029
G1 X56.486 Y150.000 E0.10190
G1 X56.727 Y151.520 E0.10190
G1 X56.731 Y151.520 E0.00029
G1 X57.810 Y152.600 E0.10108
G1 X58.590 Y152.997 E0.05790
G1 X58.456 Y153.554 E0.03787
G1 X53.254 Y153.554 E0.34439
G1 X53.254 Y160.554 E0.46339
G1 X34.746 Y160.554 E1.22516
G1 X34.746 Y153.554 E0.46339
G1 X29.544 Y153.554 E0.34442
G1 X29.445 Y153.143 E0.02793
G1 F1800.000 E-1.00000
G1 X27.190 Y152.998 F7800.000
G1 F1800.000 E1.00000
G1 X27.056 Y153.554 F540.000 E0.03786
G1 X24.746 Y153.554 E0.15293
G1 X24.746 Y151.244 E0.15293
G1 X25.302 Y151.110 E0.03786
G1 X25.699 Y151.889 E0.05789
G1 X26.411 Y152.601 E0.06659
G1 X27.056 Y152.929 E0.04796
G1 F1800.000 E-1.00000
G1 X60.810 Y152.997 F7800.000
G1 F1800.000 E1.00000
G1 X61.590 Y152.600 F540.000 E0.05790
G1 X62.301 Y151.889 E0.06662
G1 X62.697 Y151.110 E0.05780
G1 X63.254 Y151.244 E0.03789
G1 X63.254 Y153.554 E0.15291
G1 X60.944 Y153.554 E0.15290
G1 X60.845 Y153.143 E0.02793
G1 F1800.000 E-1.00000
G1 X27.190 Y147.002 F7800.000
G1 F1800.000 E1.00000
G1 X26.411 Y147.399 F540.000 E0.05789
G1 X25.699 Y148.111 E0.06659
G1 X25.302 Y148.890 E0.05789
G1 X24.746 Y148.756 E0.03786
G1 X24.746 Y146.446 E0.15293
G1 X27.056 Y146.446 E0.15293
G1 X27.155 Y146.857 E0.02793
G1 F1800.000 E-1.00000
G1 X60.810 Y147.003 F7800.000
G1 F1800.000 E1.00000
G1 X60.944 Y146.446 F540.000 E0.03786
G1 X63.254 Y146.446 E0.15290
G1 X63.254 Y148.756 E0.15291
G1 X62.697 Y148.890 E0.03789
G1 X62.301 Y148.111 E0.05780
G1 X61.590 Y147.400 E0.06662
G1 X60.944 Y147.071 E0.04797
G1 F1800.000 E-1.00000
G1 X27.056 Y37.554 F7800.000
G1 F1800.000 E1.00000
G1 X24.746 Y37.554 F540.000 E0.15293
G1 X24.746 Y35.244 E0.15293
G1 X25.302 Y35.110 E0.03786
G1 X25.699 Y35.889 E0.05789
G1 X26.411 Y36.601 E0.06659
G1 X27.190 Y36.998 E0.05789
G1 X27.091 Y37.408 E0.02793
G1 F1800.000 E-1.00000
G1 X60.810 Y36.997 F7800.000
G1 F1800.000 E1.00000
G1 X61.590 Y36.601 F540.000 E0.05790
G1 X62.301 Y35.889 E0.06662
G1 X62.697 Y35.110 E0.05780
G1 X63.254 Y35.244 E0.03790
G1 X63.254 Y37.554 E0.15291
G1 X60.944 Y37.554 E0.15290
G1 X60.845 Y37.143 E0.02794
G1 F1800.000 E-1.00000
G1 X27.190 Y31.002 F7800.000
G1 F1800.000 E1.00000
G1 X26.411 Y31.399 F540.000 E0.05789
G1 X25.699 Y32.111 E0.06659
G1 X25.302 Y32.890 E0.05789
G1 X24.746 Y32.756 E0.03786
G1 X24.746 Y30.446 E0.15293
G1 X27.056 Y30.446 E0.15293
G1 X27.155 Y30.857 E0.02793
G1 F1800.000 E-1.00000
G1 X60.810 Y31.003 F7800.000
G1 F1800.000 E1.00000
G1 X60.944 Y30.446 F540.000 E0.03787
G1 X63.254 Y30.446 E0.15290
G1 X63.254 Y32.756 E0.15291
G1 X62.697 Y32.890 E0.03790
G1 X62.301 Y32.111 E0.05780
G1 X61.590 Y31.399 E0.06662
G1 X60.944 Y31.071 E0.04797
G1 F1800.000 E-1.00000
G1 X64.200 Y29.500 F7800.000
G1 F1800.000 E1.00000
G1 X64.200 Y38.500 F540.000 E0.59579
