; generated by Slic3r 0.9.9-dev on 2013-02-02 at 19:35:29

; layer_height = 0.25
; perimeters = 3
; top_solid_layers = 3
; bottom_solid_layers = 3
; fill_density = 0.2
; perimeter_speed = 25
; infill_speed = 30
; travel_speed = 80
; scale = 1
; nozzle_diameter = 0.5
; filament_diameter = 2.90
; extrusion_multiplier = 1.05
; perimeters extrusion width = 0.57mm
; infill extrusion width = 0.57mm
; support material extrusion width = 0.57mm
; first layer extrusion width = 0.53mm

M107
M190 S5 ; wait for bed temperature to be reached
M104 S185 ; set temperature
; G28 ; home all axes
M109 S185 ; wait for temperature to be reached
G90 ; use absolute coordinates
G21 ; set units to millimeters
G92 E0
M82 ; use absolute distances for extrusion
G1 F1800.000 E-1.00000
G92 E0
G1 Z0.500 F4800.000
G1 X79.191 Y72.870
G1 F1800.000 E1.00000
G1 X79.771 Y72.310 F450.000 E1.03330
G1 X80.191 Y71.990 E1.05511
G1 X80.641 Y71.700 E1.07722
G1 X81.111 Y71.440 E1.09940
G1 X81.611 Y71.230 E1.12180
G1 X82.111 Y71.060 E1.14361
G1 X82.631 Y70.930 E1.16575
G1 X83.161 Y70.840 E1.18795
G1 X83.431 Y70.810 E1.19917
G1 X83.961 Y70.790 E1.22108
G1 X96.031 Y70.790 E1.71960
G1 X96.561 Y70.810 E1.74150
G1 X97.361 Y70.930 E1.77491
G1 X97.881 Y71.060 E1.79705
G1 X98.381 Y71.230 E1.81886
G1 X98.871 Y71.440 E1.84088
G1 X99.351 Y71.700 E1.86343
G1 X99.791 Y71.990 E1.88519
G1 X100.221 Y72.310 E1.90733
G1 X100.421 Y72.490 E1.91844
G1 X100.801 Y72.870 E1.94064
G1 X101.151 Y73.270 E1.96259
G1 X101.611 Y73.930 E1.99582
G1 X101.981 Y74.640 E2.02889
G1 X102.181 Y75.140 E2.05113
G1 X102.401 Y75.910 E2.08420
G1 X102.491 Y76.440 E2.10641
G1 X102.541 Y76.970 E2.12839
G1 X103.521 Y95.680 E2.90222
G1 X103.521 Y97.120 E2.96169
G1 X103.431 Y98.110 E3.00275
G1 X103.261 Y99.150 E3.04627
G1 X103.031 Y100.130 E3.08785
G1 X102.691 Y101.170 E3.13304
G1 X102.251 Y102.190 E3.17892
G1 X101.591 Y103.430 E3.23694
G1 X101.341 Y103.840 E3.25677
G1 X100.241 Y105.260 E3.33096
G1 X100.051 Y105.490 E3.34328
G1 X99.641 Y105.920 E3.36782
G1 X99.191 Y106.310 E3.39241
G1 X97.671 Y107.520 E3.47266
G1 X97.201 Y107.830 E3.49591
G1 X96.701 Y108.100 E3.51938
G1 X95.911 Y108.430 E3.55474
G1 X91.741 Y109.630 E3.73396
G1 X91.141 Y109.750 E3.75923
G1 X90.231 Y109.810 E3.79690
G1 X89.761 Y109.810 E3.81631
G1 X89.151 Y109.780 E3.84154
G1 X88.551 Y109.700 E3.86654
G1 X87.961 Y109.550 E3.89168
G1 X84.071 Y108.430 E4.05887
G1 X83.791 Y108.330 E4.07115
G1 X83.261 Y108.100 E4.09501
G1 X82.751 Y107.820 E4.11904
G1 X82.511 Y107.660 E4.13096
G1 X82.041 Y107.310 E4.15516
G1 X80.771 Y106.280 E4.22270
G1 X80.351 Y105.910 E4.24581
G1 X79.781 Y105.290 E4.28060
G1 X78.951 Y104.250 E4.33556
G1 X78.661 Y103.850 E4.35596
G1 X78.401 Y103.440 E4.37601
G1 X77.741 Y102.190 E4.43439
G1 X77.301 Y101.170 E4.48028
G1 X76.961 Y100.130 E4.52547
G1 X76.721 Y99.090 E4.56955
G1 X76.561 Y98.050 E4.61301
G1 X76.481 Y97.120 E4.65156
G1 X76.481 Y95.680 E4.71104
G1 X77.451 Y76.970 E5.48484
G1 X77.501 Y76.440 E5.50682
G1 X77.651 Y75.650 E5.54004
G1 X77.811 Y75.140 E5.56211
G1 X78.121 Y74.400 E5.59525
G1 X78.381 Y73.930 E5.61743
G1 X78.681 Y73.490 E5.63943
G1 X78.841 Y73.270 E5.65066
G1 X79.138 Y72.928 E5.66940
G1 X79.191 Y72.870 E5.67262
G1 F1800.000 E4.67262
G92 E0
G1 X81.458 Y72.897 F4800.000
G1 F1800.000 E1.00000
G1 X89.017 Y72.897 F450.000 E1.31220
G1 X89.737 Y73.618 E1.35429
G1 X90.458 Y72.897 E1.39637
G1 X98.017 Y72.897 E1.70857
G1 X100.452 Y75.332 E1.85081
G1 X100.452 Y91.684 E2.52617
G1 X101.082 Y93.694 E2.61316
G1 X101.456 Y94.072 E2.63513
G1 X101.447 Y94.859 E2.66763
G4 P18
G1 X101.809 Y96.012 E2.71752
G4 P1
G1 X101.429 Y96.529 E2.74403
G1 X101.428 Y96.594 E2.74670
G4 P21
G1 X101.808 Y97.119 E2.77349
G4 P24
G1 X101.408 Y98.339 E2.82650
G1 X101.400 Y99.080 E2.85713
G1 X101.053 Y99.424 E2.87732
G1 X100.977 Y99.655 E2.88738
G1 X101.361 Y100.448 E2.92378
G4 P14
G1 X100.258 Y101.846 E2.99733
G1 X100.215 Y101.980 E3.00313
G1 X100.071 Y102.084 E3.01045
G1 X98.780 Y103.720 E3.09654
G1 X98.780 Y104.244 E3.11816
G1 X96.345 Y106.679 E3.26040
G1 X93.786 Y106.679 E3.36608
G1 X92.747 Y107.718 E3.42678
G1 X87.254 Y107.718 E3.65367
G1 X86.214 Y106.679 E3.71437
G1 X85.344 Y106.679 E3.75030
G1 X83.991 Y106.197 E3.80961
G1 X79.244 Y102.326 E4.06261
G1 X79.625 Y101.257 E4.10947
G4 P4
G1 X79.380 Y100.792 E4.13119
G1 X79.082 Y100.538 E4.14734
G1 X79.009 Y100.090 E4.16610
G1 X78.299 Y98.742 E4.22903
G1 X78.687 Y98.097 E4.26013
G4 P19
G1 X78.672 Y97.999 E4.26425
G1 X78.281 Y97.544 E4.28901
G4 P22
G1 X78.435 Y96.538 E4.33105
G4 P9
G1 X78.279 Y95.568 E4.37164
G4 P10
G1 X78.651 Y95.130 E4.39539
G1 X78.665 Y95.040 E4.39913
G4 P23
G1 X78.315 Y94.485 E4.42627
G4 P23
G1 X78.957 Y93.142 E4.48774
G1 X79.044 Y92.570 E4.51163
G1 X79.359 Y92.300 E4.52875
G1 X79.548 Y91.904 E4.54687
G1 X79.548 Y79.826 E5.04571
G1 X79.023 Y79.301 E5.07638
G1 X79.023 Y75.332 E5.24030
G1 X81.403 Y72.952 E5.37932
G1 X81.458 Y72.897 E5.38254
G1 X81.673 Y73.417 F4800.000
G1 X88.802 Y73.417 F450.000 E5.67695
G1 X89.737 Y74.353 E5.73161
G1 X90.673 Y73.417 E5.78628
G1 X97.802 Y73.417 E6.08069
G1 X99.932 Y75.548 E6.20515
G1 X99.932 Y91.764 E6.87491
G1 X100.624 Y93.970 E6.97039
G1 X100.934 Y94.283 E6.98860
G1 X100.927 Y94.936 E7.01555
G4 P23
G1 X101.234 Y95.916 E7.05799
G4 P8
G1 X100.911 Y96.356 E7.08053
G1 X100.906 Y96.760 E7.09720
G4 P12
G1 X101.232 Y97.209 E7.12012
G4 P27
G1 X100.890 Y98.253 E7.16549
G1 X100.883 Y98.861 E7.19060
G1 X100.598 Y99.143 E7.20716
G1 X100.418 Y99.693 E7.23108
G1 X100.752 Y100.382 E7.26271
G4 P19
G1 X99.793 Y101.597 E7.32662
G1 X99.773 Y101.658 E7.32927
G1 X99.708 Y101.705 E7.33261
G1 X98.260 Y103.540 E7.42912
G1 X98.260 Y104.028 E7.44930
G1 X96.130 Y106.159 E7.57376
G1 X93.571 Y106.159 E7.67944
G1 X92.532 Y107.198 E7.74014
G1 X87.469 Y107.198 E7.94925
G1 X86.429 Y106.159 E8.00995
G1 X85.434 Y106.159 E8.05107
G1 X84.250 Y105.738 E8.10296
G1 X79.857 Y102.155 E8.33712
G1 X80.191 Y101.216 E8.37826
G4 P10
G1 X79.793 Y100.461 E8.41353
G1 X79.564 Y100.267 E8.42591
G1 X79.509 Y99.923 E8.44029
G1 X78.895 Y98.759 E8.49463
G1 X79.231 Y98.203 E8.52148
G4 P23
G1 X79.161 Y97.772 E8.53951
G1 X78.831 Y97.387 E8.56045
G4 P12
G1 X78.961 Y96.536 E8.59601
G4 P15
G1 X78.830 Y95.722 E8.63006
G4 P17
G1 X79.143 Y95.355 E8.64999
G1 X79.208 Y94.927 E8.66784
G4 P13
G1 X78.907 Y94.450 E8.69115
G4 P27
G1 X79.458 Y93.296 E8.74396
G1 X79.529 Y92.839 E8.76307
G1 X79.780 Y92.623 E8.77677
G1 X80.068 Y92.022 E8.80428
G1 X80.068 Y79.611 E9.31688
G1 X79.543 Y79.086 E9.34754
G1 X79.543 Y75.548 E9.49368
G1 X81.618 Y73.472 E9.61492
G1 X81.673 Y73.417 E9.61814
G1 X81.889 Y73.936 F4800.000
G1 X88.586 Y73.936 F450.000 E9.89478
G1 X89.737 Y75.088 E9.96201
G1 X90.889 Y73.936 E10.02924
G1 X97.586 Y73.936 E10.30588
G1 X99.413 Y75.763 E10.41256
G1 X99.413 Y91.843 E11.07672
G1 X100.166 Y94.245 E11.18069
G1 X100.412 Y94.494 E11.19515
G1 X100.406 Y95.012 E11.21654
G4 P29
G1 X100.659 Y95.820 E11.25152
G4 P16
G1 X100.393 Y96.183 E11.27010
G1 X100.385 Y96.925 E11.30077
G4 P2
G1 X100.656 Y97.299 E11.31982
G4 P31
G1 X100.371 Y98.167 E11.35754
G1 X100.366 Y98.641 E11.37714
G1 X100.143 Y98.861 E11.39006
G1 X99.858 Y99.731 E11.42784
G1 X100.142 Y100.316 E11.45470
G4 P23
G1 X97.741 Y103.360 E11.61483
G1 X97.741 Y103.813 E11.63357
G1 X95.914 Y105.640 E11.74024
G1 X93.356 Y105.640 E11.84592
G1 X92.316 Y106.679 E11.90663
G1 X87.684 Y106.679 E12.09795
G1 X86.645 Y105.640 E12.15866
G1 X85.524 Y105.640 E12.20495
G1 X84.509 Y105.278 E12.24944
G1 X80.469 Y101.984 E12.46474
G1 X80.757 Y101.176 E12.50017
G4 P15
G1 X80.206 Y100.130 E12.54899
G1 X80.047 Y99.995 E12.55760
G1 X80.008 Y99.756 E12.56761
G1 X79.492 Y98.776 E12.61334
G1 X79.774 Y98.308 E12.63594
G4 P28
G1 X79.651 Y97.544 E12.66789
G1 X79.381 Y97.230 E12.68502
G4 P2
G1 X79.487 Y96.534 E12.71409
G4 P21
G1 X79.381 Y95.876 E12.74161
G4 P23
G1 X79.634 Y95.579 E12.75771
G1 X79.751 Y94.814 E12.78967
G4 P3
G1 X79.500 Y94.415 E12.80915
G4 P31
G1 X79.960 Y93.451 E12.85329
G1 X80.013 Y93.108 E12.86763
G1 X80.202 Y92.946 E12.87790
G1 X80.587 Y92.140 E12.91481
G1 X80.587 Y79.396 E13.44116
G1 X80.062 Y78.871 E13.47182
G1 X80.062 Y75.763 E13.60019
G1 X81.833 Y73.992 E13.70364
G1 X81.889 Y73.936 E13.70686
G1 F1800.000 E12.70686
G92 E0
G1 X89.988 Y94.885 F4800.000
G1 F1800.000 E1.00000
G1 X89.988 Y96.513 F450.000 E1.06724
G1 X89.952 Y96.548 E1.06932
G1 X89.952 Y96.850 E1.08179
G1 X89.903 Y96.800 E1.08470
G1 X89.776 Y96.800 E1.08991
G1 X89.770 Y95.503 E1.14352
G1 X89.770 Y95.288 E1.15240
G1 X89.948 Y94.951 E1.16813
G1 X89.988 Y94.885 E1.17133
G1 F1800.000 E0.17133
G92 E0
G4 P31
G1 X81.107 Y92.257 F4800.000
G1 F1800.000 E1.00000
G1 X81.107 Y79.181 F450.000 E1.54010
G1 X80.582 Y78.656 E1.57077
G1 X80.582 Y75.978 E1.68135
G1 X82.104 Y74.456 E1.77025
G1 X88.371 Y74.456 E2.02911
G1 X89.737 Y75.822 E2.10891
G1 X91.104 Y74.456 E2.18872
G1 X97.371 Y74.456 E2.44758
G1 X98.893 Y75.978 E2.53647
G1 X98.893 Y92.054 E3.20043
G1 X98.946 Y92.093 E3.20316
G1 X99.708 Y94.521 E3.30827
G1 X99.890 Y94.705 E3.31897
G1 X99.886 Y95.089 E3.33482
G4 P34
G1 X100.085 Y95.725 E3.36234
G4 P23
G1 X99.875 Y96.010 E3.37696
G1 X99.863 Y97.091 E3.42161
G1 X100.079 Y97.389 E3.43681
G4 P35
G1 X99.852 Y98.081 E3.46688
G1 X99.849 Y98.422 E3.48096
G1 X99.689 Y98.580 E3.49025
G1 X99.299 Y99.768 E3.54189
G1 X99.532 Y100.249 E3.56398
G4 P28
G1 X97.221 Y103.179 E3.71811
G1 X97.221 Y103.598 E3.73540
G1 X95.699 Y105.120 E3.82430
G1 X93.140 Y105.120 E3.92998
G1 X92.101 Y106.159 E3.99068
G1 X87.899 Y106.159 E4.16423
G1 X86.860 Y105.120 E4.22493
G1 X85.614 Y105.120 E4.27641
G1 X84.768 Y104.819 E4.31348
G1 X81.082 Y101.813 E4.50994
G1 X81.323 Y101.135 E4.53965
G4 P21
G1 X80.619 Y99.799 E4.60202
G1 X80.529 Y99.723 E4.60687
G1 X80.508 Y99.589 E4.61249
G1 X80.088 Y98.793 E4.64963
G1 X80.318 Y98.413 E4.66798
G4 P32
G1 X80.140 Y97.317 E4.71384
G1 X79.931 Y97.072 E4.72715
G1 X80.014 Y96.532 E4.74974
G4 P28
G1 X79.932 Y96.030 E4.77072
G4 P29
G1 X80.125 Y95.804 E4.78300
G1 X80.294 Y94.701 E4.82906
G1 X80.092 Y94.381 E4.84472
G4 P34
G1 X80.462 Y93.606 E4.88019
G1 X80.498 Y93.377 E4.88976
G1 X80.623 Y93.269 E4.89661
G1 X81.073 Y92.328 E4.93969
G1 X81.107 Y92.257 E4.94291
G1 F1800.000 E3.94291
G92 E0
G1 X89.250 Y95.159 F4800.000
G1 F1800.000 E1.00000
G1 X89.555 Y94.583 F450.000 E1.02690
G1 X89.893 Y94.245 E1.04666
G1 X89.893 Y93.943 E1.05912
G1 X90.075 Y93.599 E1.07517
G1 X89.893 Y93.298 E1.08972
G1 X89.893 Y92.818 E1.10952
G4 P16
G1 X90.508 Y94.515 E1.18406
G1 X90.508 Y96.323 E1.25874
G1 X90.710 Y96.525 E1.27056
G1 X90.472 Y96.764 E1.28446
G1 X90.472 Y97.850 E1.32934
G1 X90.340 Y97.973 E1.33678
G1 X89.688 Y97.320 E1.37490
G1 X89.257 Y97.320 E1.39269
G1 X89.250 Y95.237 E1.47874
G1 X89.250 Y95.159 E1.48196
G1 F1800.000 E0.48196
G92 E0
G1 X89.893 Y91.968 F4800.000
G1 F1800.000 E1.00000
G1 X89.893 Y78.967 F450.000 E1.53698
G1 X90.107 Y79.181 E1.54946
G1 X90.107 Y91.664 E2.06504
G1 X89.938 Y91.904 E2.07719
G1 X89.893 Y91.968 E2.08041
G4 P35
G1 X90.271 Y92.335 F4800.000
G1 X90.626 Y91.828 F450.000 E2.10599
G1 X90.626 Y78.965 E2.63723
G1 X90.101 Y78.440 E2.66790
G1 X90.101 Y76.193 E2.76070
G1 X91.319 Y74.976 E2.83182
G1 X97.156 Y74.976 E3.07290
G1 X98.374 Y76.193 E3.14402
G1 X98.374 Y92.317 E3.80995
G1 X98.502 Y92.411 E3.81651
G1 X99.250 Y94.797 E3.91979
G1 X99.368 Y94.917 E3.92674
G1 X99.365 Y95.166 E3.93703
G4 P40
G1 X99.510 Y95.629 E3.95710
G4 P30
G1 X99.358 Y95.837 E3.96775
G1 X99.342 Y97.257 E4.02640
G1 X99.503 Y97.479 E4.03773
G4 P39
G1 X99.334 Y97.995 E4.06016
G1 X99.331 Y98.203 E4.06873
G1 X99.234 Y98.299 E4.07438
G1 X98.740 Y99.806 E4.13988
G1 X98.923 Y100.183 E4.15720
G4 P33
G1 X96.701 Y102.999 E4.30533
G1 X96.701 Y103.383 E4.32118
G1 X95.484 Y104.600 E4.39230
G1 X92.925 Y104.600 E4.49798
G1 X91.886 Y105.640 E4.55868
G1 X88.114 Y105.640 E4.71445
G1 X87.075 Y104.600 E4.77515
G1 X85.703 Y104.600 E4.83181
G1 X85.027 Y104.359 E4.86147
G1 X81.694 Y101.642 E5.03908
G1 X81.889 Y101.094 E5.06307
G4 P26
G1 X80.685 Y98.811 E5.16971
G1 X80.861 Y98.518 E5.18382
G4 P36
G1 X80.630 Y97.089 E5.24359
G1 X80.480 Y96.915 E5.25308
G1 X80.540 Y96.529 E5.26919
G4 P34
G1 X80.484 Y96.184 E5.28364
G4 P36
G1 X80.616 Y96.028 E5.29210
G1 X80.837 Y94.588 E5.35226
G1 X80.685 Y94.346 E5.36409
G4 P38
G1 X80.964 Y93.761 E5.39090
G1 X80.982 Y93.646 E5.39569
G1 X81.045 Y93.592 E5.39912
G1 X81.626 Y92.375 E5.45481
G1 X81.626 Y78.965 E6.00867
G1 X81.101 Y78.440 E6.03933
G1 X81.101 Y76.193 E6.13214
G1 X82.319 Y74.976 E6.20325
G1 X88.156 Y74.976 E6.44433
G1 X89.374 Y76.193 E6.51545
G1 X89.374 Y93.442 E7.22786
G1 X89.478 Y93.616 E7.23624
G1 X89.374 Y93.814 E7.24550
G1 X89.374 Y94.029 E7.25439
G1 X89.132 Y94.271 E7.26850
G1 X88.731 Y95.030 E7.30395
G1 X88.737 Y97.840 E7.42001
G1 X89.472 Y97.840 E7.45037
G1 X90.327 Y98.694 E7.50029
G1 X90.992 Y98.077 E7.53777
G1 X90.992 Y96.979 E7.58311
G1 X91.262 Y96.708 E7.59892
G1 X91.262 Y96.343 E7.61400
G1 X91.027 Y96.108 E7.62774
G1 X91.027 Y94.424 E7.69730
G1 X90.297 Y92.408 E7.78583
G1 X90.271 Y92.335 E7.78905
G1 X90.851 Y92.412 F4800.000
G4 P42
G1 X91.146 Y91.992 F450.000 E7.81025
G1 X91.146 Y78.750 E8.35716
G1 X90.621 Y78.225 E8.38783
G1 X90.621 Y76.409 E8.46285
G1 X91.534 Y75.495 E8.51619
G1 X96.941 Y75.495 E8.73949
G1 X97.854 Y76.409 E8.79283
G1 X97.854 Y92.580 E9.46073
G1 X98.057 Y92.729 E9.47112
G1 X98.791 Y95.073 E9.57257
G1 X98.846 Y95.128 E9.57578
G1 X98.845 Y95.242 E9.58051
G4 P45
G1 X98.936 Y95.534 E9.59312
G4 P37
G1 X98.840 Y95.664 E9.59982
G1 X98.820 Y97.423 E9.67246
G1 X98.926 Y97.569 E9.67992
G4 P42
G1 X98.815 Y97.909 E9.69470
G1 X98.814 Y97.983 E9.69776
G1 X98.779 Y98.018 E9.69977
G1 X98.181 Y99.844 E9.77914
G1 X98.313 Y100.117 E9.79168
G4 P37
G1 X96.253 Y102.729 E9.92910
G1 X96.182 Y102.763 E9.93234
G1 X96.182 Y103.168 E9.94904
G1 X95.269 Y104.081 E10.00238
G1 X92.584 Y104.081 E10.11326
G1 X92.584 Y104.207 E10.11847
G1 X91.671 Y105.120 E10.17181
G1 X88.330 Y105.120 E10.30980
G1 X87.417 Y104.207 E10.36314
G1 X87.417 Y104.081 E10.36834
G1 X85.793 Y104.081 E10.43539
G1 X85.286 Y103.900 E10.45764
G1 X82.307 Y101.471 E10.61640
G1 X82.455 Y101.054 E10.63468
G4 P32
G1 X81.281 Y98.828 E10.73862
G1 X81.404 Y98.623 E10.74848
G4 P40
G1 X81.120 Y96.862 E10.82217
G1 X81.030 Y96.758 E10.82784
G1 X81.066 Y96.527 E10.83747
G4 P40
G1 X81.035 Y96.338 E10.84538
G4 P42
G1 X81.108 Y96.253 E10.85001
G1 X81.380 Y94.475 E10.92428
G1 X81.277 Y94.311 E10.93229
G4 P42
G1 X82.146 Y92.493 E11.01553
G1 X82.146 Y78.750 E11.58314
G1 X81.621 Y78.225 E11.61381
G1 X81.621 Y76.409 E11.68883
G1 X82.534 Y75.495 E11.74217
G1 X87.941 Y75.495 E11.96547
G1 X88.854 Y76.409 E12.01881
G1 X88.854 Y93.587 E12.72830
G1 X88.882 Y93.633 E12.73052
G1 X88.854 Y93.685 E12.73297
G1 X88.854 Y93.814 E12.73829
G1 X88.709 Y93.959 E12.74674
G1 X88.137 Y95.041 E12.79732
G1 X88.211 Y95.115 E12.80165
G1 X88.218 Y97.971 E12.91960
G1 X88.177 Y98.011 E12.92195
G4 P47
G1 X88.371 Y98.359 E12.93841
G1 X89.257 Y98.359 E12.97499
G1 X90.170 Y99.273 E13.02833
G1 X90.170 Y99.399 E13.03353
G1 X90.332 Y99.399 E13.04021
G1 X91.511 Y98.303 E13.10669
G1 X91.511 Y97.194 E13.15251
G1 X91.782 Y96.923 E13.16832
G1 X91.794 Y96.139 E13.20070
G1 X91.547 Y95.893 E13.21511
G1 X91.547 Y94.332 E13.27955
G1 X90.878 Y92.485 E13.36070
G1 X90.851 Y92.412 E13.36391
G1 X91.432 Y92.489 F4800.000
G4 P42
G1 X91.666 Y92.156 F450.000 E13.38072
G1 X91.666 Y78.535 E13.94330
G1 X91.141 Y78.010 E13.97397
G1 X91.141 Y76.624 E14.03121
G1 X91.750 Y76.015 E14.06677
G1 X96.725 Y76.015 E14.27229
G1 X97.334 Y76.624 E14.30785
G1 X97.334 Y92.843 E14.97773
G1 X97.612 Y93.047 E14.99195
G1 X98.361 Y95.438 E15.09546
G1 X98.322 Y95.491 E15.09819
G1 X98.299 Y97.589 E15.18483
G1 X98.350 Y97.659 E15.18843
G4 P46
G1 X97.621 Y99.881 E15.28500
G1 X97.704 Y100.051 E15.29278
G4 P42
G1 X95.918 Y102.314 E15.41182
G1 X95.662 Y102.438 E15.42358
G1 X95.662 Y102.952 E15.44483
G1 X95.053 Y103.561 E15.48039
G1 X92.064 Y103.561 E15.60385
G1 X92.064 Y103.992 E15.62163
G1 X91.455 Y104.600 E15.65719
G1 X88.545 Y104.600 E15.77739
G1 X87.936 Y103.992 E15.81295
G1 X87.936 Y103.561 E15.83073
G1 X85.883 Y103.561 E15.91554
G1 X85.545 Y103.441 E15.93037
G1 X82.919 Y101.300 E16.07028
G1 X83.021 Y101.013 E16.08284
G4 P37
G1 X81.878 Y98.845 E16.18409
