; generated by Slic3r 1.1.4 on 2014-06-07 at 10:29:34

; perimeters extrusion width = 0.50mm
; infill extrusion width = 0.52mm
; solid infill extrusion width = 0.52mm
; top infill extrusion width = 0.52mm

G21 ; set units to millimeters
M107
M104 S235 ; set temperature
//G28 ; home all axes
G1 Z5 F5000 ; lift nozzle

M109 S235 ; wait for temperature to be reached
G90 ; use absolute coordinates
G92 E0
M82 ; use absolute distances for extrusion
G1 F1800.000 E-1.00000
G92 E0
G1 Z0.350 F7800.000
G1 X87.293 Y67.293 F7800.000
G1 E1.00000 F1800.000
G1 X89.175 Y65.972 E1.07736 F1080.000
G1 X92.000 Y65.343 E1.17475
G1 X108.000 Y65.343 E1.71311
G1 X110.265 Y65.740 E1.79047
G1 X112.259 Y66.884 E1.86782
G1 X113.745 Y68.637 E1.94518
G1 X114.547 Y70.792 E2.02254
G1 X114.657 Y72.000 E2.06334
G1 X114.657 Y108.000 E3.27465
G1 X114.260 Y110.265 E3.35201
G1 X113.116 Y112.259 E3.42937
G1 X111.363 Y113.745 E3.50672
G1 X109.208 Y114.547 E3.58408
G1 X108.000 Y114.657 E3.62488
G1 X72.000 Y114.657 E4.83619
G1 X69.735 Y114.260 E4.91355
G1 X67.741 Y113.116 E4.99091
G1 X66.255 Y111.363 E5.06826
G1 X65.453 Y109.208 E5.14562
G1 X65.343 Y108.000 E5.18643
G1 X65.343 Y92.000 E5.72478
G1 X65.740 Y89.735 E5.80214
G1 X67.293 Y87.293 E5.89954
G1 X87.240 Y67.346 E6.84871
G1 F1800.000 E5.84871
G92 E0
G1 X87.297 Y87.187 F7800.000
G1 E1.00000 F1800.000
G1 X86.821 Y87.581 E1.02079 F540.000
G1 X86.262 Y87.844 E1.04159
G1 X85.655 Y87.960 E1.06237
G1 X85.038 Y87.921 E1.08316
G1 X84.910 Y87.880 E1.08771
G1 X84.450 Y87.730 E1.10396
G1 X83.929 Y87.399 E1.12475
G1 X83.506 Y86.949 E1.14553
G1 X83.208 Y86.407 E1.16634
G1 X83.054 Y85.809 E1.18712
G1 X83.054 Y85.191 E1.20791
G1 X83.208 Y84.593 E1.22870
G1 X83.506 Y84.051 E1.24950
G1 X83.929 Y83.601 E1.27029
G1 X84.450 Y83.270 E1.29107
G1 X85.038 Y83.079 E1.31188
G1 X85.655 Y83.040 E1.33266
G1 X86.262 Y83.156 E1.35345
G1 X86.821 Y83.419 E1.37425
G1 X87.297 Y83.813 E1.39504
G1 X87.660 Y84.312 E1.41582
G1 X87.888 Y84.887 E1.43661
G1 X87.965 Y85.500 E1.45742
G1 X87.888 Y86.113 E1.47820
G1 X87.660 Y86.688 E1.49899
G1 X87.341 Y87.127 E1.51726
G1 X86.814 Y86.734 F7800.000
G1 X86.466 Y87.022 E1.53246 F378.000
G1 X86.057 Y87.215 E1.54767
G1 X85.613 Y87.299 E1.56287
G1 X85.113 Y87.255 E1.57978
G1 X84.732 Y87.131 E1.59324
G1 X84.351 Y86.889 E1.60844
G1 X84.042 Y86.560 E1.62364
G1 X83.824 Y86.164 E1.63885
G1 X83.711 Y85.726 E1.65406
G1 X83.711 Y85.274 E1.66926
G1 X83.824 Y84.836 E1.68446
G1 X84.042 Y84.440 E1.69967
G1 X84.351 Y84.111 E1.71488
G1 X84.732 Y83.869 E1.73008
G1 X85.162 Y83.729 E1.74529
G1 X85.613 Y83.701 E1.76049
G1 X86.057 Y83.785 E1.77570
G1 X86.466 Y83.978 E1.79090
G1 X86.814 Y84.266 E1.80611
G1 X87.080 Y84.632 E1.82131
G1 X87.246 Y85.052 E1.83652
G1 X87.303 Y85.500 E1.85173
G1 X87.246 Y85.948 E1.86693
G1 X87.080 Y86.368 E1.88213
G1 X86.858 Y86.673 E1.89481
G1 X86.927 Y87.172 F7800.000
G1 F1800.000 E0.89481
G92 E0
G1 X84.294 Y82.630 F7800.000
G1 E1.00000 F1800.000
G1 X84.077 Y82.276 E1.01394 F540.000
G1 X92.689 Y73.664 E1.42374
G1 X106.336 Y73.664 E1.88291
G1 X106.336 Y106.336 E2.98223
G1 X73.664 Y106.336 E4.08155
G1 X73.664 Y92.689 E4.54072
G1 X82.258 Y84.096 E4.94964
G1 X82.606 Y84.295 E4.96314
G1 X82.397 Y85.108 E4.99140
G1 X82.397 Y85.892 E5.01777
G1 X82.592 Y86.651 E5.04414
G1 X82.970 Y87.338 E5.07054
G1 X83.507 Y87.910 E5.09691
G1 X84.168 Y88.330 E5.12327
G1 X84.707 Y88.505 E5.14232
G1 X84.914 Y88.572 E5.14966
G1 X85.697 Y88.621 E5.17605
G1 X86.466 Y88.474 E5.20241
G1 X87.176 Y88.140 E5.22880
G1 X87.780 Y87.641 E5.25517
G1 X88.241 Y87.007 E5.28155
G1 X88.529 Y86.278 E5.30792
G1 X88.627 Y85.500 E5.33429
G1 X88.529 Y84.722 E5.36069
G1 X88.241 Y83.993 E5.38706
G1 X87.780 Y83.359 E5.41343
G1 X87.176 Y82.860 E5.43980
G1 X86.466 Y82.526 E5.46619
G1 X85.696 Y82.379 E5.49257
G1 X84.914 Y82.428 E5.51893
G1 X84.365 Y82.606 E5.53836
G1 X106.993 Y73.007 F7800.000
G1 X106.993 Y106.993 E6.68190 F540.000
G1 X73.007 Y106.993 E7.82543
G1 X73.007 Y92.417 E8.31587
G1 X92.417 Y73.007 E9.23949
G1 X106.918 Y73.007 E9.72741
G1 X107.650 Y72.350 F7800.000
G1 X107.650 Y107.650 E10.91516 F378.000
G1 X72.350 Y107.650 E12.10292
G1 X72.350 Y92.145 E12.62462
G1 X92.145 Y72.350 E13.56656
G1 X107.575 Y72.350 E14.08574
G1 X107.400 Y72.783 F7800.000
G1 X105.839 Y74.121 F7800.000
G1 X105.879 Y74.161 E14.08764 F1080.000
G1 X105.879 Y75.093 E14.11903
G1 X104.907 Y74.121 E14.16533
G1 X103.974 Y74.121 E14.19672
G1 X105.879 Y76.026 E14.28741
G1 X105.879 Y76.959 E14.31880
G1 X103.041 Y74.121 E14.45388
G1 X102.108 Y74.121 E14.48527
G1 X105.879 Y77.892 E14.66474
G1 X105.879 Y78.825 E14.69613
G1 X101.175 Y74.121 E14.92000
G1 X100.242 Y74.121 E14.95139
G1 X105.879 Y79.758 E15.21964
G1 X105.879 Y80.691 E15.25103
G1 X99.309 Y74.121 E15.56368
G1 X98.376 Y74.121 E15.59507
G1 X105.879 Y81.624 E15.95211
G1 X105.879 Y82.557 E15.98350
G1 X97.443 Y74.121 E16.38494
G1 X96.510 Y74.121 E16.41633
G1 X105.879 Y83.490 E16.86215
G1 X105.879 Y84.423 E16.89354
G1 X95.577 Y74.121 E17.38376
G1 X94.645 Y74.121 E17.41515
G1 X105.879 Y85.355 E17.94976
G1 X105.879 Y86.288 E17.98115
G1 X93.712 Y74.121 E18.56015
G1 X92.843 Y74.184 E18.58947
G1 X105.879 Y87.221 E19.20982
G1 X105.879 Y88.154 E19.24121
G1 X92.376 Y74.651 E19.88376
G1 X91.910 Y75.117 E19.90596
G1 X105.879 Y89.087 E20.57070
G1 X105.879 Y90.020 E20.60209
G1 X91.443 Y75.584 E21.28903
G1 X90.977 Y76.050 E21.31123
G1 X105.879 Y90.953 E22.02036
G1 X105.879 Y91.886 E22.05175
G1 X90.510 Y76.517 E22.78309
G1 X90.044 Y76.983 E22.80528
G1 X105.879 Y92.819 E23.55881
G1 X105.879 Y93.752 E23.59020
G1 X89.577 Y77.450 E24.36593
G1 X89.111 Y77.916 E24.38812
G1 X105.879 Y94.685 E25.18604
G1 X105.879 Y95.617 E25.21743
G1 X88.645 Y78.383 E26.03755
G1 X88.178 Y78.849 E26.05975
G1 X105.879 Y96.550 E26.90206
G1 X105.879 Y97.483 E26.93345
G1 X87.712 Y79.315 E27.79796
G1 X87.245 Y79.782 E27.82015
G1 X105.879 Y98.416 E28.70686
G1 X105.879 Y99.349 E28.73825
G1 X86.779 Y80.248 E29.64715
G1 X86.312 Y80.715 E29.66935
G1 X105.879 Y100.282 E30.60044
G1 X105.879 Y101.215 E30.63183
G1 X88.780 Y84.115 E31.44553
G1 X89.067 Y85.335 E31.48770
G1 X105.879 Y102.148 E32.28774
G1 X105.879 Y103.081 E32.31913
G1 X88.999 Y86.200 E33.12238
G1 X88.771 Y86.906 E33.14732
G1 X105.879 Y104.014 E33.96140
G1 X105.879 Y104.947 E33.99279
G1 X88.441 Y87.508 E34.82262
G1 X88.028 Y88.028 E34.84496
G1 X105.859 Y105.859 E35.69347
G1 X104.947 Y105.879 E35.72420
G1 X87.517 Y88.450 E36.55356
G1 X86.906 Y88.772 E36.57680
G1 X104.014 Y105.879 E37.39086
G1 X103.081 Y105.879 E37.42225
G1 X86.192 Y88.991 E38.22588
G1 X85.323 Y89.055 E38.25520
G1 X102.148 Y105.879 E39.05579
G1 X101.215 Y105.879 E39.08718
G1 X84.134 Y88.798 E39.89998
G1 X82.175 Y86.839 F7800.000
G1 X81.181 Y85.846 E39.94726 F1080.000
G1 X81.648 Y85.379 E39.96946
G1 X81.941 Y85.673 E39.98341
G1 X80.715 Y86.312 E40.02994
G1 X100.282 Y105.879 E40.96104
G1 X99.349 Y105.879 E40.99243
G1 X80.248 Y86.779 E41.90133
G1 X79.782 Y87.245 E41.92353
G1 X98.416 Y105.879 E42.81023
G1 X97.483 Y105.879 E42.84162
G1 X79.315 Y87.712 E43.70613
G1 X78.849 Y88.178 E43.72833
G1 X96.550 Y105.879 E44.57064
G1 X95.617 Y105.879 E44.60203
G1 X78.383 Y88.645 E45.42215
G1 X77.916 Y89.111 E45.44434
G1 X94.685 Y105.879 E46.24226
G1 X93.752 Y105.879 E46.27365
G1 X77.450 Y89.578 E47.04938
G1 X76.983 Y90.044 E47.07157
G1 X92.819 Y105.879 E47.82510
G1 X91.886 Y105.879 E47.85649
G1 X76.517 Y90.510 E48.58782
G1 X76.050 Y90.977 E48.61002
G1 X90.953 Y105.879 E49.31916
G1 X90.020 Y105.879 E49.35055
G1 X75.584 Y91.443 E50.03749
G1 X75.117 Y91.910 E50.05968
G1 X89.087 Y105.879 E50.72443
G1 X88.154 Y105.879 E50.75582
G1 X74.651 Y92.376 E51.39837
G1 X74.184 Y92.843 E51.42056
G1 X87.221 Y105.879 E52.04091
G1 X86.288 Y105.879 E52.07230
G1 X74.121 Y93.712 E52.65131
G1 X74.121 Y94.645 E52.68270
G1 X85.355 Y105.879 E53.21731
G1 X84.423 Y105.879 E53.24870
G1 X74.121 Y95.577 E53.73891
G1 X74.121 Y96.510 E53.77030
G1 X83.490 Y105.879 E54.21613
G1 X82.557 Y105.879 E54.24752
G1 X74.121 Y97.443 E54.64895
G1 X74.121 Y98.376 E54.68034
G1 X81.624 Y105.879 E55.03739
G1 X80.691 Y105.879 E55.06878
G1 X74.121 Y99.309 E55.38142
G1 X74.121 Y100.242 E55.41281
G1 X79.758 Y105.879 E55.68107
G1 X78.825 Y105.879 E55.71246
G1 X74.121 Y101.175 E55.93633
G1 X74.121 Y102.108 E55.96772
G1 X77.892 Y105.879 E56.14719
G1 X76.959 Y105.879 E56.17858
G1 X74.121 Y103.041 E56.31366
G1 X74.121 Y103.974 E56.34505
G1 X76.026 Y105.879 E56.43574
G1 X75.093 Y105.879 E56.46713
G1 X74.121 Y104.907 E56.51342
G1 X74.121 Y105.839 E56.54481
G1 X74.161 Y105.879 E56.54672
G1 F1800.000 E55.54672
G92 E0
G1 X85.656 Y81.924 F7800.000
G1 E1.00000 F1800.000
G1 X85.379 Y81.648 E1.01315 F1080.000
G1 X85.846 Y81.181 E1.03535
G1 X86.881 Y82.216 E1.08460
M106 S173
M104 S234 ; set temperature
G1 F1800.000 E0.08460
G92 E0
G1 Z0.750 F7800.000
G1 X85.670 Y82.795 F7800.000
G1 E1.00000 F1800.000
G1 X86.337 Y82.923 E1.01988 F1800.000
G1 X86.952 Y83.212 E1.03975
G1 X87.475 Y83.645 E1.05963
G1 X87.875 Y84.194 E1.07951
G1 X87.942 Y84.364 E1.08486
G1 X88.125 Y84.826 E1.09939
G1 X88.210 Y85.500 E1.11926
G1 X88.125 Y86.174 E1.13914
G1 X87.875 Y86.806 E1.15902
G1 X87.475 Y87.355 E1.17889
G1 X86.952 Y87.788 E1.19877
G1 X86.337 Y88.077 E1.21865
G1 X85.670 Y88.205 E1.23852
G1 X84.992 Y88.162 E1.25840
G1 X84.818 Y88.105 E1.26375
G1 X84.346 Y87.952 E1.27828
G1 X83.773 Y87.588 E1.29816
G1 X83.308 Y87.093 E1.31803
G1 X82.980 Y86.498 E1.33791
G1 X82.811 Y85.840 E1.35779
G1 X82.811 Y85.160 E1.37766
G1 X82.980 Y84.502 E1.39754
G1 X83.308 Y83.907 E1.41742
G1 X83.773 Y83.412 E1.43730
G1 X84.346 Y83.048 E1.45717
G1 X84.992 Y82.838 E1.47705
G1 X85.595 Y82.800 E1.49473
G1 X85.638 Y83.298 F7800.000
G1 X86.182 Y83.402 E1.51091 F1800.000
G1 X86.682 Y83.637 E1.52709
G1 X87.108 Y83.990 E1.54327
G1 X87.433 Y84.437 E1.55945
G1 X87.477 Y84.549 E1.56296
G1 X87.637 Y84.951 E1.57564
G1 X87.706 Y85.500 E1.59181
G1 X87.637 Y86.049 E1.60799
G1 X87.433 Y86.563 E1.62418
G1 X87.108 Y87.010 E1.64035
G1 X86.682 Y87.363 E1.65654
G1 X86.182 Y87.598 E1.67272
G1 X85.639 Y87.702 E1.68890
G1 X85.087 Y87.667 E1.70507
G1 X84.973 Y87.630 E1.70858
G1 X84.561 Y87.496 E1.72126
G1 X84.094 Y87.200 E1.73744
G1 X83.715 Y86.797 E1.75362
G1 X83.449 Y86.312 E1.76980
G1 X83.311 Y85.776 E1.78598
G1 X83.311 Y85.224 E1.80216
G1 X83.449 Y84.688 E1.81834
G1 X83.715 Y84.203 E1.83452
G1 X84.094 Y83.800 E1.85070
G1 X84.561 Y83.504 E1.86688
G1 X85.087 Y83.333 E1.88306
G1 X85.564 Y83.303 E1.89705
G1 X85.607 Y83.801 F7800.000
G1 X86.026 Y83.881 E1.90953 F1260.000
G1 X86.412 Y84.063 E1.92201
G1 X86.741 Y84.335 E1.93450
G1 X87.012 Y84.733 E1.94859
G1 X87.149 Y85.077 E1.95942
G1 X87.202 Y85.500 E1.97190
G1 X87.149 Y85.923 E1.98439
G1 X86.991 Y86.320 E1.99687
G1 X86.741 Y86.665 E2.00936
G1 X86.412 Y86.937 E2.02184
G1 X86.026 Y87.119 E2.03432
G1 X85.607 Y87.199 E2.04681
G1 X85.127 Y87.154 E2.06090
G1 X84.775 Y87.040 E2.07173
G1 X84.415 Y86.811 E2.08421
G1 X84.123 Y86.500 E2.09670
G1 X83.918 Y86.127 E2.10918
G1 X83.811 Y85.713 E2.12166
G1 X83.811 Y85.287 E2.13415
G1 X83.903 Y84.928 E2.14498
G1 X84.123 Y84.500 E2.15907
G1 X84.415 Y84.189 E2.17155
G1 X84.775 Y83.960 E2.18404
G1 X85.181 Y83.828 E2.19652
G1 X85.532 Y83.806 E2.20681
G1 X85.858 Y83.456 F7800.000
G1 X106.750 Y73.250 F7800.000
G1 X106.750 Y106.750 E3.18707 F1800.000
G1 X73.250 Y106.750 E4.16733
G1 X73.250 Y92.518 E4.58378
G1 X92.518 Y73.250 E5.38112
G1 X106.675 Y73.250 E5.79538
G1 X107.250 Y72.750 F7800.000
G1 X107.250 Y107.250 E6.80490 F1800.000
G1 X72.750 Y107.250 E7.81443
G1 X72.750 Y92.311 E8.25157
G1 X92.311 Y72.750 E9.06103
G1 X107.175 Y72.750 E9.49598
G1 X107.750 Y72.250 F7800.000
G1 X107.750 Y107.750 E10.53477 F1260.000
G1 X72.250 Y107.750 E11.57355
G1 X72.250 Y92.104 E12.03139
G1 X92.104 Y72.250 E12.85296
G1 X107.675 Y72.250 E13.30861
G1 X107.500 Y72.683 F7800.000
G1 X101.543 Y73.597 F7800.000
G1 X88.191 Y86.949 E13.88283 F3600.000
G1 X88.510 Y85.892 E13.91640
G1 X100.805 Y73.597 E14.44518
G1 X100.067 Y73.597 E14.46762
G1 X88.515 Y85.149 E14.96444
G1 X88.385 Y84.541 E14.98334
G1 X99.330 Y73.597 E15.45403
G1 X98.592 Y73.597 E15.47647
G1 X88.173 Y84.015 E15.92453
G1 X87.863 Y83.588 E15.94060
G1 X97.854 Y73.597 E16.37029
G1 X97.116 Y73.597 E16.39272
G1 X87.499 Y83.214 E16.80634
G1 X87.085 Y82.891 E16.82232
G1 X96.379 Y73.597 E17.22203
G1 X95.641 Y73.597 E17.24447
G1 X86.583 Y82.655 E17.63402
G1 X85.996 Y82.504 E17.65246
G1 X94.903 Y73.597 E18.03554
G1 X94.165 Y73.597 E18.05798
G1 X85.290 Y82.472 E18.43966
G1 X84.542 Y82.483 F7800.000
G1 X93.428 Y73.597 E18.82181 F3600.000
G1 X92.690 Y73.597 E18.84424
G1 X84.214 Y82.073 E19.20878
G1 X82.063 Y84.224 F7800.000
G1 X73.597 Y92.690 E19.57286 F3600.000
G1 X73.597 Y93.428 E19.59530
G1 X82.484 Y84.540 E19.97751
G1 X82.465 Y85.298 E20.00054
G1 X73.597 Y94.165 E20.38191
G1 X73.597 Y94.903 E20.40435
G1 X82.496 Y86.004 E20.78706
G1 X82.646 Y86.591 E20.80549
G1 X73.597 Y95.641 E21.19468
G1 X73.597 Y96.379 E21.21711
G1 X82.901 Y87.074 E21.61727
G1 X83.214 Y87.500 E21.63332
G1 X73.597 Y97.116 E22.04691
G1 X73.597 Y97.854 E22.06935
G1 X83.577 Y87.874 E22.49854
G1 X84.028 Y88.161 E22.51480
G1 X73.597 Y98.592 E22.96341
G1 X73.597 Y99.330 E22.98584
G1 X84.545 Y88.381 E23.45669
G1 X85.145 Y88.519 E23.47542
G1 X73.597 Y100.067 E23.97207
G1 X73.597 Y100.805 E23.99451
G1 X85.885 Y88.517 E24.52300
G1 X86.983 Y88.157 E24.55813
G1 X73.597 Y101.543 E25.13383
G1 X73.597 Y102.281 E25.15626
G1 X102.281 Y73.597 E26.38987
G1 X103.019 Y73.597 E26.41231
G1 X73.597 Y103.019 E27.67764
G1 X73.597 Y103.756 E27.70008
G1 X103.756 Y73.597 E28.99714
G1 X104.494 Y73.597 E29.01958
G1 X73.597 Y104.494 E30.34838
G1 X73.597 Y105.232 E30.37081
G1 X105.232 Y73.597 E31.73134
G1 X105.970 Y73.597 E31.75377
G1 X73.597 Y105.970 E33.14603
G1 X73.901 Y106.403 E33.16213
G1 X106.403 Y73.901 E34.55995
G1 X106.403 Y74.639 E34.58238
G1 X74.639 Y106.403 E35.94846
G1 X75.377 Y106.403 E35.97090
G1 X106.403 Y75.377 E37.30525
G1 X106.403 Y76.114 E37.32769
G1 X76.114 Y106.403 E38.63031
G1 X76.852 Y106.403 E38.65275
G1 X106.403 Y76.852 E39.92364
G1 X106.403 Y77.590 E39.94608
G1 X77.590 Y106.403 E41.18524
G1 X78.328 Y106.403 E41.20768
G1 X106.403 Y78.328 E42.41511
G1 X106.403 Y79.066 E42.43755
G1 X79.066 Y106.403 E43.61325
G1 X79.803 Y106.403 E43.63569
G1 X106.403 Y79.803 E44.77967
G1 X106.403 Y80.541 E44.80210
G1 X80.541 Y106.403 E45.91435
G1 X81.279 Y106.403 E45.93678
G1 X106.403 Y81.279 E47.01730
G1 X106.403 Y82.017 E47.03974
G1 X82.017 Y106.403 E48.08853
G1 X82.754 Y106.403 E48.11096
G1 X106.403 Y82.754 E49.12802
G1 X106.403 Y83.492 E49.15046
G1 X83.492 Y106.403 E50.13579
G1 X84.230 Y106.403 E50.15822
G1 X106.403 Y84.230 E51.11182
G1 X106.403 Y84.968 E51.13426
G1 X84.968 Y106.403 E52.05613
G1 X85.706 Y106.403 E52.07857
G1 X106.403 Y85.706 E52.96871
G1 X106.403 Y86.443 E52.99114
G1 X86.443 Y106.403 E53.84956
G1 X87.181 Y106.403 E53.87199
G1 X106.403 Y87.181 E54.69867
G1 X106.403 Y87.919 E54.72111
G1 X87.919 Y106.403 E55.51606
G1 X88.657 Y106.403 E55.53850
G1 X106.403 Y88.657 E56.30172
G1 X106.403 Y89.394 E56.32416
G1 X89.394 Y106.403 E57.05566
G1 X90.132 Y106.403 E57.07809
G1 X106.403 Y90.132 E57.77786
G1 X106.403 Y90.870 E57.80029
G1 X90.870 Y106.403 E58.46833
G1 X91.608 Y106.403 E58.49077
G1 X106.403 Y91.608 E59.12707
G1 X106.403 Y92.345 E59.14951
G1 X92.345 Y106.403 E59.75409
G1 X93.083 Y106.403 E59.77652
G1 X106.403 Y93.083 E60.34937
G1 X106.403 Y93.821 E60.37181
G1 X93.821 Y106.403 E60.91293
G1 X94.559 Y106.403 E60.93536
G1 X106.403 Y94.559 E61.44475
G1 X106.403 Y95.297 E61.46719
G1 X95.297 Y106.403 E61.94485
G1 X96.034 Y106.403 E61.96728
G1 X106.403 Y96.034 E62.41321
G1 X106.403 Y96.772 E62.43565
G1 X96.772 Y106.403 E62.84985
G1 X97.510 Y106.403 E62.87229
G1 X106.403 Y97.510 E63.25476
G1 X106.403 Y98.248 E63.27720
G1 X98.248 Y106.403 E63.62794
G1 X98.985 Y106.403 E63.65038
G1 X106.403 Y98.985 E63.96939
G1 X106.403 Y99.723 E63.99183
G1 X99.723 Y106.403 E64.27911
G1 X100.461 Y106.403 E64.30155
G1 X106.403 Y100.461 E64.55710
G1 X106.403 Y101.199 E64.57954
G1 X101.199 Y106.403 E64.80336
G1 X101.936 Y106.403 E64.82580
G1 X106.403 Y101.936 E65.01790
G1 X106.403 Y102.674 E65.04033
G1 X102.674 Y106.403 E65.20070
