; generated by Slic3r 0.9.11-dev on 2013-09-30 at 15:50:03

; layer_height = 0.2
; perimeters = 2
; top_solid_layers = 3
; bottom_solid_layers = 3
; fill_density = 0.4
; perimeter_speed = 30
; infill_speed = 60
; travel_speed = 130
; nozzle_diameter = 0.5
; filament_diameter = 2.98
; extrusion_multiplier = 1
; perimeters extrusion width = 0.60mm
; infill extrusion width = 0.50mm
; solid infill extrusion width = 0.60mm
; top infill extrusion width = 0.60mm
; support material extrusion width = 0.60mm
; first layer extrusion width = 1.00mm

G21 ; set units to millimeters
M107
M190 S5 ; wait for bed temperature to be reached
M104 S200 ; set temperature
G28 ; home all axes
G1 Z5 F5000 ; lift nozzle
M109 S200 ; wait for temperature to be reached
G90 ; use absolute coordinates
G92 E0
M82 ; use absolute distances for extrusion
G1 F1800.000 E-1.00000
G92 E0
G1 Z0.500 F7800.000
M104 S195 ; set temperature
G1 Z0.700 F7800.000
G1 X80.432 Y66.037 F7800.000
G1 E1.00000 F1800.000
G1 X80.584 Y65.885 E1.00606 F3600
G1 X82.447 Y64.809 F7800.000
G1 X79.356 Y67.901 E1.12915 F3600
G1 X78.280 Y69.764 F7800.000
G1 X84.311 Y63.733 E1.36927 F3600
G1 X86.174 Y62.657 F7800.000
G1 X77.204 Y71.628 E1.72642 F3600
G1 X76.128 Y73.492 F7800.000
G1 X88.038 Y61.581 E2.20061 F3600
G1 X89.902 Y60.505 F7800.000
G1 X75.052 Y75.355 E2.79182 F3600
G1 X73.976 Y77.219 F7800.000
G1 X91.765 Y59.430 E3.50007 F3600
G1 X93.629 Y58.354 F7800.000
G1 X72.900 Y79.083 E4.32535 F3600
G1 X71.824 Y80.946 F7800.000
G1 X95.492 Y57.278 E5.26766 F3600
G1 X97.356 Y56.202 F7800.000
G1 X70.748 Y82.810 E6.32700 F3600
G1 X69.672 Y84.674 F7800.000
G1 X99.219 Y55.126 E7.50338 F3600
G1 X100.079 Y55.055 E7.52765
G1 X68.596 Y86.538 E8.78108
G1 X67.520 Y88.401 F7800.000
G1 X100.700 Y55.221 E10.10208 F3600
G1 X101.321 Y55.387 E10.12018
G1 X66.444 Y90.265 E11.50875
G1 X65.368 Y92.129 F7800.000
G1 X101.942 Y55.554 E12.96490 F3600
G1 X102.564 Y55.720 E12.98300
G1 X64.292 Y93.992 E14.50672
G1 X63.584 Y95.488 F7800.000
G1 X103.185 Y55.887 E16.08334 F3600
G1 X103.806 Y56.053 E16.10144
G1 X63.584 Y96.275 E17.70280
G1 X63.584 Y97.063 E17.72497
G1 X104.427 Y56.220 E19.35106
G1 X105.048 Y56.386 E19.36917
G1 X63.584 Y97.851 E21.01999
G1 X63.584 Y98.638 E21.04216
G1 X78.338 Y83.884 E21.62958
G1 X77.774 Y85.236 F7800.000
G1 X63.584 Y99.426 E22.19453 F3600
G1 X63.584 Y100.214 E22.21671
G1 X77.559 Y86.239 E22.77309
G1 X77.495 Y87.090 E22.79713
G1 X63.584 Y101.001 E23.35097
G1 X63.584 Y101.789 E23.37314
G1 X77.558 Y87.815 E23.92950
G1 X77.678 Y88.482 E23.94859
G1 X63.584 Y102.577 E24.50973
G1 X63.584 Y103.364 E24.53191
G1 X77.847 Y89.101 E25.09977
G1 X78.086 Y89.650 E25.11663
G1 X63.584 Y104.152 E25.69398
G1 X63.584 Y104.940 E25.71615
G1 X78.340 Y90.184 E26.30363
G1 X78.664 Y90.647 E26.31955
G1 X63.584 Y105.727 E26.91994
G1 X63.584 Y106.515 E26.94211
G1 X78.997 Y91.102 E27.55575
G1 X79.391 Y91.496 E27.57143
G1 X63.584 Y107.303 E28.20075
G1 X63.584 Y108.090 E28.22293
G1 X79.796 Y91.879 E28.86837
G1 X80.259 Y92.203 E28.88429
G1 X63.584 Y108.878 E29.54818
G1 X63.584 Y109.666 E29.57035
G1 X80.739 Y92.510 E30.25336
G1 X81.277 Y92.761 E30.27005
G1 X63.584 Y110.454 E30.97444
G1 X63.584 Y111.241 E30.99662
G1 X81.846 Y92.979 E31.72369
G1 X82.468 Y93.145 E31.74180
G1 X63.584 Y112.029 E32.49361
G1 X63.584 Y112.817 E32.51579
G1 X83.160 Y93.241 E33.29516
G1 X83.910 Y93.278 E33.31631
G1 X63.584 Y113.604 E34.12556
G1 X63.584 Y114.392 E34.14774
G1 X84.773 Y93.202 E34.99136
G1 X85.834 Y92.929 E35.02219
G1 X63.584 Y115.180 E35.90803
G1 X63.584 Y115.967 E35.93021
G1 X87.610 Y91.941 E36.88674
G1 X88.627 Y90.924 F7800.000
G1 X107.280 Y72.271 E37.62936 F3600
G1 X106.562 Y72.201 E37.64966
G1 X89.649 Y89.114 E38.32301
G1 X89.917 Y88.058 E38.35367
G1 X105.850 Y72.126 E38.98797
G1 X105.137 Y72.051 E39.00815
G1 X89.994 Y87.194 E39.61101
G1 X89.959 Y86.441 E39.63222
G1 X104.559 Y71.842 E40.21346
G1 X104.059 Y71.553 E40.22970
G1 X89.865 Y85.747 E40.79480
G1 X89.698 Y85.127 E40.81290
G1 X103.560 Y71.265 E41.36477
G1 X103.061 Y70.977 E41.38101
G1 X89.480 Y84.557 E41.92169
G1 X89.228 Y84.022 E41.93835
G1 X102.638 Y70.612 E42.47226
G1 X102.307 Y70.155 E42.48813
G1 X88.923 Y83.539 E43.02097
G1 X88.599 Y83.076 E43.03689
G1 X101.975 Y69.699 E43.56945
G1 X101.644 Y69.243 E43.58532
G1 X88.216 Y82.671 E44.11992
G1 X87.822 Y82.277 E44.13560
G1 X101.349 Y68.750 E44.67414
G1 X101.211 Y68.100 E44.69283
G1 X87.367 Y81.944 E45.24399
G1 X86.904 Y81.620 E45.25991
G1 X101.073 Y67.451 E45.82401
G1 X100.935 Y66.801 E45.84271
G1 X86.371 Y81.365 E46.42255
G1 X85.825 Y81.124 E46.43936
G1 X100.995 Y65.953 E47.04335
G1 X101.208 Y64.953 E47.07214
G1 X85.203 Y80.957 E47.70934
G1 X84.540 Y80.833 E47.72834
G1 X101.821 Y63.551 E48.41636
G1 X103.652 Y61.721 F7800.000
G1 X108.155 Y57.218 E48.59561 F3600
G1 X108.776 Y57.385 E48.61372
G1 X105.177 Y60.983 E48.75699
G1 X106.057 Y60.891 E48.78191
G1 X109.397 Y57.551 E48.91487
G1 X110.018 Y57.718 E48.93298
G1 X106.938 Y60.798 E49.05563
G1 X107.639 Y60.884 E49.07553
G1 X110.640 Y57.884 E49.19499
G1 X111.046 Y58.265 E49.21068
G1 X108.234 Y61.078 E49.32264
G1 X108.828 Y61.271 E49.34023
G1 X111.334 Y58.765 E49.44000
G1 X111.622 Y59.264 E49.45624
G1 X109.423 Y61.464 E49.54381
G1 X109.878 Y61.797 E49.55968
G1 X111.911 Y59.764 E49.64062
G1 X112.199 Y60.263 E49.65686
G1 X110.292 Y62.170 E49.73278
G1 X110.707 Y62.543 E49.74848
G1 X112.487 Y60.762 E49.81937
G1 X112.776 Y61.262 E49.83561
G1 X111.121 Y62.916 E49.90148
G1 X111.456 Y63.369 E49.91733
G1 X113.064 Y61.761 E49.98133
G1 X113.352 Y62.261 E49.99756
G1 X111.699 Y63.914 E50.06337
G1 X111.942 Y64.459 E50.08017
G1 X113.640 Y62.760 E50.14780
G1 X113.929 Y63.259 E50.16403
G1 X112.184 Y65.004 E50.23348
G1 X112.324 Y65.652 E50.25216
G1 X114.217 Y63.759 E50.32754
G1 X114.505 Y64.258 E50.34377
G1 X112.324 Y66.440 E50.43064
G1 X112.324 Y67.228 E50.45281
G1 X114.794 Y64.757 E50.55116
G1 X115.082 Y65.257 E50.56739
G1 X112.089 Y68.250 E50.68655
G1 X111.457 Y69.670 F7800.000
G1 X115.370 Y65.756 E50.84236 F3600
G1 X115.659 Y66.256 E50.85860
G1 X64.339 Y117.575 E52.90178
G1 X64.733 Y117.969 E52.91746
G1 X115.947 Y66.755 E54.95644
G1 X116.235 Y67.254 E54.97267
G1 X65.126 Y118.363 E57.00745
G1 X65.520 Y118.757 E57.02313
G1 X116.101 Y68.176 E59.03688
G1 X115.792 Y69.272 E59.06894
G1 X97.523 Y87.541 E59.79628
G1 X99.387 Y86.466 F7800.000
G1 X115.484 Y70.369 E60.43715 F3600
G1 X115.175 Y71.465 E60.46921
G1 X101.250 Y85.390 E61.02360
G1 X103.114 Y84.314 F7800.000
G1 X114.867 Y72.561 E61.49152 F3600
G1 X114.558 Y73.657 E61.52358
G1 X104.977 Y83.238 E61.90502
G1 X106.841 Y82.163 F7800.000
G1 X114.250 Y74.754 E62.19999 F3600
G1 X113.941 Y75.850 E62.23205
G1 X108.704 Y81.087 E62.44054
G1 X110.568 Y80.011 F7800.000
G1 X113.632 Y76.946 E62.56256 F3600
G1 X113.324 Y78.042 E62.59462
G1 X112.431 Y78.935 E62.63016
G1 X108.447 Y71.892 F7800.000
G1 X63.584 Y116.755 E64.41627 F3600
G1 X63.945 Y117.182 E64.43201
G1 X109.944 Y71.183 E66.26335
G1 X95.125 Y89.939 F7800.000
G1 X65.914 Y119.151 E67.42634 F3600
G1 X66.308 Y119.545 E67.44202
G1 X94.016 Y91.837 E68.54513
G1 X92.906 Y93.735 F7800.000
G1 X74.073 Y112.568 E69.29492 F3600
G1 X72.918 Y113.722 F7800.000
G1 X66.702 Y119.938 E69.54242 F3600
G1 X67.096 Y120.332 E69.55810
G1 X71.983 Y115.445 E69.75269
G1 X71.771 Y116.445 E69.78148
G1 X67.490 Y120.726 E69.95193
G1 X67.883 Y121.120 E69.96761
G1 X71.650 Y117.353 E70.11758
G1 X71.788 Y118.003 E70.13627
G1 X68.277 Y121.514 E70.27606
G1 X68.671 Y121.908 E70.29174
G1 X71.926 Y118.652 E70.42135
G1 X72.064 Y119.302 E70.44004
G1 X69.065 Y122.301 E70.55947
G1 X69.459 Y122.695 E70.57515
G1 X72.326 Y119.828 E70.68930
G1 X72.658 Y120.284 E70.70518
G1 X69.853 Y123.089 E70.81685
G1 X70.246 Y123.483 E70.83253
G1 X72.989 Y120.740 E70.94172
G1 X73.320 Y121.197 E70.95760
G1 X70.640 Y123.877 E71.06431
G1 X71.034 Y124.271 E71.07999
G1 X73.714 Y121.590 E71.18669
G1 X74.214 Y121.879 E71.20292
G1 X71.428 Y124.664 E71.31383
G1 X71.822 Y125.058 E71.32951
G1 X74.713 Y122.167 E71.44462
G1 X75.212 Y122.455 E71.46085
G1 X72.496 Y125.172 E71.56901
G1 X73.283 Y125.172 E71.59119
G1 X75.754 Y122.702 E71.68955
G1 X76.467 Y122.776 E71.70972
G1 X74.071 Y125.172 E71.80510
G1 X74.859 Y125.172 E71.82727
G1 X77.179 Y122.851 E71.91967
G1 X77.892 Y122.926 E71.93984
G1 X75.646 Y125.172 E72.02926
G1 X76.434 Y125.172 E72.05143
G1 X78.986 Y122.620 E72.15304
G1 X80.153 Y122.241 E72.18758
G1 X77.222 Y125.172 E72.30428
G1 X78.009 Y125.172 E72.32645
G1 X91.217 Y111.965 E72.85228
G1 X91.217 Y112.752 E72.87446
G1 X78.797 Y125.172 E73.36893
G1 X79.585 Y125.172 E73.39110
G1 X91.217 Y113.540 E73.85422
G1 X91.217 Y114.327 E73.87639
G1 X80.372 Y125.172 E74.30814
G1 X81.160 Y125.172 E74.33032
G1 X91.217 Y115.115 E74.73071
G1 X91.217 Y115.903 E74.75289
G1 X81.948 Y125.172 E75.12192
G1 X82.735 Y125.172 E75.14410
G1 X91.217 Y116.690 E75.48178
G1 X91.217 Y111.177 F7800.000
G1 X82.304 Y120.090 E75.83664 F3600
G1 X82.936 Y118.670 F7800.000
G1 X91.217 Y110.389 E76.16633 F3600
G1 X91.217 Y109.602 E76.18850
G1 X83.063 Y117.756 E76.51315
G1 X83.063 Y116.968 E76.53532
G1 X91.217 Y108.814 E76.85997
G1 X91.217 Y108.026 E76.88214
G1 X83.063 Y116.181 E77.20679
G1 X82.882 Y115.574 E77.22462
G1 X91.217 Y107.239 E77.55645
G1 X91.217 Y106.451 E77.57863
G1 X82.639 Y115.028 E77.92012
G1 X82.397 Y114.483 E77.93692
G1 X91.217 Y105.663 E78.28807
G1 X91.217 Y104.876 E78.31025
G1 X82.154 Y113.938 E78.67106
G1 X81.789 Y113.516 E78.68679
G1 X91.217 Y104.088 E79.06212
G1 X91.217 Y103.300 E79.08430
G1 X81.375 Y113.142 E79.47613
G1 X80.960 Y112.769 E79.49183
G1 X91.217 Y102.513 E79.90017
G1 X91.217 Y101.725 E79.92234
G1 X80.546 Y112.396 E80.34718
G1 X80.060 Y112.094 E80.36328
G1 X91.217 Y100.937 E80.80746
G1 X91.217 Y100.150 E80.82963
G1 X79.466 Y111.901 E81.29747
G1 X78.871 Y111.708 E81.31507
G1 X91.217 Y99.362 E81.80658
G1 X91.217 Y98.574 E81.82875
G1 X78.277 Y111.514 E82.34393
G1 X77.526 Y111.477 E82.36508
G1 X91.217 Y97.787 E82.91014
G1 X91.216 Y96.999 E82.93231
G1 X76.646 Y111.570 E83.51241
G1 X75.766 Y111.662 E83.53732
G1 X91.796 Y95.632 E84.17552
G1 F1800.000 E83.17552
G92 E0
G1 X83.816 Y80.770 F7800.000
G1 E1.00000 F1800.000
G1 X107.533 Y57.052 E1.94427 F3600
G1 X106.912 Y56.885 E1.96237
G1 X82.960 Y80.837 E2.91597
G1 X81.964 Y81.046 F7800.000
G1 X106.291 Y56.719 E3.88448 F3600
G1 X105.670 Y56.552 E3.90259
G1 X80.613 Y81.610 E4.90019
G1 F1800.000 E3.90019
G92 E0
G1 X80.156 Y82.810 F7800.000
G1 X96.619 Y89.303 F7800.000
G1 E1.00000 F1800.000
G1 X92.187 Y96.884 E1.24720 F3600
G1 X92.187 Y117.132 E1.81722
G1 X83.177 Y126.142 E2.17596
G1 X71.494 Y126.142 E2.50484
G1 X62.614 Y117.262 E2.85840
G1 X62.614 Y94.983 E3.48560
G1 X62.600 Y94.983 E3.48600
G1 X79.777 Y65.230 E4.45316
G1 X99.439 Y53.879 E5.09231
G1 X111.499 Y57.110 E5.44378
G1 X117.364 Y67.270 E5.77403
G1 X114.024 Y79.136 E6.12107
G1 X96.726 Y89.122 E6.68338
G1 X96.662 Y89.228 E6.68685
G1 X96.591 Y89.303 F7800.000
G1 X96.306 Y88.696 F7800.000
G1 X91.608 Y96.729 E6.94881 F3600
G1 X91.609 Y116.892 E7.51645
G1 X82.937 Y125.564 E7.86170
G1 X71.734 Y125.564 E8.17708
G1 X63.192 Y117.022 E8.51715
G1 X63.192 Y95.113 E9.13393
G1 X80.201 Y65.654 E10.09156
G1 X99.521 Y54.500 E10.71960
G1 X111.118 Y57.607 E11.05758
G1 X116.741 Y67.348 E11.37422
G1 X113.531 Y78.752 E11.70777
G1 X96.381 Y88.653 E12.26523
G1 X81.312 Y119.932 F7800.000
G1 X81.281 Y120.001 E12.26735 F1800
G1 X79.799 Y121.336 E12.32349
G1 X77.903 Y121.952 E12.37963
G1 X75.920 Y121.744 E12.43577
G1 X74.193 Y120.746 E12.49191
G1 X73.020 Y119.133 E12.54805
G1 X72.606 Y117.182 E12.60419
G1 X73.020 Y115.232 E12.66033
G1 X74.193 Y113.619 E12.71647
G1 X75.920 Y112.621 E12.77261
G1 X77.903 Y112.413 E12.82875
G1 X79.799 Y113.029 E12.88489
G1 X81.281 Y114.364 E12.94103
G1 X82.092 Y116.185 E12.99717
G1 X82.092 Y118.180 E13.05331
G1 X81.347 Y119.853 E13.10489
G1 X81.356 Y119.993 F7800.000
G1 X81.841 Y120.168 F7800.000
G1 X81.760 Y120.349 E13.11047 F1800
G1 X80.095 Y121.848 E13.17353
G1 X77.965 Y122.540 E13.23660
G1 X75.737 Y122.306 E13.29966
G1 X73.797 Y121.186 E13.36273
G1 X72.480 Y119.374 E13.42579
G1 X72.014 Y117.182 E13.48885
G1 X72.480 Y114.991 E13.55192
G1 X73.797 Y113.179 E13.61498
G1 X75.737 Y112.059 E13.67804
G1 X77.965 Y111.825 E13.74111
G1 X80.095 Y112.517 E13.80417
G1 X81.760 Y114.016 E13.86723
G1 X82.671 Y116.062 E13.93030
G1 X82.671 Y118.303 E13.99336
G1 X81.876 Y120.088 E14.04840
G1 X83.716 Y92.315 F7800.000
G1 X82.829 Y92.238 E14.07346 F1800
G1 X81.939 Y91.999 E14.09942
G1 X81.103 Y91.609 E14.12539
G1 X80.347 Y91.080 E14.15135
G1 X79.695 Y90.428 E14.17731
G1 X79.166 Y89.673 E14.20327
G1 X78.780 Y88.845 E14.22900
G1 X78.541 Y87.957 E14.25487
G1 X78.459 Y87.014 E14.28152
G1 X78.544 Y86.085 E14.30780
G1 X78.790 Y85.189 E14.33394
G1 X79.194 Y84.343 E14.36034
G1 X79.696 Y83.629 E14.38492
G1 X80.322 Y82.999 E14.40992
G1 X81.095 Y82.452 E14.43658
G1 X81.941 Y82.056 E14.46286
G1 X82.820 Y81.821 E14.48848
G1 X83.756 Y81.738 E14.51496
G1 X84.667 Y81.818 E14.54068
G1 X85.557 Y82.056 E14.56664
G1 X86.393 Y82.446 E14.59261
G1 X87.149 Y82.975 E14.61857
G1 X87.801 Y83.627 E14.64453
G1 X88.325 Y84.376 E14.67025
G1 X88.719 Y85.217 E14.69640
G1 X88.957 Y86.104 E14.72226
G1 X89.038 Y87.021 E14.74819
G1 X88.955 Y87.957 E14.77464
G1 X88.722 Y88.828 E14.80002
G1 X88.332 Y89.668 E14.82608
G1 X87.782 Y90.448 E14.85295
G1 X87.137 Y91.089 E14.87855
G1 X86.386 Y91.613 E14.90431
G1 X85.554 Y92.000 E14.93016
G1 X84.665 Y92.238 E14.95606
G1 X83.803 Y92.313 E14.98043
G1 X83.412 Y92.807 F7800.000
G1 X83.666 Y92.892 F7800.000
G1 X82.729 Y92.810 E15.00692 F1800
G1 X81.740 Y92.545 E15.03573
G1 X80.812 Y92.112 E15.06454
G1 X79.974 Y91.525 E15.09335
G1 X79.250 Y90.802 E15.12216
G1 X78.664 Y89.963 E15.15097
G1 X78.241 Y89.058 E15.17909
G1 X77.974 Y88.078 E15.20768
G1 X77.880 Y86.996 E15.23827
G1 X77.980 Y85.953 E15.26777
G1 X78.259 Y84.958 E15.29687
G1 X78.640 Y84.141 E15.32225
G1 X78.719 Y84.012 E15.32649
G1 X79.254 Y83.255 E15.35259
G1 X79.922 Y82.582 E15.37929
G1 X80.794 Y81.957 E15.40949
G1 X81.749 Y81.509 E15.43919
G1 X82.704 Y81.253 E15.46702
G1 X83.773 Y81.159 E15.49725
G1 X84.767 Y81.246 E15.52534
G1 X85.756 Y81.511 E15.55415
G1 X86.684 Y81.943 E15.58296
G1 X87.522 Y82.530 E15.61177
G1 X88.246 Y83.254 E15.64059
G1 X88.818 Y84.071 E15.66868
G1 X89.262 Y85.013 E15.69798
G1 X89.525 Y85.992 E15.72652
G1 X89.618 Y87.010 E15.75529
G1 X89.523 Y88.072 E15.78531
G1 X89.272 Y89.009 E15.81263
G1 X88.837 Y89.950 E15.84181
G1 X88.204 Y90.844 E15.87267
G1 X87.492 Y91.547 E15.90082
G1 X86.661 Y92.123 E15.92926
G1 X85.842 Y92.506 E15.95473
G1 X85.744 Y92.548 E15.95773
G1 X84.760 Y92.810 E15.98639
G1 X83.752 Y92.899 E16.01488
G1 F1800.000 E15.01488
G92 E0
G1 X83.748 Y92.579 F7800.000
G1 X110.573 Y69.270 F7800.000
G1 E1.00000 F1800.000
G1 X110.542 Y69.338 E1.00212 F1800
G1 X109.060 Y70.673 E1.05826
G1 X107.164 Y71.289 E1.11440
G1 X105.181 Y71.081 E1.17054
G1 X103.454 Y70.083 E1.22668
G1 X102.281 Y68.470 E1.28282
G1 X101.867 Y66.520 E1.33896
G1 X102.281 Y64.569 E1.39510
G1 X103.454 Y62.956 E1.45124
G1 X105.181 Y61.958 E1.50738
G1 X107.164 Y61.750 E1.56352
G1 X109.060 Y62.366 E1.61966
G1 X110.542 Y63.701 E1.67580
G1 X111.353 Y65.522 E1.73194
G1 X111.353 Y67.517 E1.78808
G1 X110.608 Y69.190 E1.83965
G1 X110.617 Y69.330 F7800.000
G1 X111.102 Y69.505 F7800.000
G1 X111.021 Y69.686 E1.84524 F1800
G1 X109.356 Y71.185 E1.90830
G1 X107.226 Y71.877 E1.97137
G1 X104.998 Y71.643 E2.03443
G1 X103.058 Y70.523 E2.09749
G1 X101.741 Y68.711 E2.16056
G1 X101.275 Y66.520 E2.22362
G1 X101.741 Y64.328 E2.28668
G1 X103.058 Y62.516 E2.34975
G1 X104.998 Y61.396 E2.41281
G1 X107.226 Y61.162 E2.47588
G1 X109.356 Y61.854 E2.53894
G1 X111.021 Y63.353 E2.60200
G1 X111.932 Y65.399 E2.66507
G1 X111.932 Y67.640 E2.72813
G1 X111.137 Y69.426 E2.78317
G1 F1800.000 E1.78317
G92 E0
G1 Z0.900 F7800.000
G1 X112.233 Y65.117 F7800.000
G1 E1.00000 F1800.000
G1 X115.924 Y68.808 E1.08706 F3600
G1 X115.744 Y69.450 E1.09818
G1 X112.322 Y66.028 E1.17889
G1 X112.322 Y66.851 E1.19261
G1 X115.563 Y70.092 E1.26905
G1 X115.382 Y70.734 E1.28017
G1 X112.322 Y67.673 E1.35235
G1 X112.084 Y68.258 E1.36288
G1 X115.202 Y71.375 E1.43641
G1 X115.021 Y72.017 E1.44754
